;FLAVOR:Marlin
;TIME:1384
;Filament used: 1.33594m
;Layer height: 0.2
;MINX:77.839
;MINY:77.146
;MINZ:0.2
;MAXX:157.16
;MAXY:157.855
;MAXZ:2
;Generated with Cura_SteamEngine 4.8.0
M140 S50
M105
M190 S50
M104 S200
M105
M109 S200
M82 ;absolute extrusion mode
; Ender 3 Custom Start G-code
G1 Z20.0 F3000 ; Move Z Axis up to prevent crashing in side of build plate
G28 ; Home all axes
M420 S1 ;
G29 ;
G92 E ;
G92 E0 ; Reset Extruder
G1 X5.1 Y20 Z0.3 F5000.0 ; Move to start position
G1 X5.1 Y200.0 Z0.3 F1500.0 E15 ; Draw the first line
G1 X0.4 Y200.0 Z0.3 F5000.0 ; Move to side a little
G1 X0.4 Y20 Z0.3 F1500.0 E30 ; Draw the second line
G92 E0 ; Reset Extruder
G1 Z2.0 F3000 ; Move Z Axis up little to prevent scratching of Heat Bed
G92 E0
G92 E0
G1 F2700 E-5
;LAYER_COUNT:9
;LAYER:0
M107
G1 F600 Z0.4
G0 F2400 X88.129 Y88.854 Z0.4
;TYPE:SKIRT
G1 F600 Z0.2
G1 F2700 E0
G1 F1200 X88.408 Y88.577 E0.02043
G1 X89.023 Y87.987 E0.06472
G1 X89.298 Y87.731 E0.08425
G1 X90.095 Y87.014 E0.13996
G1 X90.398 Y86.751 E0.16081
G1 X91.122 Y86.143 E0.20995
G1 X91.412 Y85.907 E0.22938
G1 X92.064 Y85.394 E0.27249
G1 X92.383 Y85.151 E0.29333
G1 X93.282 Y84.492 E0.35126
G1 X93.603 Y84.266 E0.37166
G1 X94.262 Y83.816 E0.41313
G1 X94.58 Y83.606 E0.43294
G1 X95.46 Y83.046 E0.48714
G1 X95.802 Y82.836 E0.508
G1 X96.613 Y82.358 E0.55692
G1 X96.944 Y82.17 E0.57671
G1 X97.74 Y81.735 E0.62385
G1 X98.093 Y81.55 E0.64456
G1 X99.015 Y81.086 E0.6982
G1 X99.364 Y80.918 E0.71833
G1 X100.138 Y80.56 E0.76265
G1 X100.484 Y80.406 E0.78233
G1 X101.418 Y80.01 E0.83505
G1 X101.787 Y79.861 E0.85573
G1 X102.658 Y79.526 E0.90423
G1 X103.032 Y79.39 E0.92491
G1 X103.965 Y79.067 E0.97622
G1 X104.317 Y78.951 E0.99548
G1 X105.178 Y78.683 E1.04234
G1 X105.551 Y78.574 E1.06254
G1 X106.39 Y78.343 E1.10776
G1 X106.781 Y78.242 E1.12875
G1 X107.908 Y77.973 E1.18896
G1 X108.289 Y77.889 E1.20924
G1 X109.02 Y77.74 E1.24801
G1 X109.4 Y77.669 E1.2681
G1 X110.413 Y77.497 E1.3215
G1 X110.84 Y77.432 E1.34395
G1 X111.778 Y77.308 E1.39312
G1 X112.164 Y77.264 E1.41331
G1 X112.478 Y77.233 E1.4297
G1 X113.063 Y77.19 E1.46019
G1 X113.682 Y77.16 E1.49239
G1 X114.27 Y77.146 E1.52296
G1 X114.896 Y77.147 E1.55549
G1 X115.495 Y77.163 E1.58663
G1 X116.122 Y77.196 E1.61926
G1 X116.687 Y77.24 E1.64871
G1 X117.27 Y77.299 E1.67917
G1 X117.822 Y77.368 E1.70808
G1 X118.378 Y77.451 E1.73729
G1 X118.753 Y77.513 E1.75705
G1 X119.026 Y77.564 E1.77148
G1 X119.623 Y77.684 E1.80312
G1 X120.147 Y77.802 E1.83104
G1 X120.629 Y77.922 E1.85685
G1 X121.09 Y78.046 E1.88166
G1 X121.386 Y78.132 E1.89768
G1 X121.924 Y78.297 E1.92692
G1 X122.417 Y78.461 E1.95393
G1 X122.968 Y78.657 E1.98432
G1 X123.494 Y78.858 E2.01358
G1 X123.998 Y79.065 E2.0419
G1 X124.53 Y79.299 E2.0721
G1 X125.126 Y79.579 E2.10632
G1 X125.515 Y79.771 E2.12887
G1 X127.922 Y81.012 E2.2696
G1 X130.157 Y82.088 E2.39851
G1 X132.449 Y83.11 E2.52893
G1 X134.763 Y84.067 E2.65907
G1 X137.569 Y85.123 E2.81488
G1 X138.15 Y85.331 E2.84695
G1 X138.416 Y85.43 E2.8617
G1 X139.043 Y85.672 E2.89662
G1 X139.616 Y85.911 E2.92889
G1 X140.183 Y86.165 E2.96118
G1 X140.642 Y86.383 E2.98758
G1 X141.159 Y86.642 E3.01763
G1 X141.708 Y86.935 E3.04997
G1 X142.265 Y87.252 E3.08328
G1 X142.746 Y87.541 E3.11244
G1 X143.249 Y87.86 E3.1434
G1 X143.698 Y88.16 E3.17146
G1 X144.159 Y88.483 E3.20071
G1 X144.633 Y88.833 E3.23133
G1 X145.156 Y89.24 E3.26577
G1 X145.618 Y89.619 E3.29683
G1 X146.057 Y89.998 E3.32697
G1 X146.443 Y90.346 E3.35398
G1 X146.904 Y90.781 E3.38692
G1 X147.353 Y91.228 E3.41984
G1 X147.784 Y91.681 E3.45234
G1 X148.157 Y92.092 E3.48118
G1 X148.529 Y92.522 E3.51073
G1 X148.873 Y92.938 E3.53878
G1 X149.133 Y93.268 E3.56062
G1 X149.522 Y93.792 E3.59453
G1 X150.267 Y94.854 E3.66195
G1 X150.505 Y95.206 E3.68403
G1 X150.906 Y95.824 E3.72232
G1 X151.117 Y96.162 E3.74302
G1 X151.62 Y96.998 E3.79373
G1 X151.827 Y97.356 E3.81522
G1 X152.308 Y98.223 E3.86675
G1 X152.48 Y98.546 E3.88576
G1 X152.882 Y99.327 E3.93141
G1 X153.052 Y99.669 E3.95126
G1 X153.485 Y100.582 E4.00377
G1 X153.651 Y100.949 E4.02471
G1 X154.012 Y101.783 E4.07194
G1 X154.161 Y102.143 E4.09218
G1 X154.509 Y103.026 E4.14151
G1 X154.642 Y103.381 E4.16121
G1 X154.975 Y104.313 E4.21264
G1 X155.101 Y104.686 E4.2331
G1 X155.363 Y105.505 E4.27779
G1 X155.478 Y105.887 E4.29852
G1 X155.777 Y106.944 E4.35561
G1 X155.878 Y107.324 E4.37604
G1 X156.068 Y108.093 E4.41721
G1 X156.152 Y108.455 E4.43652
G1 X156.386 Y109.55 E4.49471
G1 X156.462 Y109.938 E4.51526
G1 X156.609 Y110.76 E4.55866
G1 X156.67 Y111.142 E4.57876
G1 X156.795 Y112.004 E4.62402
G1 X156.846 Y112.401 E4.64483
G1 X156.975 Y113.57 E4.70595
G1 X157.012 Y113.96 E4.72631
G1 X157.071 Y114.729 E4.76639
G1 X157.093 Y115.108 E4.78612
G1 X157.139 Y116.146 E4.84011
G1 X157.15 Y116.537 E4.86044
G1 X157.16 Y117.449 E4.90784
G1 X157.158 Y117.841 E4.92821
G1 X157.136 Y118.823 E4.97926
G1 X157.12 Y119.224 E5.00011
G1 X157.064 Y120.214 E5.05165
G1 X157.036 Y120.597 E5.0716
G1 X156.958 Y121.469 E5.1171
G1 X156.917 Y121.854 E5.13722
G1 X156.792 Y122.872 E5.19052
G1 X156.738 Y123.262 E5.21099
G1 X156.606 Y124.103 E5.25523
G1 X156.54 Y124.484 E5.27532
G1 X156.351 Y125.474 E5.3277
G1 X156.276 Y125.835 E5.34686
G1 X156.064 Y126.783 E5.39734
G1 X155.966 Y127.189 E5.41905
G1 X155.739 Y128.058 E5.46573
G1 X155.634 Y128.431 E5.48586
G1 X155.331 Y129.452 E5.54121
G1 X155.211 Y129.834 E5.56202
G1 X154.958 Y130.591 E5.6035
G1 X154.84 Y130.927 E5.62201
G1 X154.542 Y131.736 E5.66681
G1 X154.374 Y132.165 E5.69075
G1 X153.901 Y133.309 E5.75509
G1 X153.725 Y133.715 E5.77808
G1 X153.659 Y133.859 E5.78632
G1 X153.426 Y134.338 E5.814
G1 X153.123 Y134.927 E5.84842
G1 X152.829 Y135.464 E5.88024
G1 X152.535 Y135.969 E5.91061
G1 X152.261 Y136.415 E5.93781
G1 X151.965 Y136.875 E5.96624
G1 X151.746 Y137.204 E5.98677
G1 X151.586 Y137.432 E6.00125
G1 X151.24 Y137.914 E6.03209
G1 X150.888 Y138.379 E6.06239
G1 X150.498 Y138.869 E6.09494
G1 X150.138 Y139.301 E6.12416
G1 X149.745 Y139.749 E6.15513
G1 X149.353 Y140.174 E6.18518
G1 X148.923 Y140.618 E6.2173
G1 X148.541 Y140.995 E6.2452
G1 X148.106 Y141.405 E6.27626
G1 X147.646 Y141.816 E6.30832
G1 X147.232 Y142.167 E6.33653
G1 X146.978 Y142.376 E6.35362
G1 X146.722 Y142.579 E6.3706
G1 X146.232 Y142.955 E6.4027
G1 X145.748 Y143.307 E6.4338
G1 X145.278 Y143.631 E6.46347
G1 X144.879 Y143.894 E6.4883
G1 X142.548 Y145.396 E6.63241
G1 X140.502 Y146.799 E6.76134
G1 X138.478 Y148.273 E6.89146
G1 X136.502 Y149.798 E7.02118
G1 X134.267 Y151.635 E7.17153
G1 X133.757 Y152.067 E7.20626
G1 X133.532 Y152.253 E7.22143
G1 X133.062 Y152.632 E7.25281
G1 X132.578 Y153.001 E7.28444
G1 X132.092 Y153.353 E7.31562
G1 X131.651 Y153.658 E7.34349
G1 X131.141 Y153.993 E7.3752
G1 X130.653 Y154.296 E7.40505
G1 X130.125 Y154.607 E7.4369
G1 X129.653 Y154.871 E7.465
G1 X129.216 Y155.102 E7.49069
G1 X128.875 Y155.275 E7.51056
G1 X128.529 Y155.441 E7.53051
G1 X127.994 Y155.688 E7.56113
G1 X127.507 Y155.9 E7.58873
G1 X126.953 Y156.126 E7.61983
G1 X126.441 Y156.321 E7.6483
G1 X125.922 Y156.505 E7.67692
G1 X125.338 Y156.695 E7.70883
G1 X124.684 Y156.889 E7.74428
G1 X124.129 Y157.039 E7.77416
G1 X123.617 Y157.164 E7.80155
G1 X123.222 Y157.253 E7.82259
G1 X122.982 Y157.302 E7.83532
G1 X122.395 Y157.416 E7.8664
G1 X121.828 Y157.512 E7.89628
G1 X121.397 Y157.574 E7.91891
G1 X120.763 Y157.648 E7.95209
G1 X119.648 Y157.747 E8.01026
G1 X119.207 Y157.778 E8.03323
G1 X118.245 Y157.827 E8.08329
G1 X117.848 Y157.84 E8.10394
G1 X116.973 Y157.855 E8.14941
G1 X116.571 Y157.855 E8.17031
G1 X115.52 Y157.837 E8.22493
G1 X115.149 Y157.825 E8.24422
G1 X114.37 Y157.787 E8.28476
G1 X113.991 Y157.762 E8.3045
G1 X112.895 Y157.673 E8.36164
G1 X112.488 Y157.633 E8.38289
G1 X111.62 Y157.532 E8.42831
G1 X111.233 Y157.481 E8.44859
G1 X110.321 Y157.344 E8.49652
G1 X109.945 Y157.281 E8.51633
G1 X108.85 Y157.08 E8.57419
G1 X108.476 Y157.005 E8.59401
G1 X107.735 Y156.844 E8.63342
G1 X107.336 Y156.75 E8.65472
G1 X106.301 Y156.487 E8.71022
G1 X105.935 Y156.388 E8.72993
G1 X105.059 Y156.135 E8.77731
G1 X104.68 Y156.018 E8.79792
G1 X103.762 Y155.719 E8.8481
G1 X103.414 Y155.6 E8.86721
G1 X102.585 Y155.301 E8.91301
G1 X102.197 Y155.153 E8.93459
G1 X101.21 Y154.757 E8.98986
G1 X100.864 Y154.612 E9.00936
G1 X100.089 Y154.272 E9.05334
G1 X99.74 Y154.112 E9.07329
G1 X98.793 Y153.659 E9.12785
G1 X98.428 Y153.477 E9.14904
G1 X97.69 Y153.092 E9.1923
G1 X97.347 Y152.905 E9.2126
G1 X96.389 Y152.364 E9.26978
G1 X96.044 Y152.161 E9.29058
G1 X95.289 Y151.7 E9.33655
G1 X94.994 Y151.514 E9.35468
G1 X94.241 Y151.023 E9.40139
G1 X93.892 Y150.786 E9.42332
G1 X93.056 Y150.197 E9.47646
G1 X92.744 Y149.97 E9.49652
G1 X91.973 Y149.388 E9.54672
G1 X91.679 Y149.159 E9.56609
G1 X91.025 Y148.632 E9.60973
G1 X90.71 Y148.369 E9.63106
G1 X89.864 Y147.637 E9.6892
G1 X89.587 Y147.389 E9.70852
G1 X89.048 Y146.892 E9.74662
G1 X88.755 Y146.612 E9.76769
G1 X87.921 Y145.788 E9.82861
G1 X87.662 Y145.524 E9.84783
G1 X87.145 Y144.98 E9.88684
G1 X86.872 Y144.684 E9.90776
G1 X86.125 Y143.842 E9.96626
G1 X85.868 Y143.542 E9.98679
G1 X85.263 Y142.812 E10.03606
G1 X85.042 Y142.536 E10.05444
G1 X84.682 Y142.074 E10.08487
G1 X84.376 Y141.664 E10.11146
G1 X84.011 Y141.151 E10.14418
G1 X83.715 Y140.715 E10.17157
G1 X83.434 Y140.28 E10.19848
G1 X83.135 Y139.791 E10.22827
G1 X82.79 Y139.195 E10.26406
G1 X82.51 Y138.683 E10.29438
G1 X82.296 Y138.267 E10.31869
G1 X82.108 Y137.885 E10.34082
G1 X81.961 Y137.572 E10.35879
G1 X81.709 Y137.012 E10.39071
G1 X81.508 Y136.538 E10.41746
G1 X81.32 Y136.066 E10.44387
G1 X81.113 Y135.506 E10.47489
G1 X80.894 Y134.863 E10.51019
G1 X80.728 Y134.333 E10.53906
G1 X80.584 Y133.834 E10.56605
G1 X80.496 Y133.514 E10.58329
G1 X80.387 Y133.078 E10.60665
G1 X80.266 Y132.556 E10.6345
G1 X80.158 Y132.037 E10.66205
G1 X80.059 Y131.501 E10.69037
G1 X79.985 Y131.052 E10.71402
G1 X79.949 Y130.8 E10.72725
G1 X79.874 Y130.234 E10.75692
G1 X79.815 Y129.692 E10.78526
G1 X79.769 Y129.154 E10.81332
G1 X79.739 Y128.703 E10.83681
G1 X79.612 Y125.994 E10.97775
G1 X79.425 Y123.503 E11.10757
G1 X79.165 Y120.99 E11.23886
G1 X78.844 Y118.562 E11.36614
G1 X78.342 Y115.504 E11.52719
G1 X78.232 Y114.897 E11.55925
G1 X78.185 Y114.62 E11.57385
G1 X78.083 Y113.97 E11.60804
G1 X78.006 Y113.384 E11.63876
G1 X77.951 Y112.864 E11.66593
G1 X77.921 Y112.537 E11.683
G1 X77.895 Y112.179 E11.70165
G1 X77.862 Y111.588 E11.73241
G1 X77.844 Y111.03 E11.76142
G1 X77.839 Y110.423 E11.79297
G1 X77.848 Y109.856 E11.82244
G1 X77.871 Y109.282 E11.8523
G1 X77.909 Y108.703 E11.88245
G1 X77.966 Y108.067 E11.91563
G1 X78.029 Y107.514 E11.94456
G1 X78.111 Y106.918 E11.97582
G1 X78.199 Y106.373 E12.00451
G1 X78.307 Y105.792 E12.03523
G1 X78.44 Y105.17 E12.06828
G1 X78.594 Y104.535 E12.10224
G1 X78.739 Y103.995 E12.1313
G1 X78.906 Y103.426 E12.16211
G1 X79.082 Y102.874 E12.19222
G1 X79.289 Y102.279 E12.22496
G1 X79.488 Y101.751 E12.25429
G1 X79.668 Y101.304 E12.27933
G1 X79.922 Y100.719 E12.31247
G1 X80.371 Y99.758 E12.3676
G1 X80.557 Y99.377 E12.38963
G1 X81.006 Y98.5 E12.44083
G1 X81.196 Y98.144 E12.4618
G1 X81.592 Y97.432 E12.50414
G1 X81.781 Y97.104 E12.52382
G1 X82.319 Y96.206 E12.57822
G1 X82.528 Y95.871 E12.59874
G1 X83.053 Y95.058 E12.64903
G1 X83.274 Y94.729 E12.66963
G1 X83.763 Y94.025 E12.71418
G1 X83.983 Y93.718 E12.73381
G1 X84.571 Y92.927 E12.78503
G1 X84.818 Y92.607 E12.80604
G1 X85.451 Y91.814 E12.85877
G1 X85.698 Y91.514 E12.87896
G1 X86.3 Y90.809 E12.92714
G1 X86.552 Y90.524 E12.94691
G1 X87.159 Y89.858 E12.99374
G1 X87.43 Y89.571 E13.01425
G1 X88.129 Y88.854 E13.06629
G0 F2400 X88.487 Y89.203
G1 F1200 X88.754 Y88.938 E13.08584
G1 X89.369 Y88.348 E13.13013
G1 X89.633 Y88.102 E13.14889
G1 X90.43 Y87.385 E13.2046
G1 X90.719 Y87.134 E13.22449
G1 X91.443 Y86.526 E13.27362
G1 X91.722 Y86.3 E13.29228
G1 X92.374 Y85.787 E13.3354
G1 X92.679 Y85.555 E13.35531
G1 X93.578 Y84.896 E13.41324
G1 X93.885 Y84.678 E13.43281
G1 X94.544 Y84.228 E13.47428
G1 X94.848 Y84.028 E13.49319
G1 X95.728 Y83.468 E13.5474
G1 X96.056 Y83.267 E13.56739
G1 X96.867 Y82.789 E13.61631
G1 X97.184 Y82.609 E13.63526
G1 X97.98 Y82.174 E13.6824
G1 X98.318 Y81.997 E13.70223
G1 X99.24 Y81.533 E13.75587
G1 X99.574 Y81.371 E13.77516
G1 X100.348 Y81.013 E13.81948
G1 X100.68 Y80.866 E13.83835
G1 X101.614 Y80.47 E13.89107
G1 X101.966 Y80.328 E13.91079
G1 X102.837 Y79.993 E13.95929
G1 X103.196 Y79.862 E13.97915
G1 X104.129 Y79.539 E14.03046
G1 X104.465 Y79.428 E14.04885
G1 X105.326 Y79.16 E14.09572
G1 X105.684 Y79.056 E14.11509
G1 X106.523 Y78.825 E14.16031
G1 X106.897 Y78.728 E14.18039
G1 X108.024 Y78.459 E14.24061
G1 X108.389 Y78.379 E14.26003
G1 X109.12 Y78.23 E14.2988
G1 X109.484 Y78.162 E14.31804
G1 X110.497 Y77.99 E14.37144
G1 X110.906 Y77.928 E14.39294
G1 X111.844 Y77.804 E14.44211
G1 X112.213 Y77.761 E14.46141
G1 X112.527 Y77.73 E14.47781
G1 X113.087 Y77.689 E14.50699
G1 X113.706 Y77.659 E14.5392
G1 X114.269 Y77.646 E14.56847
G1 X114.895 Y77.647 E14.601
G1 X115.468 Y77.663 E14.63079
G1 X116.095 Y77.696 E14.66342
G1 X116.637 Y77.737 E14.69166
G1 X117.22 Y77.796 E14.72212
G1 X117.748 Y77.862 E14.74977
G1 X118.304 Y77.945 E14.77899
G1 X118.666 Y78.005 E14.79805
G1 X118.928 Y78.055 E14.81192
G1 X119.525 Y78.175 E14.84356
G1 X120.026 Y78.287 E14.87024
G1 X120.508 Y78.407 E14.89606
G1 X120.805 Y78.485 E14.91201
G1 X121.24 Y78.61 E14.93553
G1 X121.778 Y78.775 E14.96478
G1 X122.249 Y78.932 E14.99058
G1 X122.8 Y79.128 E15.02097
G1 X123.304 Y79.321 E15.04902
G1 X123.808 Y79.528 E15.07734
G1 X124.318 Y79.752 E15.10628
G1 X124.914 Y80.032 E15.14051
G1 X125.286 Y80.215 E15.16205
G1 X127.7 Y81.46 E15.30321
G1 X129.946 Y82.54 E15.43272
G1 X132.264 Y83.575 E15.56465
G1 X134.582 Y84.533 E15.69499
G1 X137.42 Y85.601 E15.85258
G1 X137.981 Y85.802 E15.88355
G1 X138.236 Y85.897 E15.89769
G1 X138.863 Y86.139 E15.93262
G1 X139.411 Y86.367 E15.96346
G1 X139.978 Y86.621 E15.99575
G1 X140.418 Y86.83 E16.02107
G1 X140.935 Y87.089 E16.05112
G1 X141.461 Y87.37 E16.08211
G1 X142.018 Y87.687 E16.11542
G1 X142.478 Y87.963 E16.1433
G1 X142.981 Y88.282 E16.17425
G1 X143.411 Y88.569 E16.20112
G1 X143.872 Y88.892 E16.23037
G1 X144.326 Y89.228 E16.25972
G1 X144.849 Y89.635 E16.29416
G1 X145.292 Y89.997 E16.32389
G1 X145.731 Y90.376 E16.35403
G1 X146.1 Y90.71 E16.3799
G1 X146.561 Y91.145 E16.41284
G1 X146.99 Y91.572 E16.44429
G1 X147.421 Y92.025 E16.47679
G1 X147.779 Y92.42 E16.50449
G1 X148.151 Y92.85 E16.53404
G1 X148.48 Y93.248 E16.56088
G1 X148.74 Y93.578 E16.58271
G1 X149.113 Y94.079 E16.61517
G1 X149.858 Y95.141 E16.68259
G1 X150.085 Y95.478 E16.7037
G1 X150.486 Y96.096 E16.74199
G1 X150.689 Y96.42 E16.76186
G1 X151.192 Y97.256 E16.81256
G1 X151.389 Y97.598 E16.83307
G1 X151.87 Y98.465 E16.8846
G1 X152.036 Y98.774 E16.90283
G1 X152.438 Y99.555 E16.94848
G1 X152.6 Y99.883 E16.96749
G1 X153.033 Y100.796 E17.02
G1 X153.192 Y101.148 E17.04008
G1 X153.553 Y101.982 E17.08731
G1 X153.695 Y102.326 E17.10665
G1 X154.043 Y103.209 E17.15597
G1 X154.171 Y103.549 E17.17485
G1 X154.504 Y104.481 E17.22628
G1 X154.625 Y104.838 E17.24587
G1 X154.887 Y105.657 E17.29056
G1 X154.997 Y106.023 E17.31042
G1 X155.296 Y107.08 E17.36751
G1 X155.393 Y107.444 E17.38709
G1 X155.583 Y108.213 E17.42825
G1 X155.663 Y108.56 E17.44676
G1 X155.897 Y109.655 E17.50495
G1 X155.969 Y110.026 E17.52459
G1 X156.116 Y110.848 E17.56798
G1 X156.176 Y111.214 E17.58726
G1 X156.301 Y112.076 E17.63252
G1 X156.349 Y112.456 E17.65243
G1 X156.478 Y113.625 E17.71355
G1 X156.513 Y113.998 E17.73302
G1 X156.572 Y114.767 E17.7731
G1 X156.594 Y115.13 E17.792
G1 X156.64 Y116.168 E17.846
G1 X156.65 Y116.543 E17.86549
G1 X156.66 Y117.455 E17.91289
G1 X156.658 Y117.83 E17.93238
G1 X156.636 Y118.812 E17.98343
G1 X156.621 Y119.195 E18.00335
G1 X156.565 Y120.185 E18.05488
G1 X156.538 Y120.552 E18.074
G1 X156.46 Y121.424 E18.1195
G1 X156.421 Y121.793 E18.13878
G1 X156.296 Y122.811 E18.19208
G1 X156.244 Y123.184 E18.21166
G1 X156.112 Y124.025 E18.2559
G1 X156.048 Y124.391 E18.27521
G1 X155.859 Y125.381 E18.32759
G1 X155.788 Y125.726 E18.34589
G1 X155.576 Y126.674 E18.39637
G1 X155.482 Y127.062 E18.41712
G1 X155.255 Y127.931 E18.4638
G1 X155.155 Y128.289 E18.48311
G1 X154.852 Y129.31 E18.53846
