;FLAVOR:Marlin
;TIME:1281
;Filament used: 0.618152m
;Layer height: 0.2
;MINX:94.561
;MINY:95.61
;MINZ:0.2
;MAXX:140.431
;MAXY:139.397
;MAXZ:24
;Generated with Cura_SteamEngine 4.8.0
M140 S50
M105
M190 S50
M104 S200
M105
M109 S200
M82 ;absolute extrusion mode
; Ender 3 Custom Start G-code
G1 Z20.0 F3000 ; Move Z Axis up to prevent crashing in side of build plate
G28 ; Home all axes
M420 S1 ;
G29 ;
G92 E ;
G92 E0 ; Reset Extruder
G1 X5.1 Y20 Z0.3 F5000.0 ; Move to start position
G1 X5.1 Y200.0 Z0.3 F1500.0 E15 ; Draw the first line
G1 X0.4 Y200.0 Z0.3 F5000.0 ; Move to side a little
G1 X0.4 Y20 Z0.3 F1500.0 E30 ; Draw the second line
G92 E0 ; Reset Extruder
G1 Z2.0 F3000 ; Move Z Axis up little to prevent scratching of Heat Bed
G92 E0
G92 E0
G1 F2700 E-5
;LAYER_COUNT:120
;LAYER:0
M107
G1 F600 Z0.4
G0 F2400 X106.36 Y100.546 Z0.4
;TYPE:SKIRT
G1 F600 Z0.2
G1 F2700 E0
G1 F1200 X106.852 Y100.024 E0.03728
G1 X107.449 Y99.468 E0.07968
G1 X107.695 Y99.254 E0.09662
G1 X108.322 Y98.745 E0.13859
G1 X108.535 Y98.584 E0.15247
G1 X109.188 Y98.125 E0.19395
G1 X109.321 Y98.038 E0.20221
G1 X109.913 Y97.675 E0.23829
G1 X110.133 Y97.549 E0.25147
G1 X110.902 Y97.146 E0.29659
G1 X111.157 Y97.024 E0.31128
G1 X112.198 Y96.586 E0.36997
G1 X112.513 Y96.471 E0.3874
G1 X113.612 Y96.129 E0.44722
G1 X113.942 Y96.044 E0.46493
G1 X114.804 Y95.857 E0.51076
G1 X114.927 Y95.835 E0.51726
G1 X115.598 Y95.734 E0.55252
G1 X115.865 Y95.702 E0.5665
G1 X116.66 Y95.634 E0.60796
G1 X116.874 Y95.623 E0.6191
G1 X117.71 Y95.61 E0.66255
G1 X117.912 Y95.614 E0.67305
G1 X118.625 Y95.65 E0.71015
G1 X118.922 Y95.674 E0.72564
G1 X119.763 Y95.773 E0.76964
G1 X119.854 Y95.787 E0.77443
G1 X120.592 Y95.925 E0.81345
G1 X120.901 Y95.993 E0.82989
G1 X121.639 Y96.18 E0.86945
G1 X121.85 Y96.241 E0.88087
G1 X122.591 Y96.482 E0.92136
G1 X122.82 Y96.565 E0.93402
G1 X123.627 Y96.892 E0.97927
G1 X123.754 Y96.949 E0.98651
G1 X124.391 Y97.258 E1.0233
G1 X124.649 Y97.393 E1.03843
G1 X125.287 Y97.753 E1.0765
G1 X125.467 Y97.862 E1.08744
G1 X126.261 Y98.388 E1.13694
G1 X126.387 Y98.479 E1.14501
G1 X126.91 Y98.879 E1.17923
G1 X127.159 Y99.081 E1.19589
G1 X127.771 Y99.614 E1.23807
G1 X127.905 Y99.739 E1.24759
G1 X128.449 Y100.281 E1.2875
G1 X128.623 Y100.466 E1.3007
G1 X129.107 Y101.014 E1.3387
G1 X129.18 Y101.102 E1.34464
G1 X129.676 Y101.743 E1.38676
G1 X129.881 Y102.028 E1.405
G1 X130.358 Y102.746 E1.4498
G1 X130.469 Y102.927 E1.46084
G1 X130.804 Y103.509 E1.49573
G1 X130.941 Y103.764 E1.51078
G1 X131.133 Y104.139 E1.53267
G1 X131.605 Y105.099 E1.58827
G1 X132.828 Y107.496 E1.72811
G1 X134 Y109.644 E1.85528
G1 X135.264 Y111.809 E1.98556
G1 X136.615 Y113.982 E2.11854
G1 X137.623 Y115.517 E2.21397
G1 X137.923 Y115.963 E2.24191
G1 X138.315 Y116.589 E2.28029
G1 X138.408 Y116.748 E2.28986
G1 X138.814 Y117.502 E2.33437
G1 X138.949 Y117.777 E2.35029
G1 X139.241 Y118.42 E2.38699
G1 X139.282 Y118.518 E2.39251
G1 X139.573 Y119.29 E2.43539
G1 X139.715 Y119.71 E2.45843
G1 X140.01 Y120.733 E2.51376
G1 X140.057 Y120.929 E2.52423
G1 X140.286 Y122.179 E2.59027
G1 X140.32 Y122.445 E2.60421
G1 X140.394 Y123.238 E2.6456
G1 X140.411 Y123.524 E2.66049
G1 X140.431 Y124.337 E2.70275
G1 X140.429 Y124.54 E2.7133
G1 X140.397 Y125.299 E2.75278
G1 X140.379 Y125.54 E2.76534
G1 X140.297 Y126.307 E2.80543
G1 X140.262 Y126.555 E2.81845
G1 X140.146 Y127.234 E2.85424
G1 X140.119 Y127.368 E2.86135
G1 X139.901 Y128.264 E2.90927
G1 X139.821 Y128.545 E2.92445
G1 X139.6 Y129.239 E2.9623
G1 X139.54 Y129.409 E2.97167
G1 X139.251 Y130.148 E3.01291
G1 X139.145 Y130.394 E3.02683
G1 X138.817 Y131.091 E3.06686
G1 X138.724 Y131.273 E3.07749
G1 X138.35 Y131.948 E3.11759
G1 X138.236 Y132.139 E3.12915
G1 X137.778 Y132.847 E3.17297
G1 X137.662 Y133.013 E3.1835
G1 X137.211 Y133.618 E3.22271
G1 X137.048 Y133.822 E3.23628
G1 X136.544 Y134.411 E3.27657
G1 X136.407 Y134.561 E3.28713
G1 X135.859 Y135.122 E3.32788
G1 X135.74 Y135.236 E3.33645
G1 X135.143 Y135.77 E3.37807
G1 X134.834 Y136.028 E3.39899
G1 X133.972 Y136.683 E3.45525
G1 X133.766 Y136.825 E3.46826
G1 X132.717 Y137.47 E3.53225
G1 X132.482 Y137.598 E3.54616
G1 X131.794 Y137.944 E3.58618
G1 X131.461 Y138.098 E3.60525
G1 X130.565 Y138.468 E3.65563
G1 X130.007 Y138.656 E3.68623
G1 X129.623 Y138.775 E3.70712
G1 X128.902 Y138.974 E3.74599
G1 X128.844 Y138.988 E3.74909
G1 X127.973 Y139.164 E3.79527
G1 X127.647 Y139.217 E3.81243
G1 X126.899 Y139.314 E3.85163
G1 X126.601 Y139.343 E3.86719
G1 X125.633 Y139.397 E3.91758
G1 X125 Y139.389 E3.95048
G1 X124.417 Y139.366 E3.9808
G1 X124.034 Y139.345 E4.00073
G1 X123.592 Y139.313 E4.02376
G1 X121.086 Y139.168 E4.15421
G1 X118.57 Y139.093 E4.28503
G1 X116.089 Y139.089 E4.41396
G1 X113.594 Y139.156 E4.54367
G1 X110.898 Y139.307 E4.684
G1 X110.515 Y139.334 E4.70395
G1 X109.147 Y139.349 E4.77505
G1 X108.785 Y139.332 E4.79388
G1 X108.066 Y139.276 E4.83136
G1 X107.974 Y139.266 E4.83617
G1 X106.926 Y139.104 E4.89128
G1 X106.603 Y139.039 E4.9084
G1 X105.772 Y138.84 E4.95281
G1 X105.355 Y138.724 E4.97531
G1 X104.369 Y138.402 E5.02921
G1 X104.244 Y138.355 E5.03615
G1 X103.102 Y137.855 E5.10094
G1 X102.722 Y137.664 E5.12304
G1 X101.859 Y137.184 E5.17436
G1 X101.33 Y136.843 E5.20707
G1 X100.94 Y136.576 E5.23163
G1 X100.185 Y136.013 E5.28058
G1 X100.017 Y135.877 E5.29181
G1 X99.004 Y134.954 E5.36303
G1 X98.712 Y134.655 E5.38475
G1 X98.064 Y133.934 E5.43513
G1 X97.748 Y133.535 E5.46158
G1 X97.608 Y133.35 E5.47363
G1 X97.099 Y132.621 E5.51984
G1 X96.844 Y132.225 E5.54432
G1 X96.353 Y131.39 E5.59466
G1 X96.069 Y130.819 E5.6278
G1 X95.929 Y130.518 E5.64505
G1 X95.635 Y129.831 E5.68389
G1 X95.543 Y129.595 E5.69705
G1 X95.168 Y128.467 E5.75883
G1 X95.069 Y128.11 E5.77808
G1 X94.812 Y126.963 E5.83917
G1 X94.744 Y126.568 E5.86
G1 X94.619 Y125.607 E5.91036
G1 X94.585 Y125.085 E5.93754
G1 X94.572 Y124.786 E5.9531
G1 X94.561 Y124.276 E5.97961
G1 X94.561 Y124.175 E5.98486
G1 X94.616 Y123.035 E6.04417
G1 X94.647 Y122.717 E6.06077
G1 X94.751 Y121.931 E6.10198
G1 X94.804 Y121.612 E6.11878
G1 X94.966 Y120.809 E6.16135
G1 X94.982 Y120.742 E6.16493
G1 X95.177 Y120.029 E6.20335
G1 X95.287 Y119.67 E6.22286
G1 X95.554 Y118.894 E6.26551
G1 X95.629 Y118.699 E6.27637
G1 X95.92 Y118.01 E6.31524
G1 X96.028 Y117.775 E6.32868
G1 X96.447 Y116.95 E6.37677
G1 X96.799 Y116.356 E6.41265
G1 X97.019 Y116.009 E6.434
G1 X97.231 Y115.688 E6.45399
G1 X97.437 Y115.385 E6.47303
G1 X98.878 Y113.201 E6.60901
G1 X100.179 Y111.098 E6.73753
G1 X101.444 Y108.922 E6.86833
G1 X102.625 Y106.751 E6.99677
G1 X103.914 Y104.201 E7.14526
G1 X104.04 Y103.943 E7.16018
G1 X104.457 Y103.163 E7.20615
G1 X104.52 Y103.055 E7.21264
G1 X104.879 Y102.478 E7.24796
G1 X105.027 Y102.255 E7.26187
G1 X105.502 Y101.59 E7.30434
G1 X105.695 Y101.339 E7.32079
G1 X106.225 Y100.698 E7.36402
G1 X106.36 Y100.546 E7.37458
G0 F2400 X106.734 Y100.878
G1 F1200 X107.206 Y100.378 E7.41032
G1 X107.777 Y99.845 E7.45091
G1 X108.023 Y99.631 E7.46785
G1 X108.623 Y99.144 E7.50801
G1 X108.836 Y98.983 E7.52189
G1 X109.462 Y98.543 E7.56166
G1 X109.595 Y98.456 E7.56991
G1 X110.162 Y98.109 E7.60446
G1 X110.382 Y97.983 E7.61764
G1 X111.118 Y97.597 E7.66083
G1 X111.373 Y97.475 E7.67552
G1 X112.37 Y97.055 E7.73174
G1 X112.685 Y96.94 E7.74917
G1 X113.737 Y96.614 E7.8064
G1 X114.067 Y96.529 E7.82411
G1 X114.892 Y96.349 E7.868
G1 X115.015 Y96.327 E7.87449
G1 X115.657 Y96.231 E7.90822
G1 X115.924 Y96.199 E7.9222
G1 X116.685 Y96.134 E7.96189
G1 X116.899 Y96.123 E7.97303
G1 X117.7 Y96.11 E8.01466
G1 X117.902 Y96.114 E8.02516
G1 X118.585 Y96.149 E8.0607
G1 X118.882 Y96.173 E8.07619
G1 X119.687 Y96.267 E8.11831
G1 X119.778 Y96.281 E8.12309
G1 X120.485 Y96.413 E8.16047
G1 X120.794 Y96.481 E8.17691
G1 X121.5 Y96.661 E8.21477
G1 X121.711 Y96.722 E8.22619
G1 X122.42 Y96.952 E8.26493
G1 X122.649 Y97.035 E8.27758
G1 X123.423 Y97.348 E8.32097
G1 X123.55 Y97.405 E8.32821
G1 X124.159 Y97.701 E8.3634
G1 X124.417 Y97.836 E8.37853
G1 X125.028 Y98.181 E8.41499
G1 X125.208 Y98.29 E8.42593
G1 X125.968 Y98.793 E8.47329
G1 X126.094 Y98.884 E8.48137
G1 X126.595 Y99.267 E8.51414
G1 X126.844 Y99.469 E8.53081
G1 X127.43 Y99.98 E8.57121
G1 X127.564 Y100.105 E8.58074
G1 X128.085 Y100.623 E8.61892
G1 X128.259 Y100.808 E8.63212
G1 X128.723 Y101.333 E8.66853
G1 X128.796 Y101.421 E8.67447
G1 X129.27 Y102.035 E8.71478
G1 X129.475 Y102.32 E8.73303
G1 X129.932 Y103.008 E8.77595
G1 X130.043 Y103.189 E8.78698
G1 X130.363 Y103.746 E8.82037
G1 X130.5 Y104.001 E8.83541
G1 X130.685 Y104.359 E8.85635
G1 X131.206 Y105.419 E8.91773
G1 X132.375 Y107.711 E9.05145
G1 X133.57 Y109.899 E9.18101
G1 X134.839 Y112.073 E9.31183
G1 X136.176 Y114.225 E9.44349
G1 X137.235 Y115.836 E9.54368
G1 X137.508 Y116.242 E9.56911
G1 X137.884 Y116.841 E9.60586
G1 X137.977 Y117 E9.61543
G1 X138.365 Y117.722 E9.65803
G1 X138.5 Y117.997 E9.67395
G1 X138.779 Y118.613 E9.7091
G1 X138.82 Y118.711 E9.71462
G1 X139.099 Y119.45 E9.75567
G1 X139.241 Y119.87 E9.77871
G1 X139.524 Y120.85 E9.83172
G1 X139.571 Y121.046 E9.84219
G1 X139.79 Y122.243 E9.90543
G1 X139.824 Y122.509 E9.91937
G1 X139.895 Y123.267 E9.95893
G1 X139.912 Y123.553 E9.97382
G1 X139.931 Y124.332 E10.01432
G1 X139.929 Y124.535 E10.02487
G1 X139.899 Y125.262 E10.06268
G1 X139.881 Y125.503 E10.07524
G1 X139.802 Y126.237 E10.11361
G1 X139.767 Y126.485 E10.12662
G1 X139.655 Y127.135 E10.1609
G1 X139.628 Y127.269 E10.168
G1 X139.42 Y128.127 E10.21389
G1 X139.34 Y128.408 E10.22907
G1 X139.129 Y129.072 E10.26528
G1 X139.069 Y129.242 E10.27465
G1 X138.792 Y129.95 E10.31416
G1 X138.686 Y130.196 E10.32808
G1 X138.372 Y130.863 E10.36639
G1 X138.279 Y131.045 E10.37701
G1 X137.921 Y131.692 E10.41544
G1 X137.807 Y131.883 E10.427
G1 X137.369 Y132.561 E10.46895
G1 X137.253 Y132.727 E10.47947
G1 X136.82 Y133.306 E10.51704
G1 X136.657 Y133.51 E10.53061
G1 X136.175 Y134.074 E10.56917
G1 X136.038 Y134.224 E10.57973
G1 X135.513 Y134.761 E10.61876
G1 X135.394 Y134.875 E10.62732
G1 X134.822 Y135.387 E10.66722
G1 X134.513 Y135.645 E10.68814
G1 X133.688 Y136.272 E10.74199
G1 X133.482 Y136.414 E10.75499
G1 X132.478 Y137.031 E10.81623
G1 X132.243 Y137.159 E10.83014
G1 X131.584 Y137.49 E10.86846
G1 X131.251 Y137.644 E10.88753
G1 X130.374 Y138.005 E10.93682
G1 X129.859 Y138.179 E10.96507
G1 X129.475 Y138.298 E10.98596
G1 X128.785 Y138.488 E11.02315
G1 X128.727 Y138.502 E11.02625
G1 X127.892 Y138.67 E11.07052
G1 X127.566 Y138.723 E11.08768
G1 X126.851 Y138.816 E11.12515
G1 X126.553 Y138.845 E11.14071
G1 X125.606 Y138.897 E11.19
G1 X125.02 Y138.889 E11.22046
G1 X124.437 Y138.866 E11.25078
G1 X124.07 Y138.846 E11.26988
G1 X123.657 Y138.816 E11.2914
G1 X121.094 Y138.667 E11.42482
G1 X118.586 Y138.593 E11.55522
G1 X116.076 Y138.589 E11.68566
G1 X113.553 Y138.657 E11.81682
G1 X110.908 Y138.805 E11.9545
G1 X110.48 Y138.835 E11.97679
G1 X109.17 Y138.85 E12.04488
G1 X108.808 Y138.833 E12.06371
G1 X108.12 Y138.779 E12.09958
G1 X108.028 Y138.769 E12.10438
G1 X107.025 Y138.614 E12.15713
G1 X106.702 Y138.549 E12.17425
G1 X105.906 Y138.358 E12.21679
G1 X105.489 Y138.242 E12.23929
G1 X104.545 Y137.934 E12.29089
G1 X104.42 Y137.887 E12.29783
G1 X103.327 Y137.409 E12.35983
G1 X102.947 Y137.218 E12.38193
G1 X102.12 Y136.758 E12.43111
G1 X101.613 Y136.43 E12.46249
G1 X101.223 Y136.163 E12.48705
G1 X100.5 Y135.624 E12.53392
G1 X100.332 Y135.488 E12.54515
G1 X99.361 Y134.604 E12.61339
G1 X99.069 Y134.305 E12.63511
G1 X98.147 Y133.234 E12.70856
G1 X98.007 Y133.049 E12.72061
G1 X97.519 Y132.351 E12.76487
G1 X97.264 Y131.955 E12.78935
G1 X96.785 Y131.136 E12.83866
G1 X96.522 Y130.608 E12.86931
G1 X96.382 Y130.307 E12.88656
G1 X96.101 Y129.649 E12.92375
G1 X96.009 Y129.413 E12.93691
G1 X95.65 Y128.333 E12.99606
G1 X95.551 Y127.976 E13.01531
G1 X95.305 Y126.879 E13.07374
G1 X95.237 Y126.484 E13.09457
G1 X95.116 Y125.543 E13.14387
G1 X95.085 Y125.064 E13.16882
G1 X95.072 Y124.765 E13.18437
G1 X95.061 Y124.276 E13.20979
G1 X95.061 Y124.175 E13.21504
G1 X95.114 Y123.083 E13.27186
G1 X95.145 Y122.765 E13.28846
G1 X95.244 Y122.013 E13.32788
G1 X95.297 Y121.694 E13.34468
G1 X95.453 Y120.925 E13.38546
G1 X95.469 Y120.858 E13.38904
G1 X95.655 Y120.175 E13.42583
G1 X95.765 Y119.816 E13.44534
G1 X96.021 Y119.073 E13.48618
G1 X96.096 Y118.878 E13.49704
G1 X96.374 Y118.219 E13.53421
G1 X96.482 Y117.984 E13.54765
G1 X96.883 Y117.194 E13.59369
G1 X97.222 Y116.624 E13.62816
G1 X97.442 Y116.277 E13.64951
G1 X97.644 Y115.969 E13.66865
G1 X97.873 Y115.633 E13.68978
G1 X99.294 Y113.478 E13.82393
G1 X100.605 Y111.361 E13.95334
G1 X101.883 Y109.16 E14.08561
G1 X103.063 Y106.992 E14.21388
G1 X104.363 Y104.422 E14.36356
G1 X104.489 Y104.162 E14.37857
G1 X104.888 Y103.414 E14.42263
G1 X104.951 Y103.306 E14.42913
G1 X105.296 Y102.754 E14.46296
G1 X105.444 Y102.531 E14.47687
G1 X105.899 Y101.894 E14.51755
G1 X106.092 Y101.643 E14.534
G1 X106.599 Y101.03 E14.57534
G1 X106.734 Y100.878 E14.58591
G0 F2400 X107.107 Y101.21
G1 F1200 X107.56 Y100.732 E14.62013
G1 X108.105 Y100.222 E14.65892
G1 X108.351 Y100.008 E14.67587
G1 X108.925 Y99.543 E14.71426
G1 X109.138 Y99.382 E14.72813
G1 X109.735 Y98.962 E14.76607
G1 X109.868 Y98.875 E14.77433
G1 X110.41 Y98.543 E14.80736
G1 X110.63 Y98.417 E14.82053
G1 X111.334 Y98.048 E14.86184
G1 X111.589 Y97.926 E14.87653
G1 X112.541 Y97.525 E14.93022
G1 X112.856 Y97.41 E14.94764
G1 X113.862 Y97.098 E15.00238
G1 X114.192 Y97.013 E15.02009
G1 X114.98 Y96.841 E15.06201
G1 X115.103 Y96.819 E15.0685
G1 X115.717 Y96.727 E15.10076
G1 X115.984 Y96.695 E15.11474
G1 X116.711 Y96.633 E15.15266
G1 X116.925 Y96.622 E15.16379
G1 X117.69 Y96.61 E15.20356
G1 X117.892 Y96.614 E15.21406
G1 X118.545 Y96.647 E15.24803
G1 X118.842 Y96.671 E15.26352
G1 X119.611 Y96.761 E15.30376
G1 X119.702 Y96.775 E15.30854
G1 X120.377 Y96.901 E15.34423
G1 X120.686 Y96.969 E15.36067
G1 X121.362 Y97.141 E15.39692
G1 X121.573 Y97.202 E15.40833
G1 X122.25 Y97.422 E15.44533
G1 X122.479 Y97.505 E15.45799
G1 X123.218 Y97.805 E15.49944
G1 X123.345 Y97.862 E15.50667
G1 X123.927 Y98.144 E15.54028
G1 X124.185 Y98.279 E15.55541
G1 X124.769 Y98.609 E15.59027
G1 X124.949 Y98.718 E15.60121
G1 X125.675 Y99.198 E15.64644
G1 X125.801 Y99.289 E15.65451
G1 X126.28 Y99.656 E15.68587
G1 X126.529 Y99.858 E15.70254
G1 X127.089 Y100.345 E15.74111
G1 X127.223 Y100.47 E15.75063
G1 X127.721 Y100.966 E15.78716
G1 X127.895 Y101.151 E15.80035
G1 X128.338 Y101.653 E15.83515
G1 X128.411 Y101.741 E15.84109
G1 X128.864 Y102.327 E15.87958
G1 X129.069 Y102.612 E15.89783
G1 X129.506 Y103.269 E15.93883
G1 X129.617 Y103.45 E15.94987
G1 X129.923 Y103.982 E15.98176
G1 X130.06 Y104.237 E15.99681
G1 X130.236 Y104.58 E16.01684
G1 X130.746 Y105.616 E16.07685
G1 X131.938 Y107.954 E16.21324
G1 X133.131 Y110.139 E16.34261
G1 X134.415 Y112.338 E16.47495
G1 X135.744 Y114.477 E16.60582
G1 X136.833 Y116.134 E16.70886
G1 X137.093 Y116.521 E16.73309
G1 X137.452 Y117.094 E16.76823
G1 X137.545 Y117.253 E16.7778
G1 X137.916 Y117.943 E16.81852
G1 X138.051 Y118.218 E16.83444
G1 X138.318 Y118.806 E16.868
G1 X138.359 Y118.904 E16.87352
G1 X138.626 Y119.61 E16.91275
G1 X138.768 Y120.03 E16.93579
G1 X139.038 Y120.966 E16.98641
G1 X139.085 Y121.162 E16.99689
G1 X139.294 Y122.306 E17.05732
G1 X139.328 Y122.572 E17.07126
G1 X139.396 Y123.297 E17.1091
G1 X139.413 Y123.583 E17.12399
G1 X139.431 Y124.327 E17.16267
G1 X139.429 Y124.53 E17.17322
G1 X139.4 Y125.225 E17.20937
G1 X139.382 Y125.466 E17.22193
G1 X139.307 Y126.167 E17.25857
G1 X139.272 Y126.415 E17.27158
G1 X139.165 Y127.036 E17.30433
G1 X139.138 Y127.17 E17.31143
G1 X138.939 Y127.991 E17.35534
G1 X138.859 Y128.272 E17.37052
G1 X138.657 Y128.906 E17.4051
G1 X138.597 Y129.076 E17.41447
G1 X138.332 Y129.752 E17.4522
G1 X138.226 Y129.998 E17.46612
G1 X137.927 Y130.636 E17.50274
G1 X137.834 Y130.818 E17.51336
G1 X137.492 Y131.435 E17.55002
G1 X137.378 Y131.626 E17.56158
G1 X136.959 Y132.275 E17.60173
G1 X136.843 Y132.441 E17.61225
G1 X136.429 Y132.993 E17.64811
G1 X136.266 Y133.197 E17.66168
G1 X135.806 Y133.737 E17.69855
G1 X135.669 Y133.887 E17.7091
G1 X135.168 Y134.4 E17.74637
G1 X135.049 Y134.514 E17.75493
G1 X134.502 Y135.003 E17.79306
G1 X134.193 Y135.261 E17.81398
G1 X133.404 Y135.86 E17.86546
G1 X133.198 Y136.002 E17.87847
