;FLAVOR:Marlin
;TIME:1654
;Filament used: 0.797861m
;Layer height: 0.2
;MINX:94.572
;MINY:95.61
;MINZ:0.2
;MAXX:140.43
;MAXY:139.387
;MAXZ:30
;Generated with Cura_SteamEngine 4.8.0
M140 S50
M105
M190 S50
M104 S200
M105
M109 S200
M82 ;absolute extrusion mode
; Ender 3 Custom Start G-code
G1 Z20.0 F3000 ; Move Z Axis up to prevent crashing in side of build plate
G28 ; Home all axes
M420 S1 ;
G29 ;
G92 E ;
G92 E0 ; Reset Extruder
G1 X5.1 Y20 Z0.3 F5000.0 ; Move to start position
G1 X5.1 Y200.0 Z0.3 F1500.0 E15 ; Draw the first line
G1 X0.4 Y200.0 Z0.3 F5000.0 ; Move to side a little
G1 X0.4 Y20 Z0.3 F1500.0 E30 ; Draw the second line
G92 E0 ; Reset Extruder
G1 Z2.0 F3000 ; Move Z Axis up little to prevent scratching of Heat Bed
G92 E0
G92 E0
G1 F2700 E-5
;LAYER_COUNT:150
;LAYER:0
M107
G1 F600 Z0.4
G0 F2400 X106.579 Y100.318 Z0.4
;TYPE:SKIRT
G1 F600 Z0.2
G1 F2700 E0
G1 F1200 X106.859 Y100.033 E0.02076
G1 X107.459 Y99.465 E0.0637
G1 X107.735 Y99.221 E0.08285
G1 X108.487 Y98.609 E0.13323
G1 X109.096 Y98.184 E0.17183
G1 X109.355 Y98.015 E0.1879
G1 X110.006 Y97.619 E0.2275
G1 X110.32 Y97.442 E0.24623
G1 X111.183 Y97.001 E0.2966
G1 X111.853 Y96.718 E0.33439
G1 X112.166 Y96.597 E0.35183
G1 X112.962 Y96.322 E0.3956
G1 X113.295 Y96.22 E0.4137
G1 X114.038 Y96.019 E0.4537
G1 X114.305 Y95.956 E0.46796
G1 X115.595 Y95.727 E0.53604
G1 X115.827 Y95.699 E0.54819
G1 X117.043 Y95.616 E0.61153
G1 X117.41 Y95.61 E0.63061
G1 X118.244 Y95.626 E0.67396
G1 X118.628 Y95.647 E0.69394
G1 X119.905 Y95.787 E0.7607
G1 X120.05 Y95.811 E0.76834
G1 X121.265 Y96.079 E0.833
G1 X121.713 Y96.203 E0.85716
G1 X122.481 Y96.444 E0.89899
G1 X122.765 Y96.544 E0.91464
G1 X123.666 Y96.903 E0.96504
G1 X124.29 Y97.205 E1.00107
G1 X124.724 Y97.431 E1.0265
G1 X125.564 Y97.914 E1.07685
G1 X126.15 Y98.308 E1.11355
G1 X126.54 Y98.588 E1.1385
G1 X127.581 Y99.43 E1.20808
G1 X127.764 Y99.596 E1.22092
G1 X128.28 Y100.093 E1.25815
G1 X128.401 Y100.217 E1.26716
G1 X129.233 Y101.167 E1.33279
G1 X129.485 Y101.488 E1.35399
G1 X129.947 Y102.119 E1.39464
G1 X130.132 Y102.39 E1.41169
G1 X130.718 Y103.342 E1.46979
G1 X130.804 Y103.498 E1.47904
G1 X131.04 Y103.949 E1.5055
G1 X131.979 Y105.846 E1.6155
G1 X133.157 Y108.108 E1.74804
G1 X134.345 Y110.236 E1.87469
G1 X135.646 Y112.42 E2.00681
G1 X137.305 Y115.019 E2.16704
G1 X137.769 Y115.718 E2.21065
G1 X138.002 Y116.085 E2.23324
G1 X138.36 Y116.67 E2.26888
G1 X138.832 Y117.517 E2.31927
G1 X139.114 Y118.119 E2.35382
G1 X139.257 Y118.448 E2.37246
G1 X139.638 Y119.446 E2.42798
G1 X139.712 Y119.67 E2.44024
G1 X140.074 Y121.039 E2.51383
G1 X140.181 Y121.571 E2.54203
G1 X140.333 Y122.529 E2.59244
G1 X140.391 Y123.193 E2.62708
G1 X140.418 Y123.649 E2.65082
G1 X140.43 Y124.802 E2.71074
G1 X140.422 Y125.007 E2.7214
G1 X140.286 Y126.389 E2.79357
G1 X140.218 Y126.818 E2.81614
G1 X140.073 Y127.573 E2.8561
G1 X140.013 Y127.838 E2.87022
G1 X139.76 Y128.773 E2.92056
G1 X139.51 Y129.486 E2.95982
G1 X139.371 Y129.845 E2.97983
G1 X139.059 Y130.577 E3.02118
G1 X138.923 Y130.868 E3.03787
G1 X138.565 Y131.572 E3.07892
G1 X138.443 Y131.793 E3.09204
G1 X137.94 Y132.621 E3.14239
G1 X137.471 Y133.276 E3.18425
G1 X137.145 Y133.7 E3.21205
G1 X136.3 Y134.682 E3.27937
G1 X136.15 Y134.838 E3.29062
G1 X135.356 Y135.59 E3.34745
G1 X135.028 Y135.873 E3.36997
G1 X134.268 Y136.476 E3.42038
G1 X133.625 Y136.912 E3.46076
G1 X133.294 Y137.121 E3.4811
G1 X132.598 Y137.528 E3.523
G1 X132.318 Y137.679 E3.53953
G1 X131.447 Y138.103 E3.58988
G1 X130.836 Y138.35 E3.62413
G1 X130.325 Y138.54 E3.65246
G1 X129.08 Y138.926 E3.7202
G1 X128.872 Y138.978 E3.73134
G1 X127.76 Y139.2 E3.79027
G1 X127.399 Y139.254 E3.80924
G1 X126.853 Y139.322 E3.83784
G1 X125.623 Y139.387 E3.90185
G1 X125.045 Y139.387 E3.93188
G1 X124.296 Y139.363 E3.97083
G1 X122.232 Y139.229 E4.07832
G1 X119.733 Y139.123 E4.20831
G1 X117.216 Y139.087 E4.33913
G1 X114.738 Y139.122 E4.46792
G1 X111.315 Y139.283 E4.646
G1 X110.85 Y139.314 E4.67022
G1 X110.438 Y139.334 E4.69166
G1 X109.9 Y139.351 E4.71963
G1 X108.931 Y139.342 E4.76999
G1 X108.224 Y139.284 E4.80686
G1 X107.723 Y139.228 E4.83306
G1 X106.463 Y139.018 E4.89944
G1 X106.311 Y138.984 E4.90754
G1 X105.139 Y138.657 E4.97077
G1 X104.677 Y138.502 E4.99609
G1 X103.823 Y138.178 E5.04356
G1 X103.545 Y138.06 E5.05926
G1 X102.48 Y137.543 E5.12078
G1 X102.287 Y137.437 E5.13222
G1 X101.244 Y136.791 E5.19598
G1 X100.878 Y136.537 E5.21914
G1 X100.105 Y135.952 E5.26951
G1 X99.604 Y135.515 E5.30406
G1 X99.237 Y135.176 E5.33003
G1 X98.335 Y134.246 E5.39736
G1 X98.171 Y134.057 E5.41036
G1 X97.428 Y133.105 E5.47312
G1 X97.181 Y132.753 E5.49547
G1 X96.575 Y131.794 E5.55442
G1 X96.464 Y131.598 E5.56613
G1 X96.088 Y130.878 E5.60834
G1 X95.847 Y130.346 E5.63869
G1 X95.747 Y130.11 E5.65201
G1 X95.434 Y129.287 E5.69777
G1 X95.286 Y128.849 E5.7218
G1 X95.014 Y127.919 E5.77216
G1 X94.874 Y127.277 E5.8063
G1 X94.79 Y126.834 E5.82974
G1 X94.649 Y125.875 E5.88011
G1 X94.595 Y125.161 E5.91732
G1 X94.574 Y124.683 E5.94219
G1 X94.572 Y123.713 E5.9926
G1 X94.621 Y123.005 E6.02948
G1 X94.671 Y122.502 E6.05575
G1 X94.882 Y121.164 E6.12614
G1 X94.931 Y120.939 E6.13811
G1 X95.218 Y119.868 E6.19573
G1 X95.344 Y119.473 E6.21728
G1 X95.684 Y118.544 E6.26869
G1 X95.718 Y118.462 E6.2733
G1 X96.007 Y117.82 E6.30989
G1 X96.172 Y117.481 E6.32949
G1 X96.551 Y116.766 E6.37154
G1 X96.574 Y116.726 E6.37394
G1 X97.012 Y116.023 E6.41698
G1 X97.559 Y115.21 E6.46791
G1 X98.987 Y113.025 E6.60356
G1 X100.301 Y110.885 E6.73406
G1 X101.533 Y108.745 E6.86239
G1 X102.727 Y106.526 E6.99334
G1 X103.429 Y105.128 E7.07464
G1 X103.523 Y104.958 E7.08474
G1 X104.005 Y103.992 E7.14084
G1 X104.165 Y103.683 E7.15893
G1 X104.298 Y103.435 E7.17355
G1 X104.629 Y102.857 E7.20817
G1 X104.692 Y102.754 E7.21444
G1 X105.262 Y101.908 E7.26745
G1 X105.507 Y101.576 E7.2889
G1 X106.114 Y100.821 E7.33924
G1 X106.579 Y100.318 E7.37484
G0 F2400 X106.936 Y100.669
G1 F1200 X107.216 Y100.384 E7.3956
G1 X107.79 Y99.839 E7.43674
G1 X108.066 Y99.595 E7.45588
G1 X108.802 Y98.998 E7.50513
G1 X109.369 Y98.602 E7.54107
G1 X109.628 Y98.433 E7.55715
G1 X110.252 Y98.055 E7.59506
G1 X110.566 Y97.878 E7.61379
G1 X111.411 Y97.447 E7.66309
G1 X112.034 Y97.185 E7.69821
G1 X112.347 Y97.064 E7.71565
G1 X113.108 Y96.8 E7.75751
G1 X113.441 Y96.698 E7.77561
G1 X114.152 Y96.506 E7.81389
G1 X114.419 Y96.443 E7.82814
G1 X115.655 Y96.223 E7.89339
G1 X115.887 Y96.195 E7.90553
G1 X117.051 Y96.116 E7.96616
G1 X117.418 Y96.11 E7.98524
G1 X118.216 Y96.125 E8.02671
G1 X118.6 Y96.146 E8.0467
G1 X119.823 Y96.28 E8.11064
G1 X119.968 Y96.304 E8.11828
G1 X121.132 Y96.561 E8.18023
G1 X121.58 Y96.685 E8.20438
G1 X122.315 Y96.916 E8.24442
G1 X122.599 Y97.016 E8.26007
G1 X123.48 Y97.368 E8.30937
G1 X124.059 Y97.649 E8.34282
G1 X124.493 Y97.875 E8.36825
G1 X125.315 Y98.348 E8.41754
G1 X125.858 Y98.714 E8.45157
G1 X126.248 Y98.994 E8.47652
G1 X127.245 Y99.8 E8.54314
G1 X127.428 Y99.966 E8.55598
G1 X127.922 Y100.442 E8.59164
G1 X128.043 Y100.566 E8.60064
G1 X128.84 Y101.476 E8.6635
G1 X129.092 Y101.797 E8.68471
G1 X129.534 Y102.401 E8.72361
G1 X129.719 Y102.672 E8.74066
G1 X130.28 Y103.584 E8.79631
G1 X130.366 Y103.74 E8.80556
G1 X130.592 Y104.172 E8.8309
G1 X131.238 Y105.474 E8.90644
G1 X131.533 Y106.074 E8.94118
G1 X132.703 Y108.319 E9.07275
G1 X133.926 Y110.51 E9.20315
G1 X135.206 Y112.659 E9.33314
G1 X136.916 Y115.339 E9.49835
G1 X137.352 Y115.995 E9.53929
G1 X137.576 Y116.346 E9.56093
G1 X137.934 Y116.931 E9.59657
G1 X138.394 Y117.76 E9.64584
G1 X138.656 Y118.318 E9.67787
G1 X138.799 Y118.647 E9.69652
G1 X139.163 Y119.603 E9.74968
G1 X139.237 Y119.827 E9.76194
G1 X139.584 Y121.138 E9.83242
G1 X139.691 Y121.67 E9.86062
G1 X139.839 Y122.607 E9.90992
G1 X139.892 Y123.223 E9.94205
G1 X139.919 Y123.679 E9.96579
G1 X139.93 Y124.783 E10.02316
G1 X139.922 Y124.988 E10.03383
G1 X139.792 Y126.31 E10.10286
G1 X139.724 Y126.739 E10.12543
G1 X139.585 Y127.462 E10.16369
G1 X139.525 Y127.727 E10.17781
G1 X139.277 Y128.643 E10.22713
G1 X139.044 Y129.305 E10.2636
G1 X138.905 Y129.664 E10.28361
G1 X138.606 Y130.365 E10.32322
G1 X138.47 Y130.656 E10.33991
G1 X138.127 Y131.33 E10.37921
G1 X138.005 Y131.551 E10.39233
G1 X137.512 Y132.361 E10.44161
G1 X137.075 Y132.971 E10.48061
G1 X136.749 Y133.395 E10.5084
G1 X135.939 Y134.335 E10.57289
G1 X135.789 Y134.491 E10.58413
G1 X135.029 Y135.212 E10.63858
G1 X134.701 Y135.495 E10.66109
G1 X133.958 Y136.084 E10.71036
G1 X133.358 Y136.489 E10.74798
G1 X133.027 Y136.698 E10.76833
G1 X132.361 Y137.088 E10.80844
G1 X132.081 Y137.239 E10.82497
G1 X131.228 Y137.654 E10.87427
G1 X130.662 Y137.882 E10.90598
G1 X130.151 Y138.072 E10.93431
G1 X128.959 Y138.441 E10.99916
G1 X128.751 Y138.493 E11.0103
G1 X127.686 Y138.705 E11.06673
G1 X127.325 Y138.759 E11.0857
G1 X126.801 Y138.825 E11.11315
G1 X125.623 Y138.887 E11.17445
G1 X125.045 Y138.887 E11.20449
G1 X124.327 Y138.864 E11.24182
G1 X123.02 Y138.78 E11.30989
G1 X122.286 Y138.731 E11.34812
G1 X119.726 Y138.623 E11.48128
G1 X117.216 Y138.587 E11.61173
G1 X114.739 Y138.622 E11.74047
G1 X111.258 Y138.786 E11.92158
G1 X110.817 Y138.815 E11.94454
G1 X110.422 Y138.834 E11.9651
G1 X109.884 Y138.851 E11.99307
G1 X108.936 Y138.841 E12.04234
G1 X108.279 Y138.787 E12.0766
G1 X107.778 Y138.731 E12.10279
G1 X106.572 Y138.53 E12.16633
G1 X106.42 Y138.496 E12.17443
G1 X105.298 Y138.183 E12.23496
G1 X104.836 Y138.028 E12.26029
G1 X104.018 Y137.718 E12.30575
G1 X103.74 Y137.6 E12.32144
G1 X102.72 Y137.105 E12.38037
G1 X102.527 Y136.999 E12.39181
G1 X101.529 Y136.38 E12.45284
G1 X101.163 Y136.126 E12.47599
G1 X100.407 Y135.553 E12.52529
G1 X99.944 Y135.148 E12.55726
G1 X99.577 Y134.809 E12.58322
G1 X98.713 Y133.918 E12.64772
G1 X98.549 Y133.729 E12.66073
G1 X97.837 Y132.818 E12.72081
G1 X97.59 Y132.466 E12.74316
G1 X97.01 Y131.548 E12.79959
G1 X96.899 Y131.352 E12.8113
G1 X96.539 Y130.662 E12.85175
G1 X96.308 Y130.151 E12.88089
G1 X96.208 Y129.915 E12.89421
G1 X95.908 Y129.127 E12.93803
G1 X95.76 Y128.689 E12.96206
G1 X95.495 Y127.779 E13.01131
G1 X95.365 Y127.184 E13.04296
G1 X95.281 Y126.741 E13.06639
G1 X95.144 Y125.802 E13.11571
G1 X95.095 Y125.139 E13.15026
G1 X95.074 Y124.661 E13.17513
G1 X95.072 Y123.712 E13.22444
G1 X95.118 Y123.054 E13.25872
G1 X95.168 Y122.551 E13.28499
G1 X95.371 Y121.27 E13.35239
G1 X95.42 Y121.045 E13.36436
G1 X95.694 Y120.02 E13.4195
G1 X95.82 Y119.625 E13.44105
G1 X96.146 Y118.735 E13.4903
G1 X96.18 Y118.653 E13.49492
G1 X96.457 Y118.039 E13.52992
G1 X96.622 Y117.7 E13.54952
G1 X96.984 Y117.015 E13.58978
G1 X97.007 Y116.975 E13.59218
G1 X97.427 Y116.302 E13.63341
G1 X97.977 Y115.485 E13.68459
G1 X99.41 Y113.291 E13.82078
G1 X100.72 Y111.158 E13.95086
G1 X101.974 Y108.98 E14.08147
G1 X103.159 Y106.778 E14.21142
G1 X103.875 Y105.352 E14.29435
G1 X103.981 Y105.161 E14.3057
G1 X104.453 Y104.215 E14.36064
G1 X104.606 Y103.919 E14.37796
G1 X104.739 Y103.671 E14.39258
G1 X105.056 Y103.118 E14.42571
G1 X105.119 Y103.015 E14.43199
G1 X105.664 Y102.205 E14.48272
G1 X105.909 Y101.873 E14.50416
G1 X106.504 Y101.134 E14.55347
G1 X106.936 Y100.669 E14.58646
G0 F2400 X107.293 Y101.019
G1 F1200 X107.573 Y100.734 E14.60722
G1 X108.121 Y100.214 E14.64648
G1 X108.397 Y99.97 E14.66562
G1 X109.117 Y99.386 E14.7138
G1 X109.643 Y99.021 E14.74707
G1 X109.902 Y98.852 E14.76315
G1 X110.497 Y98.49 E14.79934
G1 X110.811 Y98.313 E14.81807
G1 X111.638 Y97.893 E14.86628
G1 X112.214 Y97.651 E14.89875
G1 X112.527 Y97.53 E14.91619
G1 X113.255 Y97.278 E14.95622
G1 X113.588 Y97.176 E14.97432
G1 X114.267 Y96.992 E15.01088
G1 X114.534 Y96.929 E15.02514
G1 X115.715 Y96.719 E15.08747
G1 X115.947 Y96.691 E15.09962
G1 X117.059 Y96.615 E15.15754
G1 X117.426 Y96.609 E15.17662
G1 X118.189 Y96.624 E15.21628
G1 X118.573 Y96.645 E15.23626
G1 X119.741 Y96.773 E15.29733
G1 X119.886 Y96.797 E15.30497
G1 X120.999 Y97.043 E15.3642
G1 X121.447 Y97.167 E15.38836
G1 X122.149 Y97.387 E15.42659
G1 X122.433 Y97.487 E15.44224
G1 X123.294 Y97.833 E15.49046
G1 X123.828 Y98.092 E15.52131
G1 X124.262 Y98.318 E15.54674
G1 X125.065 Y98.782 E15.59493
G1 X125.566 Y99.121 E15.62637
G1 X125.956 Y99.401 E15.65132
G1 X126.91 Y100.171 E15.71503
G1 X127.093 Y100.337 E15.72787
G1 X127.564 Y100.791 E15.76187
G1 X127.685 Y100.915 E15.77087
G1 X128.447 Y101.785 E15.83098
G1 X128.699 Y102.106 E15.85219
G1 X129.121 Y102.683 E15.88934
G1 X129.306 Y102.954 E15.90639
G1 X129.842 Y103.825 E15.95954
G1 X129.928 Y103.981 E15.96879
G1 X130.144 Y104.394 E15.99302
G1 X131.089 Y106.302 E16.10367
G1 X132.27 Y108.569 E16.23651
G1 X133.5 Y110.773 E16.36768
G1 X134.766 Y112.899 E16.49627
G1 X136.487 Y115.594 E16.66245
G1 X136.936 Y116.271 E16.70467
G1 X137.149 Y116.607 E16.72534
G1 X137.507 Y117.192 E16.76098
G1 X137.957 Y118.003 E16.80918
G1 X138.197 Y118.518 E16.83871
G1 X138.34 Y118.847 E16.85735
G1 X138.688 Y119.76 E16.90813
G1 X138.762 Y119.984 E16.92039
G1 X139.094 Y121.236 E16.98771
G1 X139.201 Y121.768 E17.01591
G1 X139.344 Y122.684 E17.06409
G1 X139.393 Y123.253 E17.09377
G1 X139.42 Y123.709 E17.11751
G1 X139.431 Y124.763 E17.17228
G1 X139.423 Y124.968 E17.18295
G1 X139.298 Y126.232 E17.24896
G1 X139.23 Y126.661 E17.27153
G1 X139.098 Y127.352 E17.30809
G1 X139.038 Y127.617 E17.32221
G1 X138.794 Y128.511 E17.37037
G1 X138.578 Y129.124 E17.40415
G1 X138.439 Y129.483 E17.42415
G1 X138.153 Y130.154 E17.46206
G1 X138.017 Y130.445 E17.47875
G1 X137.689 Y131.088 E17.51626
G1 X137.567 Y131.309 E17.52938
G1 X137.085 Y132.101 E17.57757
G1 X136.678 Y132.666 E17.61375
G1 X136.352 Y133.09 E17.64155
G1 X135.579 Y133.989 E17.70316
G1 X135.429 Y134.145 E17.71441
G1 X134.703 Y134.833 E17.76639
G1 X134.375 Y135.116 E17.7889
G1 X133.647 Y135.691 E17.83712
G1 X133.091 Y136.067 E17.872
G1 X132.76 Y136.276 E17.89234
G1 X132.124 Y136.648 E17.93063
G1 X131.844 Y136.799 E17.94716
G1 X131.009 Y137.203 E17.99537
G1 X130.487 Y137.413 E18.02461
G1 X129.976 Y137.603 E18.05294
G1 X128.837 Y137.956 E18.11491
G1 X128.629 Y138.008 E18.12606
G1 X127.612 Y138.211 E18.17995
G1 X127.251 Y138.265 E18.19892
G1 X126.748 Y138.328 E18.22527
G1 X125.623 Y138.387 E18.28381
G1 X125.045 Y138.387 E18.31385
G1 X124.359 Y138.365 E18.34952
G1 X122.256 Y138.229 E18.45904
G1 X119.754 Y138.123 E18.58918
G1 X117.216 Y138.087 E18.72109
G1 X114.709 Y138.123 E18.85139
G1 X111.249 Y138.285 E19.0314
G1 X110.783 Y138.316 E19.05567
G1 X110.407 Y138.335 E19.07524
G1 X109.869 Y138.352 E19.10321
G1 X108.941 Y138.341 E19.15144
G1 X108.335 Y138.29 E19.18304
G1 X107.834 Y138.234 E19.20924
G1 X106.681 Y138.042 E19.26999
G1 X106.529 Y138.008 E19.27808
G1 X105.457 Y137.709 E19.33592
G1 X104.995 Y137.554 E19.36124
G1 X104.214 Y137.257 E19.40467
G1 X103.936 Y137.139 E19.42036
G1 X102.961 Y136.666 E19.47668
G1 X102.768 Y136.56 E19.48812
G1 X101.814 Y135.97 E19.54642
G1 X101.448 Y135.716 E19.56957
G1 X100.71 Y135.155 E19.61775
G1 X100.283 Y134.781 E19.64725
G1 X99.916 Y134.442 E19.67321
G1 X99.091 Y133.59 E19.73484
G1 X98.927 Y133.401 E19.74785
G1 X98.246 Y132.531 E19.80526
G1 X97.999 Y132.179 E19.82761
G1 X97.445 Y131.301 E19.88156
G1 X97.334 Y131.105 E19.89327
G1 X96.99 Y130.446 E19.9319
G1 X96.768 Y129.956 E19.95986
G1 X96.668 Y129.72 E19.97318
G1 X96.382 Y128.967 E20.01504
G1 X96.234 Y128.529 E20.03907
G1 X95.975 Y127.639 E20.08724
G1 X95.856 Y127.091 E20.11638
G1 X95.772 Y126.648 E20.13981
G1 X95.639 Y125.73 E20.18802
G1 X95.594 Y125.117 E20.21996
G1 X95.573 Y124.639 E20.24483
G1 X95.573 Y123.712 E20.293
G1 X95.616 Y123.104 E20.32468
G1 X95.666 Y122.601 E20.35095
G1 X95.859 Y121.377 E20.41534
G1 X95.908 Y121.152 E20.42731
G1 X96.17 Y120.172 E20.48003
G1 X96.296 Y119.777 E20.50158
G1 X96.608 Y118.927 E20.54863
G1 X96.642 Y118.845 E20.55324
G1 X96.906 Y118.257 E20.58674
G1 X97.071 Y117.918 E20.60633
G1 X97.418 Y117.264 E20.64481
G1 X97.441 Y117.224 E20.64721
G1 X97.841 Y116.581 E20.68656
G1 X98.416 Y115.726 E20.74011
G1 X99.829 Y113.565 E20.87429
G1 X101.172 Y111.377 E21.00771
G1 X102.392 Y109.257 E21.13482
G1 X103.614 Y106.988 E21.26876
G1 X104.322 Y105.577 E21.3508
G1 X104.416 Y105.409 E21.3608
G1 X104.9 Y104.438 E21.41719
G1 X105.046 Y104.155 E21.43373
G1 X105.179 Y103.907 E21.44836
G1 X105.482 Y103.379 E21.48
