;FLAVOR:Marlin
;TIME:7806
;Filament used: 6.27952m
;Layer height: 0.2
;MINX:65.288
;MINY:41.36
;MINZ:0.2
;MAXX:169.701
;MAXY:197.675
;MAXZ:10.2
;Generated with Cura_SteamEngine 4.8.0
M140 S50
M105
M190 S50
M104 S200
M105
M109 S200
M82 ;absolute extrusion mode
; Ender 3 Custom Start G-code
G1 Z20.0 F3000 ; Move Z Axis up to prevent crashing in side of build plate
G28 ; Home all axes
M420 S1 ;
G29 ;
G92 E ;
G92 E0 ; Reset Extruder
G1 X5.1 Y20 Z0.3 F5000.0 ; Move to start position
G1 X5.1 Y200.0 Z0.3 F1500.0 E15 ; Draw the first line
G1 X0.4 Y200.0 Z0.3 F5000.0 ; Move to side a little
G1 X0.4 Y20 Z0.3 F1500.0 E30 ; Draw the second line
G92 E0 ; Reset Extruder
G1 Z2.0 F3000 ; Move Z Axis up little to prevent scratching of Heat Bed
G92 E0
G92 E0
G1 F2700 E-5
;LAYER_COUNT:50
;LAYER:0
M107
G1 F600 Z0.4
G0 F2400 X77.909 Y68.101 Z0.4
;TYPE:SKIRT
G1 F600 Z0.2
G1 F2700 E0
G1 F1200 X78.942 Y66.936 E0.08092
G1 X79.245 Y66.607 E0.10416
G1 X80.336 Y65.467 E0.18616
G1 X80.67 Y65.131 E0.21079
G1 X82.001 Y63.848 E0.30686
G1 X82.173 Y63.686 E0.31914
G1 X83.519 Y62.443 E0.41435
G1 X85.34 Y60.673 E0.54633
G1 X87.109 Y58.852 E0.67827
G1 X88.787 Y57.028 E0.80707
G1 X90.405 Y55.16 E0.9355
G1 X91.988 Y53.228 E1.0653
G1 X93.526 Y51.239 E1.19597
G1 X94.974 Y49.252 E1.32374
G1 X96.793 Y46.581 E1.49168
G1 X97.041 Y46.23 E1.51401
G1 X97.641 Y45.469 E1.56438
G1 X98.302 Y44.76 E1.61475
G1 X99.019 Y44.108 E1.66512
G1 X99.788 Y43.517 E1.71552
G1 X100.602 Y42.991 E1.76588
G1 X101.457 Y42.535 E1.81624
G1 X102.347 Y42.15 E1.86664
G1 X103.265 Y41.84 E1.91699
G1 X104.206 Y41.607 E1.96737
G1 X105.163 Y41.452 E2.01775
G1 X106.232 Y41.374 E2.07346
G1 X106.554 Y41.365 E2.0902
G1 X106.882 Y41.36 E2.10724
G1 X111.331 Y41.36 E2.33845
G1 X112.289 Y41.372 E2.38824
G1 X114.917 Y41.445 E2.52487
G1 X117.417 Y41.445 E2.65479
G1 X118.752 Y41.403 E2.72421
G1 X119.107 Y41.406 E2.74266
G1 X120.513 Y41.365 E2.81576
G1 X120.858 Y41.36 E2.83369
G1 X126.47 Y41.361 E3.12534
G1 X127.171 Y41.371 E3.16177
G1 X128.138 Y41.425 E3.2121
G1 X129.099 Y41.558 E3.26252
G1 X130.044 Y41.77 E3.31285
G1 X130.97 Y42.06 E3.36328
G1 X131.868 Y42.424 E3.41364
G1 X132.733 Y42.862 E3.46402
G1 X133.559 Y43.369 E3.51439
G1 X134.34 Y43.942 E3.56473
G1 X135.072 Y44.578 E3.61513
G1 X135.748 Y45.273 E3.66551
G1 X136.539 Y46.254 E3.731
G1 X136.774 Y46.581 E3.75193
G1 X138.295 Y48.636 E3.8848
G1 X139.838 Y50.601 E4.01464
G1 X141.429 Y52.513 E4.1439
G1 X143.098 Y54.406 E4.27506
G1 X144.788 Y56.219 E4.40386
G1 X146.542 Y57.996 E4.53362
G1 X148.336 Y59.713 E4.66267
G1 X150.208 Y61.408 E4.79391
G1 X151.669 Y62.661 E4.89394
G1 X151.909 Y62.873 E4.91058
G1 X153.156 Y64.003 E4.99803
G1 X153.502 Y64.329 E5.02274
G1 X154.658 Y65.465 E5.10697
G1 X154.981 Y65.796 E5.131
G1 X156.089 Y66.974 E5.21505
G1 X156.401 Y67.319 E5.23922
G1 X157.419 Y68.491 E5.3199
G1 X157.718 Y68.849 E5.34414
G1 X158.754 Y70.142 E5.43024
G1 X159.043 Y70.518 E5.45489
G1 X159.979 Y71.788 E5.53688
G1 X160.248 Y72.169 E5.56111
G1 X161.172 Y73.533 E5.64673
G1 X161.421 Y73.917 E5.67052
G1 X162.247 Y75.245 E5.75179
G1 X162.487 Y75.648 E5.77617
G1 X163.285 Y77.053 E5.86014
G1 X163.508 Y77.465 E5.88449
G1 X164.248 Y78.898 E5.9683
G1 X164.452 Y79.313 E5.99233
G1 X165.136 Y80.776 E6.07626
G1 X165.325 Y81.201 E6.10044
G1 X165.938 Y82.66 E6.18268
G1 X166.112 Y83.1 E6.20727
G1 X166.682 Y84.626 E6.29193
G1 X166.838 Y85.068 E6.31628
G1 X167.332 Y86.571 E6.39851
G1 X167.465 Y87.006 E6.42214
G1 X167.913 Y88.571 E6.50674
G1 X168.035 Y89.03 E6.53142
G1 X168.411 Y90.577 E6.61416
G1 X168.511 Y91.027 E6.63812
G1 X168.831 Y92.612 E6.72215
G1 X168.915 Y93.076 E6.74666
G1 X169.17 Y94.666 E6.83034
G1 X169.234 Y95.125 E6.85443
G1 X169.422 Y96.689 E6.93629
G1 X169.469 Y97.155 E6.96063
G1 X169.6 Y98.794 E7.04608
G1 X169.628 Y99.261 E7.07039
G1 X169.691 Y100.837 E7.15236
G1 X169.7 Y101.299 E7.17638
G1 X169.701 Y102.96 E7.2627
G1 X169.692 Y103.426 E7.28692
G1 X169.633 Y104.936 E7.36545
G1 X169.605 Y105.405 E7.38987
G1 X169.473 Y107.072 E7.47677
G1 X169.427 Y107.539 E7.50116
G1 X169.234 Y109.153 E7.58564
G1 X169.17 Y109.609 E7.60957
G1 X168.928 Y111.126 E7.6894
G1 X168.846 Y111.585 E7.71363
G1 X168.519 Y113.216 E7.80008
G1 X168.417 Y113.676 E7.82456
G1 X168.04 Y115.23 E7.90767
G1 X167.92 Y115.683 E7.93202
G1 X167.489 Y117.194 E8.01368
G1 X167.355 Y117.632 E8.03748
G1 X166.835 Y119.218 E8.12422
G1 X166.68 Y119.662 E8.14866
G1 X166.142 Y121.105 E8.2287
G1 X165.971 Y121.538 E8.25289
G1 X165.338 Y123.05 E8.33807
G1 X165.148 Y123.478 E8.36241
G1 X164.483 Y124.904 E8.44418
G1 X164.282 Y125.314 E8.46791
G1 X163.522 Y126.791 E8.55423
G1 X163.292 Y127.217 E8.57939
G1 X162.518 Y128.58 E8.66085
G1 X162.287 Y128.969 E8.68436
G1 X161.447 Y130.324 E8.76721
G1 X161.189 Y130.722 E8.79186
G1 X160.249 Y132.11 E8.87898
G1 X159.98 Y132.49 E8.90318
G1 X159.079 Y133.713 E8.98212
G1 X158.794 Y134.084 E9.00643
G1 X157.754 Y135.384 E9.09295
G1 X157.457 Y135.74 E9.11705
G1 X156.311 Y137.062 E9.20797
G1 X156.161 Y137.232 E9.21975
G1 X155.682 Y137.764 E9.25695
G1 X154.893 Y138.628 E9.31776
G1 X153.261 Y140.521 E9.44765
G1 X151.681 Y142.462 E9.57772
G1 X150.159 Y144.441 E9.70746
G1 X148.709 Y146.442 E9.83588
G1 X147.288 Y148.525 E9.96693
G1 X145.944 Y150.621 E10.09632
G1 X144.65 Y152.768 E10.2266
G1 X143.441 Y154.91 E10.35442
G1 X142.266 Y157.135 E10.48519
G1 X141.157 Y159.392 E10.61588
G1 X140.129 Y161.637 E10.7442
G1 X139.151 Y163.948 E10.87461
G1 X138.245 Y166.267 E11.004
G1 X137.398 Y168.628 E11.13435
G1 X136.632 Y170.971 E11.26246
G1 X135.911 Y173.41 E11.39463
G1 X135.281 Y175.788 E11.52248
G1 X134.702 Y178.244 E11.65361
G1 X134.205 Y180.671 E11.78236
G1 X133.773 Y183.123 E11.91175
G1 X133.343 Y186.096 E12.06786
G1 X133.174 Y187.41 E12.13671
G1 X133.011 Y188.366 E12.18711
G1 X132.77 Y189.305 E12.23749
G1 X132.452 Y190.221 E12.28788
G1 X132.06 Y191.107 E12.33823
G1 X131.596 Y191.958 E12.3886
G1 X131.064 Y192.768 E12.43896
G1 X130.467 Y193.532 E12.48935
G1 X129.808 Y194.243 E12.53973
G1 X129.094 Y194.898 E12.59009
G1 X128.328 Y195.492 E12.64046
G1 X127.515 Y196.021 E12.69087
G1 X126.662 Y196.481 E12.74123
G1 X125.774 Y196.869 E12.7916
G1 X124.856 Y197.182 E12.842
G1 X123.916 Y197.419 E12.89238
G1 X122.96 Y197.577 E12.94274
G1 X121.848 Y197.661 E13.00069
G1 X121.527 Y197.67 E13.01738
G1 X121.198 Y197.675 E13.03448
G1 X112.679 Y197.674 E13.4772
G1 X111.981 Y197.664 E13.51348
G1 X111.013 Y197.61 E13.56386
G1 X110.053 Y197.476 E13.61424
G1 X109.107 Y197.264 E13.66462
G1 X108.182 Y196.975 E13.71498
G1 X107.284 Y196.61 E13.76536
G1 X106.419 Y196.173 E13.81572
G1 X105.593 Y195.666 E13.86609
G1 X104.811 Y195.092 E13.9165
G1 X104.08 Y194.456 E13.96686
G1 X103.403 Y193.762 E14.01724
G1 X102.786 Y193.014 E14.06763
G1 X102.233 Y192.218 E14.118
G1 X101.747 Y191.38 E14.16835
G1 X101.332 Y190.504 E14.21872
G1 X100.991 Y189.596 E14.26913
G1 X100.725 Y188.664 E14.3195
G1 X100.476 Y187.257 E14.39375
G1 X100.349 Y186.14 E14.45218
G1 X100.296 Y185.604 E14.48017
G1 X99.983 Y183.152 E14.60863
G1 X99.597 Y180.681 E14.7386
G1 X99.143 Y178.238 E14.86774
G1 X98.614 Y175.774 E14.99871
G1 X98.024 Y173.366 E15.12755
G1 X97.366 Y170.972 E15.25658
G1 X96.628 Y168.56 E15.38766
G1 X95.829 Y166.189 E15.51769
G1 X94.97 Y163.858 E15.64679
G1 X94.044 Y161.548 E15.77613
G1 X93.043 Y159.245 E15.90663
G1 X91.985 Y156.987 E16.03622
G1 X90.877 Y154.785 E16.16432
G1 X89.666 Y152.541 E16.29684
G1 X88.445 Y150.423 E16.42389
G1 X87.122 Y148.273 E16.55508
G1 X85.755 Y146.182 E16.68491
G1 X84.331 Y144.137 E16.81442
G1 X82.863 Y142.147 E16.94293
G1 X81.297 Y140.148 E17.0749
G1 X79.722 Y138.25 E17.20307
G1 X78.147 Y136.456 E17.32714
G1 X77.944 Y136.219 E17.34335
G1 X76.835 Y134.886 E17.43347
G1 X76.546 Y134.524 E17.45754
G1 X75.616 Y133.312 E17.53693
G1 X75.348 Y132.948 E17.56042
G1 X74.405 Y131.616 E17.64524
G1 X74.14 Y131.226 E17.66974
G1 X73.29 Y129.917 E17.75085
G1 X73.043 Y129.52 E17.77515
G1 X72.213 Y128.123 E17.8596
G1 X71.99 Y127.729 E17.88313
G1 X71.247 Y126.361 E17.96403
G1 X71.033 Y125.948 E17.9882
G1 X70.305 Y124.471 E18.07378
G1 X70.104 Y124.042 E18.0984
G1 X69.465 Y122.602 E18.18027
G1 X69.29 Y122.186 E18.20373
G1 X68.707 Y120.723 E18.28557
G1 X68.542 Y120.283 E18.30999
G1 X68 Y118.747 E18.39464
G1 X67.855 Y118.311 E18.41852
G1 X67.396 Y116.828 E18.4992
G1 X67.266 Y116.376 E18.52364
G1 X66.85 Y114.813 E18.60769
G1 X66.743 Y114.376 E18.63108
G1 X66.393 Y112.824 E18.71376
G1 X66.297 Y112.357 E18.73853
G1 X66.006 Y110.769 E18.82243
G1 X65.932 Y110.315 E18.84634
G1 X65.708 Y108.749 E18.92855
G1 X65.652 Y108.289 E18.95263
G1 X65.49 Y106.716 E19.03481
G1 X65.452 Y106.262 E19.05849
G1 X65.348 Y104.635 E19.14322
G1 X65.327 Y104.163 E19.16777
G1 X65.29 Y102.601 E19.24897
G1 X65.288 Y102.147 E19.27256
G1 X65.312 Y100.544 E19.35588
G1 X65.329 Y100.079 E19.38006
G1 X65.416 Y98.487 E19.46292
G1 X65.45 Y98.02 E19.48725
G1 X65.6 Y96.436 E19.56994
G1 X65.652 Y95.982 E19.59369
G1 X65.864 Y94.401 E19.67658
G1 X65.936 Y93.937 E19.70099
G1 X66.205 Y92.4 E19.78208
G1 X66.292 Y91.953 E19.80574
G1 X66.642 Y90.327 E19.89218
G1 X66.751 Y89.866 E19.9168
G1 X67.144 Y88.342 E19.99859
G1 X67.264 Y87.91 E20.02189
G1 X67.711 Y86.415 E20.10298
G1 X67.856 Y85.965 E20.12755
G1 X68.38 Y84.439 E20.2114
G1 X68.536 Y84.012 E20.23503
G1 X69.111 Y82.527 E20.31779
G1 X69.291 Y82.087 E20.34249
G1 X69.928 Y80.621 E20.42556
G1 X70.12 Y80.202 E20.44951
G1 X70.816 Y78.758 E20.53282
G1 X71.024 Y78.349 E20.55666
G1 X71.759 Y76.965 E20.6381
G1 X71.988 Y76.554 E20.66255
G1 X72.819 Y75.13 E20.74824
G1 X73.053 Y74.745 E20.77165
G1 X73.873 Y73.456 E20.85104
G1 X74.133 Y73.065 E20.87545
G1 X75.085 Y71.693 E20.96223
G1 X75.351 Y71.325 E20.98583
G1 X76.261 Y70.116 E21.06447
G1 X76.554 Y69.742 E21.08916
G1 X77.606 Y68.456 E21.1755
G1 X77.909 Y68.101 E21.19976
G0 F2400 X78.283 Y68.432
G1 F1200 X79.316 Y67.267 E21.28067
G1 X79.606 Y66.953 E21.30289
G1 X80.697 Y65.813 E21.38489
G1 X81.017 Y65.491 E21.40848
G1 X82.348 Y64.208 E21.50456
G1 X82.942 Y63.656 E21.5467
G1 X83.894 Y62.777 E21.61404
G1 X85.694 Y61.027 E21.7445
G1 X87.448 Y59.223 E21.87527
G1 X89.145 Y57.376 E22.00562
G1 X90.815 Y55.449 E22.13813
G1 X92.384 Y53.534 E22.26679
G1 X93.909 Y51.561 E22.39639
G1 X95.39 Y49.529 E22.52706
G1 X97.206 Y46.863 E22.6947
G1 X97.446 Y46.523 E22.71632
G1 X98.034 Y45.779 E22.76561
G1 X98.683 Y45.087 E22.81491
G1 X99.387 Y44.452 E22.86418
G1 X100.143 Y43.879 E22.91348
G1 X100.944 Y43.371 E22.96277
G1 X101.785 Y42.933 E23.01205
G1 X102.66 Y42.567 E23.06134
G1 X103.563 Y42.276 E23.11065
G1 X104.487 Y42.062 E23.15994
G1 X105.426 Y41.926 E23.20924
G1 X106.246 Y41.873 E23.25195
G1 X106.568 Y41.864 E23.26869
G1 X106.882 Y41.86 E23.28501
G1 X111.331 Y41.86 E23.51622
G1 X112.282 Y41.872 E23.56564
G1 X114.938 Y41.945 E23.70373
G1 X117.432 Y41.945 E23.83334
G1 X118.767 Y41.903 E23.90275
G1 X119.11 Y41.907 E23.92058
G1 X120.528 Y41.865 E23.9943
G1 X120.858 Y41.86 E24.01145
G1 X126.462 Y41.861 E24.30269
G1 X127.163 Y41.871 E24.33912
G1 X128.11 Y41.925 E24.38841
G1 X129.05 Y42.058 E24.43775
G1 X129.974 Y42.269 E24.48701
G1 X130.877 Y42.558 E24.53628
G1 X131.753 Y42.922 E24.58558
G1 X132.596 Y43.359 E24.63492
G1 X133.398 Y43.864 E24.68418
G1 X134.155 Y44.436 E24.73349
G1 X134.861 Y45.069 E24.78276
G1 X135.511 Y45.76 E24.83207
G1 X136.133 Y46.547 E24.8842
G1 X136.356 Y46.857 E24.90404
G1 X137.9 Y48.942 E25.03887
G1 X139.464 Y50.934 E25.17049
G1 X141.039 Y52.827 E25.29847
G1 X142.729 Y54.743 E25.43124
G1 X144.42 Y56.557 E25.56012
G1 X146.193 Y58.355 E25.69135
G1 X148.008 Y60.092 E25.82191
G1 X149.881 Y61.787 E25.95318
G1 X151.343 Y63.041 E26.05328
G1 X151.573 Y63.244 E26.06923
G1 X152.82 Y64.374 E26.15668
G1 X153.151 Y64.686 E26.18032
G1 X154.307 Y65.822 E26.26455
G1 X154.617 Y66.138 E26.28755
G1 X155.725 Y67.316 E26.3716
G1 X156.023 Y67.647 E26.39474
G1 X157.041 Y68.819 E26.47542
G1 X157.327 Y69.162 E26.49863
G1 X158.363 Y70.455 E26.58473
G1 X158.64 Y70.815 E26.60834
G1 X159.576 Y72.085 E26.69033
G1 X159.834 Y72.449 E26.71352
G1 X160.758 Y73.813 E26.79913
G1 X160.997 Y74.181 E26.82194
G1 X161.823 Y75.509 E26.90321
G1 X162.052 Y75.895 E26.92654
G1 X162.85 Y77.3 E27.01051
G1 X163.064 Y77.694 E27.03381
G1 X163.804 Y79.127 E27.11763
G1 X163.999 Y79.524 E27.14061
G1 X164.683 Y80.987 E27.22454
G1 X164.864 Y81.394 E27.24769
G1 X165.477 Y82.853 E27.32993
G1 X165.644 Y83.274 E27.35347
G1 X166.214 Y84.8 E27.43813
G1 X166.363 Y85.224 E27.46148
G1 X166.857 Y86.727 E27.5437
G1 X166.985 Y87.144 E27.56637
G1 X167.433 Y88.709 E27.65097
G1 X167.549 Y89.148 E27.67457
G1 X167.925 Y90.695 E27.75731
G1 X168.021 Y91.126 E27.78025
G1 X168.341 Y92.711 E27.86429
G1 X168.421 Y93.156 E27.88778
G1 X168.676 Y94.746 E27.97147
G1 X168.738 Y95.184 E27.99446
G1 X168.926 Y96.748 E28.07632
G1 X168.97 Y97.195 E28.09967
G1 X169.101 Y98.834 E28.18511
G1 X169.128 Y99.281 E28.20839
G1 X169.191 Y100.857 E28.29036
G1 X169.2 Y101.299 E28.31333
G1 X169.201 Y102.96 E28.39965
G1 X169.192 Y103.406 E28.42283
G1 X169.133 Y104.916 E28.50137
G1 X169.107 Y105.365 E28.52474
G1 X168.975 Y107.032 E28.61164
G1 X168.93 Y107.48 E28.63504
G1 X168.737 Y109.094 E28.71952
G1 X168.677 Y109.53 E28.74239
G1 X168.435 Y111.047 E28.82222
G1 X168.355 Y111.487 E28.84546
G1 X168.028 Y113.118 E28.93191
G1 X167.931 Y113.558 E28.95533
G1 X167.554 Y115.112 E29.03843
G1 X167.439 Y115.546 E29.06176
G1 X167.008 Y117.057 E29.14342
G1 X166.88 Y117.476 E29.16619
G1 X166.36 Y119.062 E29.25293
G1 X166.211 Y119.487 E29.27633
G1 X165.673 Y120.93 E29.35637
G1 X165.509 Y121.344 E29.37951
G1 X164.876 Y122.856 E29.46469
G1 X164.695 Y123.267 E29.48803
G1 X164.03 Y124.693 E29.5698
G1 X163.837 Y125.085 E29.59251
G1 X163.077 Y126.562 E29.67883
G1 X162.857 Y126.97 E29.70292
G1 X162.083 Y128.333 E29.78438
G1 X161.862 Y128.706 E29.80691
G1 X161.022 Y130.061 E29.88976
G1 X160.775 Y130.441 E29.91332
G1 X159.835 Y131.829 E30.00044
G1 X159.577 Y132.194 E30.02366
G1 X158.676 Y133.417 E30.10261
G1 X158.404 Y133.772 E30.12585
G1 X157.364 Y135.072 E30.21237
G1 X157.08 Y135.413 E30.23543
G1 X155.934 Y136.735 E30.32635
G1 X155.79 Y136.898 E30.33766
G1 X155.312 Y137.427 E30.37471
G1 X154.532 Y138.281 E30.43482
G1 X152.867 Y140.212 E30.56732
G1 X151.297 Y142.141 E30.69658
G1 X149.761 Y144.137 E30.82747
G1 X148.296 Y146.161 E30.95731
G1 X146.87 Y148.25 E31.08876
G1 X145.527 Y150.345 E31.21808
G1 X144.228 Y152.502 E31.34894
G1 X142.977 Y154.717 E31.48114
G1 X141.818 Y156.912 E31.61014
G1 X140.721 Y159.143 E31.73934
G1 X139.668 Y161.444 E31.87085
G1 X138.679 Y163.781 E32.00273
G1 X137.774 Y166.095 E32.13185
G1 X136.93 Y168.451 E32.26191
G1 X136.148 Y170.843 E32.39269
G1 X135.438 Y173.245 E32.52286
G1 X134.789 Y175.691 E32.65438
G1 X134.216 Y178.127 E32.78443
G1 X133.711 Y180.589 E32.91504
G1 X133.28 Y183.036 E33.04417
G1 X132.849 Y186.014 E33.20054
G1 X132.678 Y187.347 E33.27038
G1 X132.517 Y188.282 E33.31969
G1 X132.279 Y189.2 E33.36897
G1 X131.964 Y190.094 E33.41823
G1 X131.575 Y190.959 E33.46752
G1 X131.115 Y191.789 E33.51684
G1 X130.586 Y192.576 E33.56612
G1 X129.993 Y193.316 E33.6154
G1 X129.339 Y194.003 E33.6647
G1 X128.63 Y194.633 E33.71399
G1 X127.871 Y195.201 E33.76325
G1 X127.066 Y195.703 E33.81256
G1 X126.222 Y196.136 E33.86185
G1 X125.344 Y196.496 E33.91117
G1 X124.439 Y196.78 E33.96046
G1 X123.514 Y196.988 E34.00973
G1 X122.574 Y197.116 E34.05903
G1 X121.834 Y197.162 E34.09757
G1 X121.513 Y197.171 E34.11425
G1 X121.198 Y197.175 E34.13063
G1 X112.686 Y197.174 E34.57299
G1 X111.988 Y197.164 E34.60926
G1 X111.041 Y197.11 E34.65856
G1 X110.102 Y196.977 E34.70784
G1 X109.177 Y196.765 E34.75716
G1 X108.274 Y196.477 E34.80642
G1 X107.398 Y196.113 E34.85572
G1 X106.556 Y195.676 E34.90502
G1 X105.754 Y195.17 E34.9543
G1 X104.997 Y194.599 E35.00358
G1 X104.291 Y193.965 E35.05289
G1 X103.64 Y193.275 E35.10219
G1 X103.051 Y192.532 E35.15146
G1 X102.526 Y191.742 E35.20076
G1 X102.069 Y190.911 E35.25004
G1 X101.684 Y190.044 E35.29934
G1 X101.373 Y189.148 E35.34863
G1 X101.139 Y188.229 E35.39792
G1 X100.973 Y187.2 E35.45208
G1 X100.847 Y186.091 E35.51009
G1 X100.794 Y185.558 E35.53792
G1 X100.479 Y183.087 E35.66738
G1 X100.088 Y180.584 E35.79903
G1 X99.635 Y178.147 E35.92785
