;FLAVOR:Marlin
;TIME:2598
;Filament used: 2.51451m
;Layer height: 0.2
;MINX:85.516
;MINY:85.516
;MINZ:0.2
;MAXX:149.484
;MAXY:149.484
;MAXZ:14.2
;Generated with Cura_SteamEngine 4.8.0
M140 S50
M105
M190 S50
M104 S200
M105
M109 S200
M82 ;absolute extrusion mode
; Ender 3 Custom Start G-code
G1 Z20.0 F3000 ; Move Z Axis up to prevent crashing in side of build plate
G28 ; Home all axes
M420 S1 ;
G29 ;
G92 E ;
G92 E0 ; Reset Extruder
G1 X5.1 Y20 Z0.3 F5000.0 ; Move to start position
G1 X5.1 Y200.0 Z0.3 F1500.0 E15 ; Draw the first line
G1 X0.4 Y200.0 Z0.3 F5000.0 ; Move to side a little
G1 X0.4 Y20 Z0.3 F1500.0 E30 ; Draw the second line
G92 E0 ; Reset Extruder
G1 Z2.0 F3000 ; Move Z Axis up little to prevent scratching of Heat Bed
G92 E0
G92 E0
G1 F2700 E-5
;LAYER_COUNT:70
;LAYER:0
M107
G1 F600 Z0.4
G0 F2400 X94.684 Y95.082 Z0.4
;TYPE:SKIRT
G1 F600 Z0.2
G1 F2700 E0
G1 F1200 X95.225 Y94.545 E0.03961
G1 X95.481 Y94.299 E0.05807
G1 X95.893 Y93.914 E0.08737
G1 X96.207 Y93.63 E0.10937
G1 X96.818 Y93.099 E0.15144
G1 X97.118 Y92.847 E0.1718
G1 X97.576 Y92.475 E0.20247
G1 X97.894 Y92.226 E0.22346
G1 X98.494 Y91.772 E0.26256
G1 X98.816 Y91.537 E0.28327
G1 X99.317 Y91.184 E0.31512
G1 X99.65 Y90.958 E0.33604
G1 X100.336 Y90.509 E0.37865
G1 X100.69 Y90.286 E0.40039
G1 X101.234 Y89.957 E0.43343
G1 X101.567 Y89.763 E0.45346
G1 X102.093 Y89.468 E0.4848
G1 X102.452 Y89.275 E0.50598
G1 X103.258 Y88.859 E0.55312
G1 X103.613 Y88.683 E0.57371
G1 X103.923 Y88.536 E0.59154
G1 X104.282 Y88.373 E0.61203
G1 X105.269 Y87.945 E0.66794
G1 X105.636 Y87.793 E0.68858
G1 X105.971 Y87.661 E0.70729
G1 X106.361 Y87.516 E0.72892
G1 X107.277 Y87.192 E0.77941
G1 X107.645 Y87.068 E0.79959
G1 X108.071 Y86.933 E0.82282
G1 X108.47 Y86.815 E0.84444
G1 X109.35 Y86.57 E0.89191
G1 X109.757 Y86.464 E0.91377
G1 X110.24 Y86.348 E0.93958
G1 X110.588 Y86.27 E0.95812
G1 X111.337 Y86.114 E0.99788
G1 X111.747 Y86.036 E1.01957
G1 X112.476 Y85.911 E1.05801
G1 X112.881 Y85.849 E1.0793
G1 X113.551 Y85.758 E1.11444
G1 X113.935 Y85.712 E1.13454
G1 X114.521 Y85.652 E1.16515
G1 X114.928 Y85.618 E1.18637
G1 X115.803 Y85.559 E1.23195
G1 X116.206 Y85.538 E1.25292
G1 X116.691 Y85.522 E1.27814
G1 X117.091 Y85.516 E1.29893
G1 X117.964 Y85.517 E1.3443
G1 X118.367 Y85.524 E1.36525
G1 X118.903 Y85.543 E1.39312
G1 X119.288 Y85.563 E1.41315
G1 X120.034 Y85.614 E1.45201
G1 X120.473 Y85.653 E1.47492
G1 X121.321 Y85.743 E1.51923
G1 X121.71 Y85.79 E1.5396
G1 X122.103 Y85.845 E1.56022
G1 X122.492 Y85.907 E1.58069
G1 X123.467 Y86.077 E1.63213
G1 X123.859 Y86.152 E1.65287
G1 X124.36 Y86.257 E1.67947
G1 X124.76 Y86.348 E1.70079
G1 X125.503 Y86.531 E1.74055
G1 X125.881 Y86.631 E1.76087
G1 X126.516 Y86.81 E1.79516
G1 X126.918 Y86.931 E1.81698
G1 X127.585 Y87.145 E1.85338
G1 X127.952 Y87.269 E1.87351
G1 X128.623 Y87.509 E1.91055
G1 X128.993 Y87.649 E1.93111
G1 X129.561 Y87.874 E1.96286
G1 X129.947 Y88.035 E1.98459
G1 X130.696 Y88.363 E2.02709
G1 X131.035 Y88.517 E2.04644
G1 X131.497 Y88.737 E2.07303
G1 X131.86 Y88.918 E2.09411
G1 X132.588 Y89.296 E2.13674
G1 X132.96 Y89.498 E2.15874
G1 X133.575 Y89.846 E2.19546
G1 X133.894 Y90.033 E2.21468
G1 X134.407 Y90.345 E2.24588
G1 X134.754 Y90.564 E2.2672
G1 X135.349 Y90.955 E2.3042
G1 X135.702 Y91.197 E2.32645
G1 X136.317 Y91.634 E2.36565
G1 X136.628 Y91.862 E2.3857
G1 X137.143 Y92.254 E2.41933
G1 X137.455 Y92.5 E2.43998
G1 X137.966 Y92.917 E2.47425
G1 X138.278 Y93.181 E2.49549
G1 X138.841 Y93.674 E2.53439
G1 X139.126 Y93.932 E2.55436
G1 X139.605 Y94.38 E2.58845
G1 X139.918 Y94.684 E2.61112
G1 X140.455 Y95.225 E2.65074
G1 X140.701 Y95.481 E2.66919
G1 X141.086 Y95.893 E2.69849
G1 X141.37 Y96.207 E2.7205
G1 X141.901 Y96.818 E2.76256
G1 X142.149 Y97.114 E2.78263
G1 X142.514 Y97.563 E2.8127
G1 X142.766 Y97.883 E2.83387
G1 X143.227 Y98.492 E2.87357
G1 X143.463 Y98.816 E2.8944
G1 X143.816 Y99.317 E2.92625
G1 X144.042 Y99.65 E2.94716
G1 X144.491 Y100.336 E2.98977
G1 X144.714 Y100.69 E3.01151
G1 X145.043 Y101.234 E3.04455
G1 X145.237 Y101.567 E3.06458
G1 X145.532 Y102.093 E3.09592
G1 X145.725 Y102.452 E3.1171
G1 X146.141 Y103.258 E3.16424
G1 X146.311 Y103.599 E3.18404
G1 X146.458 Y103.908 E3.20183
G1 X146.629 Y104.285 E3.22334
G1 X147.057 Y105.273 E3.2793
G1 X147.207 Y105.636 E3.29971
G1 X147.339 Y105.971 E3.31842
G1 X147.484 Y106.361 E3.34004
G1 X147.808 Y107.277 E3.39054
G1 X147.932 Y107.645 E3.41072
G1 X148.067 Y108.071 E3.43394
G1 X148.185 Y108.47 E3.45557
G1 X148.43 Y109.35 E3.50304
G1 X148.536 Y109.757 E3.52489
G1 X148.652 Y110.24 E3.55071
G1 X148.73 Y110.588 E3.56924
G1 X148.886 Y111.337 E3.609
G1 X148.964 Y111.745 E3.63059
G1 X149.089 Y112.473 E3.66898
G1 X149.151 Y112.882 E3.69048
G1 X149.242 Y113.553 E3.72567
G1 X149.286 Y113.921 E3.74493
G1 X149.346 Y114.5 E3.77518
G1 X149.383 Y114.924 E3.7973
G1 X149.441 Y115.788 E3.8423
G1 X149.46 Y116.177 E3.86254
G1 X149.477 Y116.679 E3.88864
G1 X149.484 Y117.091 E3.91006
G1 X149.483 Y117.961 E3.95527
G1 X149.476 Y118.36 E3.97601
G1 X149.457 Y118.9 E4.00409
G1 X149.437 Y119.288 E4.02428
G1 X149.386 Y120.034 E4.06314
G1 X149.347 Y120.473 E4.08604
G1 X149.257 Y121.321 E4.13036
G1 X149.21 Y121.71 E4.15072
G1 X149.155 Y122.103 E4.17135
G1 X149.093 Y122.492 E4.19182
G1 X148.923 Y123.467 E4.24325
G1 X148.849 Y123.855 E4.26378
G1 X148.749 Y124.333 E4.28916
G1 X148.659 Y124.728 E4.31021
G1 X148.471 Y125.494 E4.3512
G1 X148.369 Y125.881 E4.372
G1 X148.19 Y126.516 E4.40629
G1 X148.069 Y126.918 E4.4281
G1 X147.855 Y127.585 E4.46451
G1 X147.731 Y127.952 E4.48464
G1 X147.491 Y128.623 E4.52167
G1 X147.351 Y128.993 E4.54223
G1 X147.126 Y129.561 E4.57398
G1 X146.965 Y129.947 E4.59572
G1 X146.637 Y130.696 E4.63821
G1 X146.483 Y131.035 E4.65756
G1 X146.263 Y131.497 E4.68415
G1 X146.082 Y131.86 E4.70523
G1 X145.704 Y132.588 E4.74786
G1 X145.505 Y132.954 E4.76951
G1 X145.158 Y133.568 E4.80617
G1 X144.965 Y133.898 E4.82603
G1 X144.652 Y134.412 E4.85731
G1 X144.436 Y134.754 E4.87833
G1 X144.045 Y135.349 E4.91533
G1 X143.803 Y135.702 E4.93757
G1 X143.366 Y136.317 E4.97678
G1 X143.138 Y136.628 E4.99682
G1 X142.746 Y137.143 E5.03046
G1 X142.5 Y137.455 E5.0511
G1 X142.083 Y137.966 E5.08538
G1 X141.819 Y138.278 E5.10662
G1 X141.326 Y138.841 E5.14551
G1 X141.068 Y139.126 E5.16549
G1 X140.62 Y139.605 E5.19957
G1 X140.316 Y139.918 E5.22225
G1 X139.775 Y140.455 E5.26186
G1 X139.519 Y140.701 E5.28031
G1 X139.107 Y141.086 E5.30962
G1 X138.793 Y141.37 E5.33162
G1 X138.182 Y141.901 E5.37369
G1 X137.886 Y142.149 E5.39376
G1 X137.437 Y142.514 E5.42383
G1 X137.117 Y142.766 E5.445
G1 X136.508 Y143.227 E5.48469
G1 X136.187 Y143.461 E5.50534
G1 X135.692 Y143.81 E5.53681
G1 X135.357 Y144.038 E5.55787
G1 X134.665 Y144.491 E5.60085
G1 X134.31 Y144.714 E5.62264
G1 X133.766 Y145.043 E5.65568
G1 X133.433 Y145.237 E5.67571
G1 X132.907 Y145.532 E5.70705
G1 X132.548 Y145.725 E5.72823
G1 X131.742 Y146.141 E5.77537
G1 X131.387 Y146.317 E5.79596
G1 X131.077 Y146.464 E5.81379
G1 X130.718 Y146.627 E5.83428
G1 X129.731 Y147.055 E5.89019
G1 X129.364 Y147.207 E5.91083
G1 X129.029 Y147.339 E5.92955
G1 X128.639 Y147.484 E5.95117
G1 X127.723 Y147.808 E6.00166
G1 X127.355 Y147.932 E6.02184
G1 X126.929 Y148.067 E6.04507
G1 X126.53 Y148.185 E6.06669
G1 X125.65 Y148.43 E6.11416
G1 X125.243 Y148.536 E6.13602
G1 X124.76 Y148.652 E6.16183
G1 X124.412 Y148.73 E6.18037
G1 X123.663 Y148.886 E6.22013
G1 X123.253 Y148.964 E6.24182
G1 X122.524 Y149.089 E6.28026
G1 X122.119 Y149.151 E6.30155
G1 X121.449 Y149.242 E6.33669
G1 X121.065 Y149.288 E6.35679
G1 X120.479 Y149.348 E6.3874
G1 X120.072 Y149.382 E6.40862
G1 X119.197 Y149.441 E6.4542
G1 X118.794 Y149.462 E6.47517
G1 X118.309 Y149.478 E6.50039
G1 X117.909 Y149.484 E6.52118
G1 X117.036 Y149.483 E6.56655
G1 X116.633 Y149.476 E6.5875
G1 X116.097 Y149.457 E6.61537
G1 X115.712 Y149.437 E6.6354
G1 X114.966 Y149.386 E6.67426
G1 X114.527 Y149.347 E6.69717
G1 X113.679 Y149.257 E6.74149
G1 X113.29 Y149.21 E6.76185
G1 X112.897 Y149.155 E6.78247
G1 X112.508 Y149.093 E6.80294
G1 X111.533 Y148.923 E6.85438
G1 X111.141 Y148.848 E6.87512
G1 X110.64 Y148.743 E6.90172
G1 X110.24 Y148.652 E6.92304
G1 X109.497 Y148.469 E6.96281
G1 X109.119 Y148.369 E6.98313
G1 X108.484 Y148.19 E7.01741
G1 X108.082 Y148.069 E7.03923
G1 X107.415 Y147.855 E7.07563
G1 X107.048 Y147.731 E7.09576
G1 X106.377 Y147.491 E7.1328
G1 X106.007 Y147.351 E7.15336
G1 X105.439 Y147.126 E7.18511
G1 X105.053 Y146.965 E7.20684
G1 X104.304 Y146.637 E7.24934
G1 X103.965 Y146.483 E7.26869
G1 X103.503 Y146.263 E7.29528
G1 X103.14 Y146.082 E7.31636
G1 X102.412 Y145.704 E7.35899
G1 X102.04 Y145.502 E7.38099
G1 X101.425 Y145.154 E7.41771
G1 X101.106 Y144.967 E7.43693
G1 X100.593 Y144.655 E7.46813
G1 X100.246 Y144.436 E7.48945
G1 X99.651 Y144.045 E7.52646
G1 X99.298 Y143.803 E7.5487
G1 X98.683 Y143.366 E7.58791
G1 X98.37 Y143.136 E7.60809
G1 X97.854 Y142.743 E7.6418
G1 X97.546 Y142.5 E7.66219
G1 X97.036 Y142.084 E7.69639
G1 X96.722 Y141.819 E7.71774
G1 X96.159 Y141.326 E7.75663
G1 X95.874 Y141.068 E7.77661
G1 X95.395 Y140.62 E7.8107
G1 X95.082 Y140.316 E7.83337
G1 X94.544 Y139.774 E7.87306
G1 X94.297 Y139.518 E7.89155
G1 X93.913 Y139.107 E7.92078
G1 X93.631 Y138.794 E7.94267
G1 X93.099 Y138.182 E7.98481
G1 X92.848 Y137.882 E8.00514
G1 X92.484 Y137.434 E8.03514
G1 X92.234 Y137.117 E8.05612
G1 X91.773 Y136.508 E8.09582
G1 X91.537 Y136.184 E8.11665
G1 X91.184 Y135.683 E8.1485
G1 X90.956 Y135.347 E8.1696
G1 X90.506 Y134.659 E8.21232
G1 X90.286 Y134.31 E8.23376
G1 X89.958 Y133.768 E8.26669
G1 X89.766 Y133.439 E8.28648
G1 X89.47 Y132.912 E8.3179
G1 X89.271 Y132.542 E8.33973
G1 X88.856 Y131.737 E8.3868
G1 X88.69 Y131.402 E8.40623
G1 X88.542 Y131.091 E8.42412
G1 X88.37 Y130.711 E8.4458
G1 X87.943 Y129.725 E8.50164
G1 X87.793 Y129.364 E8.52196
G1 X87.661 Y129.029 E8.54067
G1 X87.516 Y128.639 E8.56229
G1 X87.192 Y127.723 E8.61279
G1 X87.068 Y127.355 E8.63297
G1 X86.933 Y126.929 E8.65619
G1 X86.815 Y126.53 E8.67782
G1 X86.57 Y125.65 E8.72529
G1 X86.464 Y125.243 E8.74714
G1 X86.348 Y124.76 E8.77296
G1 X86.27 Y124.412 E8.79149
G1 X86.114 Y123.663 E8.83125
G1 X86.036 Y123.253 E8.85294
G1 X85.911 Y122.524 E8.89138
G1 X85.849 Y122.119 E8.91267
G1 X85.758 Y121.449 E8.94781
G1 X85.712 Y121.065 E8.96791
G1 X85.652 Y120.479 E8.99852
G1 X85.618 Y120.072 E9.01975
G1 X85.559 Y119.197 E9.06532
G1 X85.538 Y118.795 E9.08624
G1 X85.522 Y118.311 E9.11141
G1 X85.516 Y117.91 E9.13225
G1 X85.517 Y117.036 E9.17767
G1 X85.524 Y116.633 E9.19862
G1 X85.543 Y116.097 E9.22649
G1 X85.563 Y115.712 E9.24653
G1 X85.614 Y114.966 E9.28539
G1 X85.653 Y114.527 E9.30829
G1 X85.743 Y113.679 E9.35261
G1 X85.79 Y113.29 E9.37297
G1 X85.845 Y112.897 E9.3936
G1 X85.907 Y112.508 E9.41407
G1 X86.077 Y111.533 E9.4655
G1 X86.152 Y111.141 E9.48624
G1 X86.257 Y110.64 E9.51284
G1 X86.348 Y110.24 E9.53416
G1 X86.531 Y109.497 E9.57393
G1 X86.631 Y109.119 E9.59425
G1 X86.81 Y108.484 E9.62854
G1 X86.931 Y108.082 E9.65035
G1 X87.145 Y107.415 E9.68676
G1 X87.269 Y107.048 E9.70689
G1 X87.509 Y106.377 E9.74392
G1 X87.649 Y106.007 E9.76448
G1 X87.874 Y105.439 E9.79623
G1 X88.035 Y105.053 E9.81797
G1 X88.363 Y104.304 E9.86046
G1 X88.517 Y103.965 E9.87981
G1 X88.737 Y103.503 E9.9064
G1 X88.918 Y103.14 E9.92748
G1 X89.296 Y102.412 E9.97011
G1 X89.495 Y102.046 E9.99176
G1 X89.842 Y101.432 E10.02842
G1 X90.039 Y101.096 E10.04866
G1 X90.353 Y100.581 E10.08
G1 X90.563 Y100.249 E10.10042
G1 X90.953 Y99.655 E10.13735
G1 X91.197 Y99.298 E10.15982
G1 X91.634 Y98.683 E10.19903
G1 X91.862 Y98.372 E10.21907
G1 X92.254 Y97.857 E10.2527
G1 X92.5 Y97.545 E10.27335
G1 X92.917 Y97.034 E10.30763
G1 X93.184 Y96.719 E10.32909
G1 X93.687 Y96.145 E10.36875
G1 X93.945 Y95.86 E10.38873
G1 X94.383 Y95.392 E10.42204
G1 X94.684 Y95.082 E10.4445
G0 F2400 X95.037 Y95.437
G1 F1200 X95.578 Y94.9 E10.48411
G1 X95.822 Y94.664 E10.50175
G1 X96.234 Y94.279 E10.53106
G1 X96.535 Y94.008 E10.55211
G1 X97.146 Y93.477 E10.59417
G1 X97.433 Y93.236 E10.61365
G1 X97.891 Y92.864 E10.64431
G1 X98.196 Y92.625 E10.66445
G1 X98.796 Y92.171 E10.70355
G1 X99.104 Y91.946 E10.72338
G1 X99.605 Y91.593 E10.75523
G1 X99.924 Y91.376 E10.77528
G1 X100.61 Y90.927 E10.81788
G1 X100.949 Y90.714 E10.83869
G1 X101.493 Y90.385 E10.87173
G1 X101.812 Y90.199 E10.89092
G1 X102.338 Y89.904 E10.92226
G1 X102.681 Y89.719 E10.94251
G1 X103.487 Y89.303 E10.98965
G1 X103.827 Y89.135 E11.00936
G1 X104.137 Y88.988 E11.02719
G1 X104.481 Y88.832 E11.04682
G1 X105.468 Y88.404 E11.10273
G1 X105.82 Y88.258 E11.12253
G1 X106.155 Y88.126 E11.14124
G1 X106.528 Y87.987 E11.16193
G1 X107.444 Y87.663 E11.21242
G1 X107.796 Y87.545 E11.23172
G1 X108.222 Y87.41 E11.25494
G1 X108.604 Y87.296 E11.27566
G1 X109.484 Y87.051 E11.32313
G1 X109.874 Y86.95 E11.34407
G1 X110.357 Y86.834 E11.36988
G1 X110.69 Y86.759 E11.38762
G1 X111.439 Y86.603 E11.42738
G1 X111.832 Y86.529 E11.44816
G1 X112.561 Y86.404 E11.4866
G1 X112.948 Y86.344 E11.50696
G1 X113.618 Y86.253 E11.54209
G1 X113.986 Y86.21 E11.56135
G1 X114.572 Y86.15 E11.59196
G1 X114.961 Y86.116 E11.61225
G1 X115.836 Y86.057 E11.65783
G1 X116.222 Y86.038 E11.67792
G1 X116.707 Y86.022 E11.70313
G1 X117.091 Y86.016 E11.72309
G1 X117.964 Y86.017 E11.76846
G1 X118.35 Y86.024 E11.78852
G1 X118.886 Y86.043 E11.8164
G1 X119.254 Y86.062 E11.83555
G1 X120 Y86.113 E11.87441
G1 X120.42 Y86.15 E11.89632
G1 X121.268 Y86.24 E11.94064
G1 X121.64 Y86.286 E11.96012
G1 X122.033 Y86.341 E11.98074
G1 X122.406 Y86.399 E12.00036
G1 X123.381 Y86.569 E12.05179
G1 X123.757 Y86.641 E12.07168
G1 X124.258 Y86.746 E12.09829
G1 X124.64 Y86.833 E12.11865
G1 X125.383 Y87.016 E12.15841
G1 X125.745 Y87.112 E12.17788
G1 X126.38 Y87.291 E12.21216
G1 X126.765 Y87.407 E12.23306
G1 X127.432 Y87.621 E12.26946
G1 X127.784 Y87.74 E12.28877
G1 X128.455 Y87.98 E12.32581
G1 X128.809 Y88.114 E12.34548
G1 X129.377 Y88.339 E12.37723
G1 X129.747 Y88.493 E12.39806
G1 X130.496 Y88.821 E12.44055
G1 X130.82 Y88.969 E12.45906
G1 X131.282 Y89.189 E12.48566
G1 X131.629 Y89.362 E12.50581
G1 X132.357 Y89.74 E12.54843
G1 X132.713 Y89.933 E12.56948
G1 X133.328 Y90.281 E12.6062
G1 X133.634 Y90.46 E12.62463
G1 X134.147 Y90.772 E12.65583
G1 X134.479 Y90.982 E12.67625
G1 X135.074 Y91.373 E12.71325
G1 X135.412 Y91.604 E12.73452
G1 X136.027 Y92.041 E12.77373
G1 X136.325 Y92.26 E12.79295
G1 X136.84 Y92.652 E12.82658
G1 X137.139 Y92.888 E12.84638
G1 X137.65 Y93.305 E12.88066
G1 X137.948 Y93.557 E12.90094
G1 X138.511 Y94.05 E12.93983
G1 X138.785 Y94.298 E12.95903
G1 X139.264 Y94.746 E12.99312
G1 X139.563 Y95.037 E13.0148
G1 X140.1 Y95.578 E13.05442
G1 X140.336 Y95.822 E13.07206
G1 X140.721 Y96.234 E13.10136
G1 X140.992 Y96.535 E13.12241
G1 X141.523 Y97.146 E13.16448
G1 X141.761 Y97.43 E13.18374
G1 X142.126 Y97.879 E13.21381
G1 X142.367 Y98.185 E13.23405
G1 X142.828 Y98.794 E13.27374
G1 X143.054 Y99.104 E13.29368
G1 X143.407 Y99.605 E13.32553
G1 X143.624 Y99.924 E13.34558
G1 X144.073 Y100.61 E13.38819
G1 X144.286 Y100.949 E13.409
G1 X144.615 Y101.493 E13.44203
G1 X144.801 Y101.812 E13.46122
G1 X145.096 Y102.338 E13.49257
G1 X145.281 Y102.681 E13.51282
G1 X145.697 Y103.487 E13.55996
G1 X145.859 Y103.814 E13.57892
G1 X146.006 Y104.123 E13.5967
G1 X146.17 Y104.484 E13.61731
G1 X146.598 Y105.472 E13.67327
G1 X146.742 Y105.82 E13.69284
G1 X146.874 Y106.155 E13.71155
G1 X147.013 Y106.528 E13.73224
G1 X147.337 Y107.444 E13.78273
G1 X147.455 Y107.796 E13.80202
G1 X147.59 Y108.222 E13.82525
G1 X147.704 Y108.604 E13.84597
G1 X147.949 Y109.484 E13.89344
G1 X148.05 Y109.874 E13.91437
G1 X148.166 Y110.357 E13.94019
G1 X148.241 Y110.69 E13.95793
G1 X148.397 Y111.439 E13.99769
G1 X148.471 Y111.829 E14.01832
G1 X148.596 Y112.557 E14.0567
G1 X148.656 Y112.949 E14.07731
G1 X148.747 Y113.62 E14.1125
G1 X148.789 Y113.972 E14.13093
G1 X148.849 Y114.551 E14.16118
G1 X148.884 Y114.957 E14.18236
G1 X148.942 Y115.821 E14.22736
G1 X148.961 Y116.194 E14.24677
G1 X148.978 Y116.696 E14.27287
G1 X148.984 Y117.09 E14.29335
G1 X148.983 Y117.96 E14.33856
G1 X148.976 Y118.343 E14.35847
G1 X148.957 Y118.883 E14.38655
G1 X148.938 Y119.254 E14.40586
G1 X148.887 Y120 E14.44472
G1 X148.85 Y120.42 E14.46663
G1 X148.76 Y121.268 E14.51094
G1 X148.714 Y121.64 E14.53042
G1 X148.659 Y122.033 E14.55105
