;FLAVOR:Marlin
;TIME:966
;Filament used: 0.845263m
;Layer height: 0.2
;MINX:91.648
;MINY:85.85
;MINZ:0.2
;MAXX:143.349
;MAXY:149.25
;MAXZ:8
;Generated with Cura_SteamEngine 4.8.0
M140 S50
M105
M190 S50
M104 S200
M105
M109 S200
M82 ;absolute extrusion mode
; Ender 3 Custom Start G-code
G1 Z20.0 F3000 ; Move Z Axis up to prevent crashing in side of build plate
G28 ; Home all axes
M420 S1 ;
G29 ;
G92 E ;
G92 E0 ; Reset Extruder
G1 X5.1 Y20 Z0.3 F5000.0 ; Move to start position
G1 X5.1 Y200.0 Z0.3 F1500.0 E15 ; Draw the first line
G1 X0.4 Y200.0 Z0.3 F5000.0 ; Move to side a little
G1 X0.4 Y20 Z0.3 F1500.0 E30 ; Draw the second line
G92 E0 ; Reset Extruder
G1 Z2.0 F3000 ; Move Z Axis up little to prevent scratching of Heat Bed
G92 E0
G92 E0
G1 F2700 E-5
;LAYER_COUNT:39
;LAYER:0
M107
G1 F600 Z0.4
G0 F2400 X106.889 Y90.145 Z0.4
;TYPE:SKIRT
G1 F600 Z0.2
G1 F2700 E0
G1 F1200 X107.535 Y89.423 E0.05035
G1 X108.239 Y88.756 E0.10075
G1 X108.995 Y88.149 E0.15113
G1 X109.798 Y87.607 E0.20148
G1 X110.644 Y87.133 E0.25188
G1 X111.525 Y86.73 E0.30222
G1 X112.437 Y86.401 E0.35261
G1 X113.373 Y86.149 E0.40298
G1 X114.327 Y85.975 E0.45338
G1 X115.601 Y85.866 E0.51983
G1 X115.925 Y85.856 E0.53668
G1 X116.287 Y85.85 E0.55549
G1 X118.242 Y85.85 E0.65709
G1 X119.112 Y85.861 E0.70231
G1 X120.08 Y85.915 E0.75269
G1 X121.04 Y86.048 E0.80306
G1 X121.986 Y86.26 E0.85344
G1 X122.911 Y86.55 E0.90382
G1 X123.809 Y86.914 E0.95418
G1 X124.674 Y87.351 E1.00454
G1 X125.5 Y87.859 E1.05494
G1 X126.282 Y88.432 E1.10532
G1 X127.013 Y89.068 E1.15567
G1 X127.69 Y89.762 E1.20606
G1 X128.307 Y90.51 E1.25645
G1 X128.86 Y91.306 E1.30682
G1 X129.213 Y91.898 E1.34264
G1 X129.426 Y92.28 E1.36537
G1 X130.71 Y94.504 E1.49883
G1 X132.015 Y96.618 E1.62794
G1 X133.404 Y98.736 E1.75956
G1 X134.805 Y100.743 E1.88676
G1 X136.306 Y102.771 E2.01788
G1 X137.823 Y104.704 E2.14558
G1 X139.957 Y107.25 E2.31823
G1 X140.472 Y107.842 E2.359
G1 X141.077 Y108.599 E2.40937
G1 X141.617 Y109.404 E2.45974
G1 X142.09 Y110.25 E2.51011
G1 X142.491 Y111.133 E2.56051
G1 X142.818 Y112.045 E2.61086
G1 X143.069 Y112.982 E2.66127
G1 X143.242 Y113.935 E2.71161
G1 X143.335 Y114.9 E2.76199
G1 X143.349 Y115.869 E2.81235
G1 X143.282 Y116.836 E2.86273
G1 X143.137 Y117.795 E2.91313
G1 X142.912 Y118.738 E2.96352
G1 X142.611 Y119.659 E3.01387
G1 X142.235 Y120.553 E3.06427
G1 X141.88 Y121.247 E3.10478
G1 X141.421 Y122.075 E3.15398
G1 X141.32 Y122.253 E3.16462
G1 X129.48 Y142.761 E4.39527
G1 X129.029 Y143.518 E4.44106
G1 X128.498 Y144.329 E4.49144
G1 X127.901 Y145.093 E4.54183
G1 X127.244 Y145.806 E4.59221
G1 X126.531 Y146.462 E4.64256
G1 X125.765 Y147.057 E4.69297
G1 X124.953 Y147.586 E4.74333
G1 X124.101 Y148.047 E4.79368
G1 X123.213 Y148.437 E4.84408
G1 X122.296 Y148.751 E4.89445
G1 X121.357 Y148.989 E4.9448
G1 X120.401 Y149.149 E4.99517
G1 X119.114 Y149.239 E5.06222
G1 X118.256 Y149.25 E5.10681
G1 X116.496 Y149.249 E5.19827
G1 X115.795 Y149.239 E5.23471
G1 X114.828 Y149.185 E5.28504
G1 X113.867 Y149.052 E5.33546
G1 X112.922 Y148.84 E5.38579
G1 X111.996 Y148.55 E5.43622
G1 X111.098 Y148.186 E5.48657
G1 X110.233 Y147.748 E5.53696
G1 X109.407 Y147.241 E5.58733
G1 X108.626 Y146.668 E5.63767
G1 X107.894 Y146.032 E5.68806
G1 X107.218 Y145.337 E5.73845
G1 X106.601 Y144.59 E5.7888
G1 X105.877 Y143.518 E5.85603
G1 X105.426 Y142.761 E5.90182
G1 X93.448 Y122.014 E7.14681
G1 X93.16 Y121.5 E7.17743
G1 X92.774 Y120.748 E7.22136
G1 X92.396 Y119.856 E7.27171
G1 X92.092 Y118.935 E7.32211
G1 X91.865 Y117.993 E7.37246
G1 X91.717 Y117.035 E7.42284
G1 X91.648 Y116.068 E7.47322
G1 X91.659 Y115.099 E7.52358
G1 X91.75 Y114.134 E7.57396
G1 X91.921 Y113.179 E7.62438
G1 X92.169 Y112.242 E7.67475
G1 X92.494 Y111.329 E7.72511
G1 X92.892 Y110.445 E7.77549
G1 X93.363 Y109.598 E7.82586
G1 X93.901 Y108.792 E7.87622
G1 X94.458 Y108.088 E7.92287
G1 X95.062 Y107.381 E7.9712
G1 X96.756 Y105.34 E8.10904
G1 X98.269 Y103.408 E8.23657
G1 X99.758 Y101.39 E8.3669
G1 X101.2 Y99.318 E8.49809
G1 X102.548 Y97.26 E8.62594
G1 X103.846 Y95.147 E8.75482
G1 X105.565 Y92.12 E8.93573
G1 X105.786 Y91.737 E8.95871
G1 X106.304 Y90.919 E9.00902
G1 X106.889 Y90.145 E9.05944
G0 F2400 X107.301 Y90.431
G1 F1200 X107.936 Y89.727 E9.10871
G1 X108.629 Y89.079 E9.15802
G1 X109.374 Y88.492 E9.20731
G1 X110.165 Y87.969 E9.25659
G1 X110.998 Y87.515 E9.30589
G1 X111.866 Y87.133 E9.35518
G1 X112.763 Y86.825 E9.40447
G1 X113.683 Y86.594 E9.45376
G1 X114.619 Y86.441 E9.50305
G1 X115.616 Y86.365 E9.55501
G1 X115.94 Y86.355 E9.57186
G1 X116.287 Y86.35 E9.58989
G1 X118.242 Y86.35 E9.69149
G1 X119.105 Y86.361 E9.73635
G1 X120.052 Y86.415 E9.78564
G1 X120.991 Y86.548 E9.83493
G1 X121.916 Y86.759 E9.88423
G1 X122.819 Y87.048 E9.93351
G1 X123.695 Y87.412 E9.9828
G1 X124.537 Y87.848 E10.03208
G1 X125.339 Y88.354 E10.08136
G1 X126.096 Y88.926 E10.13067
G1 X126.803 Y89.559 E10.17999
G1 X127.453 Y90.249 E10.22925
G1 X128.043 Y90.992 E10.27856
G1 X128.776 Y92.141 E10.34939
G1 X128.99 Y92.525 E10.37223
G1 X130.283 Y94.764 E10.5066
G1 X131.587 Y96.876 E10.63559
G1 X132.992 Y99.019 E10.76876
G1 X134.397 Y101.032 E10.89634
G1 X135.927 Y103.1 E11.03003
G1 X137.443 Y105.03 E11.15757
G1 X139.552 Y107.546 E11.32818
G1 X140.094 Y108.17 E11.37114
G1 X140.686 Y108.912 E11.42047
G1 X141.213 Y109.7 E11.46973
G1 X141.671 Y110.531 E11.51904
G1 X142.058 Y111.396 E11.56829
G1 X142.371 Y112.292 E11.61761
G1 X142.607 Y113.21 E11.66687
G1 X142.765 Y114.146 E11.7162
G1 X142.844 Y115.091 E11.76549
G1 X142.842 Y116.039 E11.81475
G1 X142.761 Y116.984 E11.86404
G1 X142.601 Y117.919 E11.91334
G1 X142.362 Y118.837 E11.96264
G1 X142.047 Y119.732 E12.01195
G1 X141.442 Y121.004 E12.08515
G1 X140.887 Y122.003 E12.14454
G1 X128.961 Y142.658 E13.38404
G1 X128.6 Y143.262 E13.42061
G1 X128.079 Y144.055 E13.46992
G1 X127.494 Y144.801 E13.51918
G1 X126.848 Y145.495 E13.56846
G1 X126.145 Y146.132 E13.61776
G1 X125.392 Y146.708 E13.66703
G1 X124.592 Y147.219 E13.71636
G1 X123.753 Y147.66 E13.76562
G1 X122.879 Y148.029 E13.81492
G1 X121.977 Y148.323 E13.86423
G1 X121.054 Y148.54 E13.9135
G1 X120.116 Y148.679 E13.96278
G1 X119.107 Y148.739 E14.01531
G1 X118.256 Y148.75 E14.05954
G1 X116.504 Y148.749 E14.15059
G1 X115.803 Y148.739 E14.18702
G1 X114.856 Y148.685 E14.23632
G1 X113.916 Y148.552 E14.28565
G1 X112.992 Y148.341 E14.33491
G1 X112.089 Y148.052 E14.38418
G1 X111.213 Y147.688 E14.43348
G1 X110.37 Y147.251 E14.48283
G1 X109.568 Y146.746 E14.53208
G1 X108.811 Y146.174 E14.58139
G1 X108.105 Y145.541 E14.63067
G1 X107.455 Y144.85 E14.67997
G1 X106.865 Y144.108 E14.72923
G1 X106.306 Y143.262 E14.78193
G1 X105.859 Y142.511 E14.82735
G1 X93.956 Y121.895 E16.0645
G1 X93.597 Y121.255 E16.10263
G1 X93.226 Y120.534 E16.14477
G1 X92.856 Y119.66 E16.19409
G1 X92.562 Y118.759 E16.24335
G1 X92.344 Y117.836 E16.29264
G1 X92.205 Y116.898 E16.34191
G1 X92.145 Y115.951 E16.39123
G1 X92.166 Y115.003 E16.44051
G1 X92.266 Y114.06 E16.48979
G1 X92.445 Y113.128 E16.53911
G1 X92.702 Y112.215 E16.5884
G1 X93.035 Y111.327 E16.63769
G1 X93.442 Y110.47 E16.68699
G1 X93.919 Y109.651 E16.73625
G1 X94.464 Y108.874 E16.78557
G1 X94.838 Y108.412 E16.81646
G1 X95.472 Y107.67 E16.86718
G1 X97.13 Y105.672 E17.00211
G1 X98.695 Y103.674 E17.134
G1 X100.168 Y101.679 E17.26288
G1 X101.596 Y99.625 E17.39289
G1 X102.976 Y97.519 E17.52374
G1 X104.266 Y95.42 E17.65177
G1 X105.998 Y92.37 E17.83405
G1 X106.219 Y91.987 E17.85703
G1 X106.727 Y91.187 E17.90628
G1 X107.301 Y90.431 E17.95561
G0 F2400 X107.713 Y90.718
G1 F1200 X108.337 Y90.033 E18.00377
G1 X109.018 Y89.404 E18.05194
G1 X109.751 Y88.836 E18.10014
G1 X110.53 Y88.334 E18.1483
G1 X111.35 Y87.9 E18.19651
G1 X112.204 Y87.539 E18.2447
G1 X113.085 Y87.252 E18.29285
G1 X113.989 Y87.043 E18.34107
G1 X114.906 Y86.912 E18.38921
G1 X115.631 Y86.865 E18.42696
G1 X115.955 Y86.855 E18.44381
G1 X116.287 Y86.85 E18.46107
G1 X118.242 Y86.85 E18.56267
G1 X119.098 Y86.861 E18.60715
G1 X120.024 Y86.914 E18.65536
G1 X120.941 Y87.047 E18.70351
G1 X121.844 Y87.258 E18.7517
G1 X122.725 Y87.547 E18.79989
G1 X123.578 Y87.91 E18.84806
G1 X124.397 Y88.345 E18.89626
G1 X125.175 Y88.849 E18.94443
G1 X125.907 Y89.419 E18.99265
G1 X126.586 Y90.049 E19.04078
G1 X127.21 Y90.735 E19.08898
G1 X127.771 Y91.473 E19.13715
G1 X128.339 Y92.384 E19.19295
G1 X128.554 Y92.77 E19.21591
G1 X129.851 Y95.015 E19.35065
G1 X131.181 Y97.171 E19.4823
G1 X132.563 Y99.278 E19.61325
G1 X134.002 Y101.339 E19.74388
G1 X135.506 Y103.372 E19.8753
G1 X137.063 Y105.355 E20.00633
G1 X139.171 Y107.87 E20.17687
G1 X139.717 Y108.498 E20.22012
G1 X140.294 Y109.224 E20.26831
G1 X140.807 Y109.996 E20.31648
G1 X141.251 Y110.81 E20.36467
G1 X141.624 Y111.659 E20.41286
G1 X141.922 Y112.537 E20.46104
G1 X142.143 Y113.437 E20.50921
G1 X142.286 Y114.353 E20.55739
G1 X142.35 Y115.278 E20.60557
G1 X142.333 Y116.205 E20.65376
G1 X142.237 Y117.127 E20.70193
G1 X142.061 Y118.038 E20.75015
G1 X141.808 Y118.929 E20.79828
G1 X141.479 Y119.796 E20.84648
G1 X141.005 Y120.762 E20.9024
G1 X140.454 Y121.753 E20.96132
G1 X128.614 Y142.261 E22.19197
G1 X128.17 Y143.005 E22.237
G1 X127.661 Y143.78 E22.28518
G1 X127.087 Y144.507 E22.33332
G1 X126.452 Y145.183 E22.38152
G1 X125.761 Y145.801 E22.4297
G1 X125.019 Y146.358 E22.47791
G1 X124.233 Y146.849 E22.52608
G1 X123.406 Y147.27 E22.5743
G1 X122.547 Y147.618 E22.62247
G1 X121.661 Y147.891 E22.67065
G1 X120.755 Y148.086 E22.71881
G1 X119.835 Y148.203 E22.76701
G1 X119.099 Y148.239 E22.8053
G1 X118.256 Y148.25 E22.84912
G1 X116.511 Y148.249 E22.9398
G1 X115.81 Y148.239 E22.97624
G1 X114.884 Y148.186 E23.02444
G1 X113.966 Y148.053 E23.07264
G1 X113.064 Y147.842 E23.12079
G1 X112.183 Y147.553 E23.16897
G1 X111.329 Y147.19 E23.2172
G1 X110.511 Y146.755 E23.26534
G1 X109.733 Y146.251 E23.31352
G1 X109.001 Y145.681 E23.36173
G1 X108.321 Y145.051 E23.40991
G1 X107.698 Y144.364 E23.4581
G1 X107.137 Y143.627 E23.50624
G1 X106.736 Y143.005 E23.5447
G1 X106.292 Y142.261 E23.58973
G1 X94.321 Y121.525 E24.83404
G1 X94.033 Y121.011 E24.86466
G1 X93.678 Y120.32 E24.90503
G1 X93.317 Y119.466 E24.95321
G1 X93.032 Y118.584 E25.00138
G1 X92.824 Y117.68 E25.04959
G1 X92.694 Y116.762 E25.09778
G1 X92.644 Y115.836 E25.14597
G1 X92.673 Y114.91 E25.19412
G1 X92.783 Y113.989 E25.24232
G1 X92.971 Y113.081 E25.29051
G1 X93.237 Y112.193 E25.33868
G1 X93.579 Y111.331 E25.38688
G1 X93.993 Y110.502 E25.43503
G1 X94.478 Y109.711 E25.48325
G1 X95.218 Y108.737 E25.54682
G1 X95.853 Y107.994 E25.59762
G1 X97.535 Y105.966 E25.73454
G1 X99.074 Y104.002 E25.86421
G1 X100.563 Y101.984 E25.99454
G1 X102.02 Y99.891 E26.12707
G1 X103.404 Y97.778 E26.25834
G1 X104.698 Y95.672 E26.3868
G1 X106.431 Y92.62 E26.56919
G1 X106.652 Y92.237 E26.59217
G1 X107.149 Y91.455 E26.64033
G1 X107.713 Y90.718 E26.68856
G0 F2400 X108.124 Y91.006
G1 F1200 X108.737 Y90.34 E26.7356
G1 X109.407 Y89.731 E26.78265
G1 X110.127 Y89.183 E26.82967
G1 X110.894 Y88.701 E26.87675
G1 X111.7 Y88.289 E26.92379
G1 X112.539 Y87.949 E26.97084
G1 X113.405 Y87.684 E27.0179
G1 X114.29 Y87.497 E27.06491
G1 X115.189 Y87.389 E27.11197
G1 X115.647 Y87.365 E27.1358
G1 X115.971 Y87.355 E27.15265
G1 X116.287 Y87.35 E27.16907
G1 X118.242 Y87.35 E27.27067
G1 X119.091 Y87.361 E27.3148
G1 X119.995 Y87.414 E27.36186
G1 X120.89 Y87.546 E27.40887
G1 X121.771 Y87.757 E27.45595
G1 X122.629 Y88.045 E27.50299
G1 X123.459 Y88.407 E27.55005
G1 X124.253 Y88.841 E27.59707
G1 X125.006 Y89.344 E27.64413
G1 X125.712 Y89.911 E27.69119
G1 X126.365 Y90.538 E27.73824
G1 X126.96 Y91.22 E27.78527
G1 X127.492 Y91.953 E27.83234
G1 X127.902 Y92.627 E27.87334
G1 X128.118 Y93.015 E27.89642
G1 X129.424 Y95.275 E28.03207
G1 X130.764 Y97.446 E28.16465
G1 X132.14 Y99.546 E28.29513
G1 X133.594 Y101.628 E28.4271
G1 X135.111 Y103.678 E28.55964
G1 X136.671 Y105.665 E28.69092
G1 X138.818 Y108.226 E28.8646
G1 X139.339 Y108.826 E28.90589
G1 X139.903 Y109.535 E28.95297
G1 X140.401 Y110.291 E29.00002
G1 X140.831 Y111.088 E29.04708
G1 X141.188 Y111.919 E29.09409
G1 X141.471 Y112.779 E29.14114
G1 X141.677 Y113.661 E29.18821
G1 X141.805 Y114.557 E29.23524
G1 X141.853 Y115.461 E29.28229
G1 X141.82 Y116.366 E29.32935
G1 X141.709 Y117.264 E29.37638
G1 X141.518 Y118.149 E29.42343
G1 X141.25 Y119.014 E29.47049
G1 X140.907 Y119.852 E29.51755
G1 X140.568 Y120.52 E29.55648
G1 X140.109 Y121.348 E29.60568
G1 X128.181 Y142.011 E30.84559
G1 X127.741 Y142.749 E30.89024
G1 X127.243 Y143.504 E30.93724
G1 X126.68 Y144.213 E30.98429
G1 X126.056 Y144.87 E31.03138
G1 X125.378 Y145.469 E31.0784
G1 X124.648 Y146.005 E31.12546
G1 X123.875 Y146.476 E31.17251
G1 X123.063 Y146.876 E31.21955
G1 X122.218 Y147.203 E31.26663
G1 X121.349 Y147.454 E31.31364
G1 X120.46 Y147.627 E31.36071
G1 X119.56 Y147.721 E31.40773
G1 X119.092 Y147.739 E31.43207
G1 X118.256 Y147.75 E31.47552
G1 X116.518 Y147.749 E31.56585
G1 X115.817 Y147.739 E31.60228
G1 X114.913 Y147.686 E31.64934
G1 X114.017 Y147.554 E31.69641
G1 X113.137 Y147.343 E31.74344
G1 X112.279 Y147.055 E31.79047
G1 X111.449 Y146.693 E31.83753
G1 X110.655 Y146.258 E31.88458
G1 X109.902 Y145.756 E31.93161
G1 X109.196 Y145.189 E31.97867
G1 X108.543 Y144.562 E32.02571
G1 X107.948 Y143.879 E32.07279
G1 X107.416 Y143.147 E32.11982
G1 X107.165 Y142.749 E32.14427
G1 X106.725 Y142.011 E32.18892
G1 X94.757 Y121.28 E33.43293
G1 X94.469 Y120.766 E33.46355
G1 X94.13 Y120.106 E33.50211
G1 X93.779 Y119.271 E33.54918
G1 X93.503 Y118.409 E33.59622
G1 X93.304 Y117.526 E33.64326
G1 X93.184 Y116.629 E33.69029
G1 X93.143 Y115.724 E33.73737
G1 X93.182 Y114.82 E33.7844
G1 X93.302 Y113.922 E33.83148
G1 X93.499 Y113.039 E33.8785
G1 X93.774 Y112.176 E33.92557
G1 X94.124 Y111.341 E33.97262
G1 X94.547 Y110.541 E34.01965
G1 X95.038 Y109.78 E34.06671
G1 X95.598 Y109.062 E34.11403
G1 X96.263 Y108.283 E34.16726
G1 X97.896 Y106.316 E34.30012
G1 X99.482 Y104.291 E34.4338
G1 X100.989 Y102.25 E34.56564
G1 X102.416 Y100.198 E34.69554
G1 X103.822 Y98.051 E34.82891
G1 X105.138 Y95.911 E34.95947
G1 X106.864 Y92.87 E35.14119
G1 X107.085 Y92.487 E35.16417
G1 X107.572 Y91.724 E35.21121
G1 X108.124 Y91.006 E35.25828
G1 F2700 E30.25828
G1 F600 Z0.4
;MESH:Wind direction counter weight.stl
G0 F2400 X116.707 Y98.35 Z0.4
;TYPE:WALL-INNER
G1 F600 Z0.2
G1 F2700 E35.25828
G1 F1200 X118.199 Y98.35 E35.33581
G1 X118.199 Y106.995 E35.78508
G1 X130.628 Y115.771 E36.5758
G1 X118.515 Y136.75 E37.83474
G1 X116.391 Y136.75 E37.94512
G1 X104.367 Y115.927 E39.19472
G1 X116.707 Y106.989 E39.98657
G1 X116.707 Y98.35 E40.43553
G0 F2400 X116.207 Y97.85
;TYPE:WALL-OUTER
G1 F1200 X118.699 Y97.85 E40.56504
G1 X118.699 Y106.736 E41.02683
G1 X131.289 Y115.626 E41.8278
G1 X118.804 Y137.25 E43.12543
G1 X116.102 Y137.25 E43.26585
G1 X103.709 Y115.787 E44.55385
G1 X116.207 Y106.734 E45.35585
G1 X116.207 Y97.85 E45.81755
G0 F2400 X116.407 Y97.85
G0 X117.197 Y98.84
;TYPE:SKIN
G1 F1200 X117.709 Y98.84 E45.84415
G1 X117.709 Y107.249 E46.28116
G1 X129.98 Y115.912 E47.06178
G1 X118.231 Y136.26 E48.28286
G1 X116.674 Y136.26 E48.36378
G1 X105.012 Y116.064 E49.57576
G1 X117.197 Y107.24 E50.3576
G1 X117.197 Y98.84 E50.79414
G0 F2400 X117.508 Y99.123
G1 F1200 X117.424 Y99.04 E50.80028
G0 F2400 X117.396 Y99.719
G1 F1200 X117.508 Y99.83 E50.80848
G0 F2400 X117.396 Y100.426
G1 F1200 X117.508 Y100.537 E50.81667
G0 F2400 X117.396 Y101.133
G1 F1200 X117.508 Y101.244 E50.82486
G0 F2400 X117.396 Y101.84
G1 F1200 X117.508 Y101.952 E50.8331
G0 F2400 X117.396 Y102.547
G1 F1200 X117.508 Y102.659 E50.84133
G0 F2400 X117.396 Y103.254
G1 F1200 X117.508 Y103.366 E50.84956
G0 F2400 X117.396 Y103.961
G1 F1200 X117.508 Y104.073 E50.85779
G0 F2400 X117.396 Y104.668
G1 F1200 X117.508 Y104.78 E50.86602
G0 F2400 X117.396 Y105.375
G1 F1200 X117.508 Y105.487 E50.87425
G0 F2400 X117.396 Y106.082
G1 F1200 X117.508 Y106.194 E50.88248
G0 F2400 X117.396 Y106.79
G1 F1200 X117.508 Y106.901 E50.89068
G0 F2400 X117.307 Y107.408
G1 F1200 X128.306 Y118.407 E51.69905
G0 F2400 X128.047 Y118.855
G1 F1200 X116.897 Y107.705 E52.51853
G0 F2400 X116.487 Y108.002
G1 F1200 X127.789 Y119.303 E53.34913
G0 F2400 X127.53 Y119.752
G1 F1200 X116.077 Y108.299 E54.19087
G0 F2400 X115.667 Y108.596
G1 F1200 X127.271 Y120.2 E55.04371
G0 F2400 X127.012 Y120.648
