;FLAVOR:Marlin
;TIME:2194
;Filament used: 2.53698m
;Layer height: 0.2
;MINX:80.129
;MINY:61.896
;MINZ:0.2
;MAXX:154.308
;MAXY:173.103
;MAXZ:2
;Generated with Cura_SteamEngine 4.8.0
M140 S50
M105
M190 S50
M104 S200
M105
M109 S200
M82 ;absolute extrusion mode
; Ender 3 Custom Start G-code
G1 Z20.0 F3000 ; Move Z Axis up to prevent crashing in side of build plate
G28 ; Home all axes
M420 S1 ;
G29 ;
G92 E ;
G92 E0 ; Reset Extruder
G1 X5.1 Y20 Z0.3 F5000.0 ; Move to start position
G1 X5.1 Y200.0 Z0.3 F1500.0 E15 ; Draw the first line
G1 X0.4 Y200.0 Z0.3 F5000.0 ; Move to side a little
G1 X0.4 Y20 Z0.3 F1500.0 E30 ; Draw the second line
G92 E0 ; Reset Extruder
G1 Z2.0 F3000 ; Move Z Axis up little to prevent scratching of Heat Bed
G92 E0
G92 E0
G1 F2700 E-5
;LAYER_COUNT:9
;LAYER:0
M107
G1 F600 Z0.4
G0 F2400 X82.753 Y66.311 Z0.4
;TYPE:SKIRT
G1 F600 Z0.2
G1 F2700 E0
G1 F1200 X83.39 Y65.58 E0.05039
G1 X84.084 Y64.904 E0.10074
G1 X84.832 Y64.287 E0.15113
G1 X85.629 Y63.734 E0.20154
G1 X86.468 Y63.249 E0.2519
G1 X87.344 Y62.835 E0.30226
G1 X88.252 Y62.494 E0.35266
G1 X89.184 Y62.229 E0.40302
G1 X90.135 Y62.042 E0.45339
G1 X91.098 Y61.934 E0.50375
G1 X91.595 Y61.91 E0.52961
G1 X91.915 Y61.901 E0.54624
G1 X92.245 Y61.896 E0.56339
G1 X141.609 Y61.896 E3.12879
G1 X142.472 Y61.907 E3.17364
G1 X143.439 Y61.961 E3.22397
G1 X144.399 Y62.095 E3.27435
G1 X145.345 Y62.307 E3.32473
G1 X146.27 Y62.596 E3.37509
G1 X147.168 Y62.961 E3.42547
G1 X148.033 Y63.399 E3.47586
G1 X148.859 Y63.906 E3.52622
G1 X149.641 Y64.48 E3.57664
G1 X150.372 Y65.116 E3.62699
G1 X151.049 Y65.81 E3.67738
G1 X151.666 Y66.558 E3.72777
G1 X152.219 Y67.354 E3.77814
G1 X152.705 Y68.192 E3.82848
G1 X153.119 Y69.069 E3.87888
G1 X153.461 Y69.976 E3.92926
G1 X153.726 Y70.908 E3.97961
G1 X153.914 Y71.859 E4.02999
G1 X154.022 Y72.822 E4.08035
G1 X154.048 Y73.339 E4.10725
G1 X154.07 Y74.154 E4.14962
G1 X154.102 Y77.173 E4.30653
G1 X154.306 Y107.643 E5.89006
G1 X154.308 Y108.436 E5.93127
G1 X154.304 Y108.836 E5.95206
G1 X154.298 Y109.151 E5.96843
G1 X154.245 Y110.45 E6.03599
G1 X154.218 Y110.909 E6.05989
G1 X154.169 Y111.521 E6.0918
G1 X154.123 Y111.981 E6.11582
G1 X154.042 Y112.657 E6.1512
G1 X153.921 Y113.439 E6.19233
G1 X153.884 Y113.635 E6.20269
G1 X153.767 Y114.181 E6.23171
G1 X153.627 Y114.768 E6.26307
G1 X153.357 Y115.721 E6.31455
G1 X153.147 Y116.358 E6.34941
G1 X152.882 Y117.083 E6.38952
G1 X152.806 Y117.271 E6.40006
G1 X152.649 Y117.639 E6.42085
G1 X152.573 Y117.81 E6.43058
G1 X152.346 Y118.293 E6.45831
G1 X152.205 Y118.575 E6.4747
G1 X151.933 Y119.085 E6.50473
G1 X151.875 Y119.188 E6.51088
G1 X151.553 Y119.726 E6.54346
G1 X151.096 Y120.445 E6.58774
G1 X150.538 Y121.248 E6.63855
G1 X150.396 Y121.435 E6.65076
G1 X150.149 Y121.749 E6.67152
G1 X149.833 Y122.137 E6.69752
G1 X149.473 Y122.558 E6.72631
G1 X149.266 Y122.789 E6.74243
G1 X148.962 Y123.116 E6.76563
G1 X148.699 Y123.388 E6.7853
G1 X148.458 Y123.63 E6.80305
G1 X148.293 Y123.791 E6.81503
G1 X148.103 Y123.972 E6.82866
G1 X147.819 Y124.237 E6.84885
G1 X147.346 Y124.655 E6.88165
G1 X146.504 Y125.36 E6.93873
G1 X146.178 Y125.623 E6.96049
G1 X145.984 Y125.774 E6.97327
G1 X145.66 Y126.018 E6.99435
G1 X145.192 Y126.357 E7.02438
G1 X144.903 Y126.56 E7.04273
G1 X144.46 Y126.861 E7.07057
G1 X144.193 Y127.037 E7.08719
G1 X143.634 Y127.395 E7.12168
G1 X143.352 Y127.57 E7.13893
G1 X142.06 Y128.347 E7.21728
G1 X139.902 Y129.687 E7.34929
G1 X137.815 Y131.065 E7.47926
G1 X135.778 Y132.497 E7.60866
G1 X133.794 Y133.975 E7.73724
G1 X131.813 Y135.539 E7.8684
G1 X129.892 Y137.148 E7.99863
G1 X128.043 Y138.788 E8.12707
G1 X126.209 Y140.509 E8.25777
G1 X124.452 Y142.253 E8.38643
G1 X122.725 Y144.068 E8.51663
G1 X121.046 Y145.935 E8.64712
G1 X119.439 Y147.828 E8.77616
G1 X117.88 Y149.77 E8.90559
G1 X116.379 Y151.756 E9.03496
G1 X114.906 Y153.825 E9.16695
G1 X113.534 Y155.869 E9.29488
G1 X112.209 Y157.971 E9.42401
G1 X110.934 Y160.125 E9.5541
G1 X109.709 Y162.335 E9.68541
G1 X108.799 Y164.094 E9.78833
G1 X108.504 Y164.629 E9.82008
G1 X108.163 Y165.212 E9.85518
G1 X107.487 Y166.242 E9.91921
G1 X107.373 Y166.397 E9.92921
G1 X106.858 Y167.047 E9.97231
G1 X106.659 Y167.281 E9.98827
G1 X105.902 Y168.091 E10.04589
G1 X105.643 Y168.343 E10.06467
G1 X104.847 Y169.05 E10.11999
G1 X104.578 Y169.268 E10.13799
G1 X104.022 Y169.692 E10.17433
G1 X103.948 Y169.745 E10.17906
G1 X103.538 Y170.025 E10.20486
G1 X103.353 Y170.146 E10.21635
G1 X102.743 Y170.519 E10.2535
G1 X102.594 Y170.604 E10.26242
G1 X102.07 Y170.886 E10.29334
G1 X101.682 Y171.082 E10.31593
G1 X101.013 Y171.394 E10.3543
G1 X100.782 Y171.493 E10.36736
G1 X100.338 Y171.674 E10.39228
G1 X99.735 Y171.895 E10.42565
G1 X99.542 Y171.96 E10.43624
G1 X99.06 Y172.111 E10.46248
G1 X98.238 Y172.349 E10.50696
G1 X97.838 Y172.458 E10.5285
G1 X97.536 Y172.534 E10.54469
G1 X96.537 Y172.752 E10.59783
G1 X96.209 Y172.818 E10.61521
G1 X95.793 Y172.895 E10.6372
G1 X94.833 Y173.032 E10.6876
G1 X93.84 Y173.09 E10.73929
G1 X93.017 Y173.103 E10.78206
G1 X92.418 Y173.103 E10.81319
G1 X91.72 Y173.093 E10.84947
G1 X90.752 Y173.039 E10.89986
G1 X89.792 Y172.905 E10.95023
G1 X88.846 Y172.693 E11.00061
G1 X87.921 Y172.404 E11.05097
G1 X87.023 Y172.039 E11.10135
G1 X86.158 Y171.602 E11.15171
G1 X85.332 Y171.095 E11.20208
G1 X84.55 Y170.521 E11.25249
G1 X83.819 Y169.885 E11.30285
G1 X83.142 Y169.191 E11.35323
G1 X82.525 Y168.443 E11.40363
G1 X81.972 Y167.647 E11.454
G1 X81.486 Y166.809 E11.50434
G1 X81.071 Y165.933 E11.55472
G1 X80.73 Y165.025 E11.60512
G1 X80.464 Y164.093 E11.65549
G1 X80.276 Y163.142 E11.70587
G1 X80.168 Y162.179 E11.75623
G1 X80.142 Y161.662 E11.78313
G1 X80.133 Y161.33 E11.80039
G1 X80.129 Y161.012 E11.81692
G1 X80.13 Y99.347 E15.02158
G1 X80.156 Y97.509 E15.11711
G1 X80.165 Y96.178 E15.18629
G1 X80.166 Y74.143 E16.33142
G1 X80.176 Y73.478 E16.36598
G1 X80.231 Y72.511 E16.41632
G1 X80.365 Y71.551 E16.46669
G1 X80.578 Y70.605 E16.51709
G1 X80.868 Y69.68 E16.56747
G1 X81.233 Y68.782 E16.61784
G1 X81.671 Y67.917 E16.66823
G1 X82.179 Y67.092 E16.71858
G1 X82.753 Y66.311 E16.76895
G0 F2400 X83.246 Y66.497
G1 F1200 X83.88 Y65.791 E16.81826
G1 X84.571 Y65.141 E16.86756
G1 X85.314 Y64.552 E16.91684
G1 X86.105 Y64.028 E16.96615
G1 X86.936 Y63.572 E17.01541
G1 X87.804 Y63.187 E17.06476
G1 X88.7 Y62.877 E17.11403
G1 X89.619 Y62.644 E17.1633
G1 X90.555 Y62.489 E17.2126
G1 X91.609 Y62.409 E17.26754
G1 X91.929 Y62.4 E17.28417
G1 X92.245 Y62.396 E17.3006
G1 X141.609 Y62.396 E19.86599
G1 X142.464 Y62.407 E19.91043
G1 X143.411 Y62.461 E19.95972
G1 X144.35 Y62.594 E20.00901
G1 X145.275 Y62.806 E20.05833
G1 X146.178 Y63.095 E20.1076
G1 X147.054 Y63.459 E20.1569
G1 X147.896 Y63.895 E20.20618
G1 X148.698 Y64.401 E20.25546
G1 X149.455 Y64.973 E20.30477
G1 X150.161 Y65.606 E20.35404
G1 X150.811 Y66.297 E20.40335
G1 X151.401 Y67.04 E20.45265
G1 X151.926 Y67.83 E20.50195
G1 X152.382 Y68.661 E20.55121
G1 X152.767 Y69.528 E20.60051
G1 X153.078 Y70.424 E20.6498
G1 X153.312 Y71.344 E20.69913
G1 X153.467 Y72.279 E20.74838
G1 X153.548 Y73.352 E20.80431
G1 X153.57 Y74.167 E20.84668
G1 X153.602 Y77.177 E21.00311
G1 X153.806 Y107.644 E22.58648
G1 X153.808 Y108.432 E22.62744
G1 X153.804 Y108.826 E22.64791
G1 X153.798 Y109.141 E22.66429
G1 X153.746 Y110.429 E22.73128
G1 X153.719 Y110.869 E22.75419
G1 X153.67 Y111.481 E22.78609
G1 X153.626 Y111.921 E22.80907
G1 X153.545 Y112.597 E22.84446
G1 X153.43 Y113.346 E22.88384
G1 X153.393 Y113.542 E22.8942
G1 X153.281 Y114.065 E22.922
G1 X153.141 Y114.652 E22.95336
G1 X152.882 Y115.564 E23.00263
G1 X152.672 Y116.201 E23.03749
G1 X152.418 Y116.895 E23.07589
G1 X152.342 Y117.083 E23.08643
G1 X152.192 Y117.436 E23.10636
G1 X152.116 Y117.607 E23.11609
G1 X151.898 Y118.069 E23.14264
G1 X151.757 Y118.351 E23.15902
G1 X151.498 Y118.84 E23.18778
G1 X151.44 Y118.943 E23.19392
G1 X151.131 Y119.458 E23.22513
G1 X150.674 Y120.177 E23.26941
G1 X150.14 Y120.946 E23.31806
G1 X149.998 Y121.133 E23.33027
G1 X149.761 Y121.433 E23.35013
G1 X149.445 Y121.821 E23.37614
G1 X149.1 Y122.225 E23.40375
G1 X148.893 Y122.456 E23.41987
G1 X148.603 Y122.768 E23.44201
G1 X148.34 Y123.04 E23.46167
G1 X148.109 Y123.272 E23.47868
G1 X147.944 Y123.433 E23.49066
G1 X147.478 Y123.871 E23.5239
G1 X147.025 Y124.272 E23.55534
G1 X146.183 Y124.977 E23.61241
G1 X145.871 Y125.229 E23.63325
G1 X145.677 Y125.38 E23.64603
G1 X145.367 Y125.613 E23.66618
G1 X144.899 Y125.952 E23.69621
G1 X144.622 Y126.146 E23.71379
G1 X144.179 Y126.447 E23.74162
G1 X143.923 Y126.616 E23.75756
G1 X143.364 Y126.974 E23.79206
G1 X143.095 Y127.141 E23.80852
G1 X141.837 Y127.898 E23.88482
G1 X139.631 Y129.267 E24.01974
G1 X137.53 Y130.655 E24.15061
G1 X135.468 Y132.104 E24.28158
G1 X133.48 Y133.585 E24.41041
G1 X131.499 Y135.15 E24.54161
G1 X129.576 Y136.76 E24.67195
G1 X127.686 Y138.436 E24.80323
G1 X125.886 Y140.125 E24.9315
G1 X124.091 Y141.907 E25.06295
G1 X122.346 Y143.741 E25.19451
G1 X120.68 Y145.593 E25.32397
G1 X119.055 Y147.508 E25.45449
G1 X117.485 Y149.464 E25.58484
G1 X115.972 Y151.465 E25.71521
G1 X114.516 Y153.509 E25.84563
G1 X113.112 Y155.602 E25.9766
G1 X111.762 Y157.743 E26.10814
G1 X110.497 Y159.88 E26.2372
G1 X109.281 Y162.073 E26.36751
G1 X108.355 Y163.864 E26.47229
G1 X108.073 Y164.377 E26.50272
G1 X107.732 Y164.96 E26.53782
G1 X107.084 Y165.946 E26.59913
G1 X106.97 Y166.101 E26.60913
G1 X106.477 Y166.723 E26.65038
G1 X106.278 Y166.957 E26.66634
G1 X105.553 Y167.732 E26.7215
G1 X105.294 Y167.984 E26.74028
G1 X104.532 Y168.661 E26.79325
G1 X104.263 Y168.879 E26.81124
G1 X103.731 Y169.285 E26.84602
G1 X103.657 Y169.338 E26.85075
G1 X103.264 Y169.607 E26.8755
G1 X103.079 Y169.728 E26.88699
G1 X102.495 Y170.085 E26.92256
G1 X102.346 Y170.17 E26.93148
G1 X101.845 Y170.44 E26.96105
G1 X101.457 Y170.636 E26.98364
G1 X100.816 Y170.934 E27.02038
G1 X100.585 Y171.033 E27.03344
G1 X100.32 Y171.143 E27.04835
G1 X100.152 Y171.21 E27.05775
G1 X99.576 Y171.422 E27.08965
G1 X99.383 Y171.487 E27.10023
G1 X98.921 Y171.631 E27.12538
G1 X98.099 Y171.869 E27.16985
G1 X97.716 Y171.973 E27.19048
G1 X97.414 Y172.049 E27.20666
G1 X96.79 Y172.187 E27.23987
G1 X96.118 Y172.326 E27.27554
G1 X95.702 Y172.403 E27.29752
G1 X94.762 Y172.536 E27.34686
G1 X93.832 Y172.59 E27.39527
G1 X93.009 Y172.603 E27.43805
G1 X92.586 Y172.604 E27.46003
G1 X91.727 Y172.593 E27.50468
G1 X90.78 Y172.539 E27.55397
G1 X89.841 Y172.406 E27.60326
G1 X88.916 Y172.194 E27.65257
G1 X88.013 Y171.906 E27.70183
G1 X87.137 Y171.542 E27.75113
G1 X86.295 Y171.105 E27.80043
G1 X85.493 Y170.599 E27.84971
G1 X84.736 Y170.028 E27.89899
G1 X84.03 Y169.394 E27.9483
G1 X83.379 Y168.704 E27.9976
G1 X82.79 Y167.961 E28.04687
G1 X82.265 Y167.171 E28.09617
G1 X81.808 Y166.34 E28.14546
G1 X81.423 Y165.473 E28.19475
G1 X81.112 Y164.577 E28.24404
G1 X80.878 Y163.658 E28.29333
G1 X80.723 Y162.722 E28.34263
G1 X80.642 Y161.649 E28.39855
G1 X80.633 Y161.317 E28.41581
G1 X80.629 Y161.012 E28.43167
G1 X80.63 Y99.354 E31.63597
G1 X80.656 Y97.516 E31.7315
G1 X80.665 Y96.181 E31.80088
G1 X80.666 Y74.151 E32.94575
G1 X80.676 Y73.486 E32.98032
G1 X80.73 Y72.539 E33.02961
G1 X80.864 Y71.6 E33.0789
G1 X81.077 Y70.676 E33.12818
G1 X81.366 Y69.772 E33.17751
G1 X81.731 Y68.897 E33.22678
G1 X82.168 Y68.055 E33.27608
G1 X82.674 Y67.253 E33.32536
G1 X83.246 Y66.497 E33.37462
G0 F2400 X83.739 Y66.687
G1 F1200 X84.37 Y66.007 E33.42283
G1 X85.057 Y65.385 E33.471
G1 X85.795 Y64.824 E33.51917
G1 X86.579 Y64.329 E33.56736
G1 X87.403 Y63.903 E33.61556
G1 X88.26 Y63.549 E33.66375
G1 X89.144 Y63.271 E33.71191
G1 X90.049 Y63.07 E33.76009
G1 X90.968 Y62.948 E33.80827
G1 X91.623 Y62.909 E33.84237
G1 X91.943 Y62.9 E33.859
G1 X92.245 Y62.896 E33.8747
G1 X141.609 Y62.896 E36.4401
G1 X142.457 Y62.907 E36.48417
G1 X143.383 Y62.96 E36.53237
G1 X144.3 Y63.093 E36.58052
G1 X145.203 Y63.305 E36.62873
G1 X146.084 Y63.593 E36.6769
G1 X146.937 Y63.957 E36.72509
G1 X147.756 Y64.392 E36.77329
G1 X148.534 Y64.896 E36.82146
G1 X149.265 Y65.466 E36.86964
G1 X149.945 Y66.096 E36.91781
G1 X150.568 Y66.783 E36.96601
G1 X151.129 Y67.521 E37.01418
G1 X151.625 Y68.304 E37.06235
G1 X152.052 Y69.128 E37.11058
G1 X152.406 Y69.985 E37.15877
G1 X152.684 Y70.869 E37.20693
G1 X152.886 Y71.774 E37.25512
G1 X153.009 Y72.693 E37.3033
G1 X153.048 Y73.366 E37.33834
G1 X153.07 Y74.181 E37.38071
G1 X153.102 Y77.18 E37.53657
G1 X153.306 Y107.646 E39.11989
G1 X153.308 Y108.428 E39.16053
G1 X153.304 Y108.817 E39.18075
G1 X153.298 Y109.132 E39.19712
G1 X153.246 Y110.409 E39.26354
G1 X153.221 Y110.829 E39.28541
G1 X153.172 Y111.441 E39.31731
G1 X153.13 Y111.862 E39.3393
G1 X153.049 Y112.538 E39.37468
G1 X152.938 Y113.253 E39.41229
G1 X152.901 Y113.449 E39.42265
G1 X152.795 Y113.949 E39.44922
G1 X152.655 Y114.536 E39.48058
G1 X152.408 Y115.408 E39.52768
G1 X152.198 Y116.045 E39.56253
G1 X151.954 Y116.708 E39.59925
G1 X151.878 Y116.896 E39.60979
G1 X151.735 Y117.233 E39.62881
G1 X151.659 Y117.404 E39.63854
G1 X151.451 Y117.846 E39.66392
G1 X151.31 Y118.128 E39.68031
G1 X151.062 Y118.595 E39.70779
G1 X151.004 Y118.698 E39.71393
G1 X150.709 Y119.19 E39.74374
G1 X150.252 Y119.909 E39.78802
G1 X149.741 Y120.643 E39.8345
G1 X149.599 Y120.83 E39.8467
G1 X149.373 Y121.118 E39.86572
G1 X149.057 Y121.506 E39.89173
G1 X148.728 Y121.891 E39.91805
G1 X148.521 Y122.122 E39.93417
G1 X148.243 Y122.42 E39.95535
G1 X147.98 Y122.692 E39.97501
G1 X147.76 Y122.914 E39.99125
G1 X147.421 Y123.241 E40.01573
G1 X147.137 Y123.506 E40.03592
G1 X146.704 Y123.888 E40.06592
G1 X145.862 Y124.593 E40.123
G1 X145.564 Y124.834 E40.14291
G1 X145.37 Y124.985 E40.15569
G1 X145.073 Y125.208 E40.17499
G1 X144.605 Y125.547 E40.20502
G1 X144.341 Y125.733 E40.22181
G1 X143.898 Y126.034 E40.24964
G1 X143.654 Y126.195 E40.26483
G1 X143.095 Y126.553 E40.29933
G1 X142.837 Y126.713 E40.31511
G1 X141.542 Y127.492 E40.39364
G1 X139.369 Y128.841 E40.52656
G1 X137.244 Y130.245 E40.65892
G1 X135.193 Y131.686 E40.78919
G1 X133.171 Y133.192 E40.92022
G1 X131.184 Y134.761 E41.05179
G1 X129.258 Y136.375 E41.18238
G1 X127.348 Y138.068 E41.31502
G1 X125.527 Y139.777 E41.44481
G1 X123.73 Y141.561 E41.5764
G1 X121.982 Y143.398 E41.70818
G1 X120.299 Y145.269 E41.83896
G1 X118.685 Y147.17 E41.96856
G1 X117.077 Y149.175 E42.10213
G1 X115.558 Y151.184 E42.23302
G1 X114.11 Y153.217 E42.36273
G1 X112.69 Y155.333 E42.49517
G1 X111.35 Y157.458 E42.62572
G1 X110.062 Y159.635 E42.75718
G1 X108.84 Y161.838 E42.8881
G1 X107.911 Y163.635 E42.99323
G1 X107.641 Y164.124 E43.02226
G1 X107.3 Y164.707 E43.05736
G1 X106.681 Y165.649 E43.11594
G1 X106.567 Y165.804 E43.12593
G1 X106.096 Y166.399 E43.16537
G1 X105.897 Y166.633 E43.18134
G1 X105.205 Y167.374 E43.23403
G1 X104.946 Y167.626 E43.25281
G1 X104.217 Y168.273 E43.30346
G1 X103.948 Y168.491 E43.32145
G1 X103.439 Y168.879 E43.35472
G1 X103.365 Y168.932 E43.35945
G1 X102.99 Y169.189 E43.38307
G1 X102.805 Y169.31 E43.39456
G1 X102.248 Y169.65 E43.42847
G1 X102.099 Y169.735 E43.43739
G1 X101.619 Y169.993 E43.46571
G1 X101.231 Y170.189 E43.4883
G1 X100.619 Y170.475 E43.5234
G1 X100.388 Y170.574 E43.53647
G1 X99.967 Y170.745 E43.56008
G1 X99.416 Y170.948 E43.5906
G1 X99.223 Y171.013 E43.60118
G1 X98.782 Y171.151 E43.62519
G1 X97.96 Y171.389 E43.66967
G1 X97.593 Y171.488 E43.68942
G1 X97.291 Y171.564 E43.70561
G1 X96.641 Y171.707 E43.74019
G1 X96.327 Y171.774 E43.75688
G1 X96.027 Y171.834 E43.77278
G1 X95.611 Y171.911 E43.79477
G1 X94.692 Y172.041 E43.843
G1 X93.824 Y172.09 E43.88818
G1 X92.831 Y172.104 E43.93979
G1 X92.432 Y172.103 E43.96053
G1 X91.734 Y172.093 E43.99681
G1 X90.808 Y172.04 E44.04501
G1 X89.891 Y171.907 E44.09316
G1 X88.988 Y171.695 E44.14137
G1 X88.107 Y171.407 E44.18953
G1 X87.254 Y171.044 E44.23771
G1 X86.435 Y170.608 E44.28593
G1 X85.657 Y170.104 E44.3341
G1 X84.926 Y169.535 E44.38224
G1 X84.246 Y168.904 E44.43045
G1 X83.623 Y168.218 E44.47861
G1 X83.061 Y167.48 E44.52682
G1 X82.565 Y166.697 E44.57499
G1 X82.139 Y165.873 E44.6232
G1 X81.785 Y165.017 E44.67134
G1 X81.506 Y164.132 E44.71956
G1 X81.304 Y163.227 E44.76775
G1 X81.181 Y162.308 E44.81593
G1 X81.142 Y161.635 E44.85097
G1 X81.133 Y161.303 E44.86823
G1 X81.129 Y161.012 E44.88335
G1 X81.13 Y99.361 E48.08729
