;FLAVOR:Marlin
;TIME:317
;Filament used: 0.144422m
;Layer height: 0.2
;MINX:101.269
;MINY:101.269
;MINZ:0.2
;MAXX:133.731
;MAXY:133.731
;MAXZ:8
;Generated with Cura_SteamEngine 4.8.0
M140 S50
M105
M190 S50
M104 S200
M105
M109 S200
M82 ;absolute extrusion mode
; Ender 3 Custom Start G-code
G1 Z20.0 F3000 ; Move Z Axis up to prevent crashing in side of build plate
G28 ; Home all axes
M420 S1 ;
G29 ;
G92 E ;
G92 E0 ; Reset Extruder
G1 X5.1 Y20 Z0.3 F5000.0 ; Move to start position
G1 X5.1 Y200.0 Z0.3 F1500.0 E15 ; Draw the first line
G1 X0.4 Y200.0 Z0.3 F5000.0 ; Move to side a little
G1 X0.4 Y20 Z0.3 F1500.0 E30 ; Draw the second line
G92 E0 ; Reset Extruder
G1 Z2.0 F3000 ; Move Z Axis up little to prevent scratching of Heat Bed
G92 E0
G92 E0
G1 F2700 E-5
;LAYER_COUNT:40
;LAYER:0
M107
G1 F600 Z0.4
G0 F2400 X105.997 Y106.048 Z0.4
;TYPE:SKIRT
G1 F600 Z0.2
G1 F2700 E0
G1 F1200 X106.374 Y105.677 E0.02749
G1 X106.507 Y105.552 E0.03697
G1 X107.405 Y104.789 E0.09821
G1 X107.765 Y104.513 E0.12179
G1 X108.42 Y104.046 E0.16359
G1 X108.61 Y103.92 E0.17544
G1 X109.025 Y103.656 E0.201
G1 X109.336 Y103.468 E0.21989
G1 X110.227 Y102.981 E0.27266
G1 X110.353 Y102.919 E0.27996
G1 X110.946 Y102.648 E0.31384
G1 X111.299 Y102.498 E0.33377
G1 X112.133 Y102.18 E0.38016
G1 X112.426 Y102.081 E0.39623
G1 X113.159 Y101.86 E0.43602
G1 X113.519 Y101.764 E0.45538
G1 X114.497 Y101.547 E0.50744
G1 X114.909 Y101.474 E0.52919
G1 X116.131 Y101.323 E0.59317
G1 X116.414 Y101.303 E0.60792
G1 X117.004 Y101.276 E0.63861
G1 X117.349 Y101.269 E0.65655
G1 X118.01 Y101.275 E0.6909
G1 X118.315 Y101.286 E0.70676
G1 X119.16 Y101.347 E0.75079
G1 X119.673 Y101.412 E0.77766
G1 X119.973 Y101.457 E0.79343
G1 X120.487 Y101.546 E0.82053
G1 X120.768 Y101.601 E0.83542
G1 X121.517 Y101.773 E0.87535
G1 X121.808 Y101.85 E0.891
G1 X122.581 Y102.083 E0.93295
G1 X122.896 Y102.19 E0.95024
G1 X123.481 Y102.406 E0.98265
G1 X123.676 Y102.484 E0.99357
G1 X124.703 Y102.954 E1.05226
G1 X125.16 Y103.19 E1.07899
G1 X125.898 Y103.605 E1.12299
G1 X126.145 Y103.756 E1.13804
G1 X126.869 Y104.236 E1.18318
G1 X127.238 Y104.508 E1.207
G1 X127.524 Y104.727 E1.22572
G1 X128.303 Y105.379 E1.27852
G1 X128.395 Y105.463 E1.28499
G1 X128.659 Y105.712 E1.30385
G1 X128.938 Y105.983 E1.32406
G1 X129.295 Y106.345 E1.35049
G1 X129.43 Y106.488 E1.36071
G1 X130.211 Y107.405 E1.4233
G1 X130.487 Y107.765 E1.44688
G1 X130.954 Y108.42 E1.48868
G1 X131.08 Y108.61 E1.50053
G1 X131.344 Y109.025 E1.52609
G1 X131.532 Y109.336 E1.54498
G1 X132.035 Y110.26 E1.59965
G1 X132.097 Y110.387 E1.607
G1 X132.347 Y110.936 E1.63835
G1 X132.497 Y111.288 E1.65823
G1 X132.82 Y112.133 E1.70524
G1 X132.919 Y112.426 E1.72132
G1 X133.14 Y113.159 E1.7611
G1 X133.236 Y113.519 E1.78047
G1 X133.441 Y114.432 E1.82909
G1 X133.51 Y114.809 E1.84901
G1 X133.668 Y116.037 E1.91336
G1 X133.692 Y116.354 E1.92988
G1 X133.724 Y117.003 E1.96365
G1 X133.731 Y117.349 E1.98163
G1 X133.724 Y118.057 E2.01843
G1 X133.711 Y118.382 E2.03533
G1 X133.594 Y119.63 E2.10047
G1 X133.547 Y119.948 E2.11718
G1 X133.464 Y120.435 E2.14285
G1 X133.413 Y120.702 E2.15698
G1 X133.228 Y121.513 E2.20021
G1 X133.147 Y121.818 E2.21661
G1 X132.916 Y122.584 E2.25819
G1 X132.814 Y122.884 E2.27465
G1 X132.616 Y123.421 E2.3044
G1 X132.533 Y123.631 E2.31613
G1 X132.051 Y124.695 E2.37684
G1 X131.816 Y125.151 E2.4035
G1 X131.389 Y125.908 E2.44866
G1 X131.237 Y126.156 E2.46378
G1 X130.757 Y126.879 E2.50888
G1 X130.488 Y127.243 E2.5324
G1 X130.272 Y127.525 E2.55086
G1 X129.619 Y128.305 E2.60373
G1 X129.312 Y128.634 E2.62711
G1 X129.038 Y128.917 E2.64759
G1 X128.674 Y129.277 E2.67419
G1 X128.524 Y129.419 E2.68493
G1 X127.595 Y130.211 E2.74837
G1 X127.235 Y130.487 E2.77194
G1 X126.58 Y130.954 E2.81375
G1 X126.39 Y131.08 E2.8256
G1 X125.975 Y131.344 E2.85116
G1 X125.664 Y131.532 E2.87004
G1 X124.707 Y132.051 E2.92662
G1 X124.579 Y132.113 E2.93401
G1 X124.074 Y132.343 E2.96285
G1 X123.723 Y132.493 E2.98269
G1 X122.868 Y132.82 E3.03026
G1 X122.578 Y132.918 E3.04617
G1 X121.849 Y133.138 E3.08574
G1 X121.486 Y133.235 E3.10527
G1 X120.503 Y133.453 E3.15759
G1 X120.091 Y133.526 E3.17934
G1 X118.869 Y133.677 E3.24333
G1 X118.586 Y133.697 E3.25807
G1 X117.996 Y133.724 E3.28876
G1 X117.651 Y133.731 E3.3067
G1 X116.99 Y133.725 E3.34105
G1 X116.685 Y133.714 E3.35691
G1 X115.84 Y133.653 E3.40094
G1 X115.327 Y133.588 E3.42781
G1 X115.027 Y133.543 E3.44358
G1 X114.513 Y133.454 E3.47069
G1 X114.232 Y133.399 E3.48557
G1 X113.483 Y133.227 E3.52551
G1 X113.192 Y133.15 E3.54115
G1 X112.419 Y132.917 E3.58311
G1 X112.104 Y132.81 E3.6004
G1 X111.529 Y132.597 E3.63226
G1 X111.331 Y132.518 E3.64334
G1 X110.284 Y132.04 E3.70315
G1 X109.83 Y131.805 E3.72972
G1 X109.102 Y131.395 E3.77314
G1 X108.855 Y131.244 E3.78819
G1 X108.093 Y130.736 E3.83578
G1 X107.739 Y130.474 E3.85867
G1 X107.463 Y130.262 E3.87676
G1 X106.677 Y129.602 E3.93009
G1 X106.355 Y129.301 E3.953
G1 X106.08 Y129.035 E3.97288
G1 X105.708 Y128.659 E4.00037
G1 X105.571 Y128.514 E4.01074
G1 X104.784 Y127.589 E4.07385
G1 X104.509 Y127.23 E4.09736
G1 X104.037 Y126.567 E4.13965
G1 X103.912 Y126.378 E4.15143
G1 X103.654 Y125.97 E4.17651
G1 X103.465 Y125.657 E4.19552
G1 X102.947 Y124.703 E4.25193
G1 X102.886 Y124.577 E4.25921
G1 X102.654 Y124.067 E4.28832
G1 X102.503 Y123.713 E4.30832
G1 X102.183 Y122.876 E4.35489
G1 X102.084 Y122.584 E4.37092
G1 X101.855 Y121.825 E4.41212
G1 X101.76 Y121.467 E4.43137
G1 X101.547 Y120.503 E4.48267
G1 X101.474 Y120.091 E4.50442
G1 X101.323 Y118.869 E4.56841
G1 X101.303 Y118.586 E4.58315
G1 X101.276 Y117.988 E4.61426
G1 X101.269 Y117.631 E4.63282
G1 X101.275 Y116.962 E4.66758
G1 X101.286 Y116.668 E4.68287
G1 X101.355 Y115.76 E4.7302
G1 X101.415 Y115.302 E4.7542
G1 X101.458 Y115.017 E4.76918
G1 X101.554 Y114.473 E4.79789
G1 X101.613 Y114.177 E4.81357
G1 X101.783 Y113.446 E4.85258
G1 X101.859 Y113.161 E4.86791
G1 X102.087 Y112.408 E4.90879
G1 X102.191 Y112.102 E4.92559
G1 X102.417 Y111.492 E4.9594
G1 X102.5 Y111.286 E4.97094
G1 X102.965 Y110.274 E5.02882
G1 X103.197 Y109.826 E5.05504
G1 X103.61 Y109.094 E5.09871
G1 X103.76 Y108.849 E5.11364
G1 X104.243 Y108.121 E5.15905
G1 X104.512 Y107.757 E5.18257
G1 X104.728 Y107.475 E5.20103
G1 X105.379 Y106.697 E5.25375
G1 X105.463 Y106.605 E5.26022
G1 X105.716 Y106.337 E5.27938
G1 X105.997 Y106.048 E5.30032
G0 F2400 X106.355 Y106.396
G1 F1200 X106.716 Y106.041 E5.32664
G1 X106.849 Y105.916 E5.33612
G1 X107.709 Y105.186 E5.39475
G1 X108.069 Y104.91 E5.41832
G1 X108.696 Y104.462 E5.45837
G1 X108.886 Y104.336 E5.47022
G1 X109.284 Y104.084 E5.4947
G1 X109.595 Y103.896 E5.51358
G1 X110.448 Y103.43 E5.5641
G1 X110.574 Y103.368 E5.57139
G1 X111.141 Y103.108 E5.60381
G1 X111.494 Y102.958 E5.62374
G1 X112.293 Y102.654 E5.66817
G1 X112.586 Y102.555 E5.68424
G1 X113.288 Y102.343 E5.72235
G1 X113.648 Y102.247 E5.74171
G1 X114.584 Y102.04 E5.79153
G1 X114.996 Y101.967 E5.81328
G1 X116.166 Y101.822 E5.87455
G1 X116.449 Y101.802 E5.88929
G1 X117.014 Y101.776 E5.91868
G1 X117.359 Y101.769 E5.93662
G1 X117.992 Y101.774 E5.96951
G1 X118.297 Y101.785 E5.98537
G1 X119.108 Y101.844 E6.02763
G1 X119.599 Y101.906 E6.05335
G1 X119.899 Y101.951 E6.06912
G1 X120.391 Y102.036 E6.09507
G1 X120.672 Y102.091 E6.10995
G1 X121.389 Y102.256 E6.14818
G1 X121.68 Y102.333 E6.16382
G1 X122.42 Y102.557 E6.204
G1 X122.735 Y102.664 E6.22129
G1 X123.295 Y102.871 E6.25232
G1 X123.49 Y102.949 E6.26324
G1 X124.474 Y103.398 E6.31945
G1 X124.931 Y103.634 E6.34617
G1 X125.637 Y104.032 E6.38829
G1 X125.884 Y104.183 E6.40334
G1 X126.577 Y104.642 E6.44654
G1 X126.934 Y104.905 E6.46958
G1 X127.22 Y105.124 E6.4883
G1 X127.966 Y105.748 E6.53884
G1 X128.058 Y105.832 E6.54532
G1 X128.31 Y106.07 E6.56333
G1 X128.589 Y106.341 E6.58354
G1 X128.931 Y106.688 E6.60886
G1 X129.066 Y106.831 E6.61908
G1 X129.814 Y107.709 E6.67903
G1 X130.09 Y108.069 E6.7026
G1 X130.538 Y108.696 E6.74265
G1 X130.664 Y108.886 E6.7545
G1 X130.916 Y109.284 E6.77898
G1 X131.104 Y109.595 E6.79786
G1 X131.586 Y110.48 E6.85024
G1 X131.648 Y110.607 E6.85758
G1 X131.887 Y111.132 E6.88756
G1 X132.037 Y111.484 E6.90744
G1 X132.346 Y112.293 E6.95245
G1 X132.445 Y112.586 E6.96852
G1 X132.657 Y113.288 E7.00663
G1 X132.753 Y113.648 E7.02599
G1 X132.949 Y114.522 E7.07254
G1 X133.018 Y114.899 E7.09246
G1 X133.17 Y116.075 E7.15408
G1 X133.194 Y116.392 E7.1706
G1 X133.224 Y117.013 E7.20291
G1 X133.231 Y117.359 E7.2209
G1 X133.224 Y118.037 E7.25614
G1 X133.211 Y118.362 E7.27304
G1 X133.099 Y119.557 E7.33542
G1 X133.052 Y119.875 E7.35212
G1 X132.973 Y120.341 E7.37668
G1 X132.922 Y120.608 E7.39081
G1 X132.745 Y121.385 E7.43222
G1 X132.664 Y121.69 E7.44862
G1 X132.442 Y122.423 E7.48843
G1 X132.34 Y122.723 E7.50489
G1 X132.151 Y123.237 E7.53335
G1 X132.068 Y123.447 E7.54509
G1 X131.606 Y124.466 E7.60323
G1 X131.371 Y124.922 E7.62989
G1 X130.963 Y125.647 E7.67313
G1 X130.811 Y125.895 E7.68824
G1 X130.351 Y126.586 E7.73138
G1 X130.091 Y126.939 E7.75417
G1 X129.875 Y127.221 E7.77263
G1 X129.25 Y127.968 E7.82325
G1 X128.952 Y128.286 E7.84589
G1 X128.678 Y128.569 E7.86637
G1 X128.33 Y128.914 E7.89183
G1 X128.18 Y129.056 E7.90257
G1 X127.291 Y129.814 E7.96328
G1 X126.931 Y130.09 E7.98685
G1 X126.304 Y130.538 E8.0269
G1 X126.114 Y130.664 E8.03875
G1 X125.716 Y130.916 E8.06323
G1 X125.405 Y131.104 E8.08212
G1 X124.489 Y131.601 E8.13628
G1 X124.361 Y131.663 E8.14367
G1 X123.878 Y131.883 E8.17125
G1 X123.527 Y132.033 E8.19109
G1 X122.708 Y132.346 E8.23665
G1 X122.418 Y132.444 E8.25256
G1 X121.72 Y132.655 E8.29046
G1 X121.357 Y132.752 E8.30998
G1 X120.416 Y132.96 E8.36007
G1 X120.004 Y133.033 E8.38181
G1 X118.834 Y133.178 E8.44308
G1 X118.551 Y133.198 E8.45782
G1 X117.986 Y133.224 E8.48722
G1 X117.641 Y133.231 E8.50515
G1 X117.008 Y133.226 E8.53805
G1 X116.703 Y133.215 E8.55391
G1 X115.892 Y133.156 E8.59617
G1 X115.401 Y133.094 E8.62189
G1 X115.101 Y133.049 E8.63765
G1 X114.609 Y132.964 E8.6636
G1 X114.328 Y132.909 E8.67848
G1 X113.611 Y132.744 E8.71671
G1 X113.32 Y132.667 E8.73236
G1 X112.58 Y132.443 E8.77254
G1 X112.265 Y132.336 E8.78983
G1 X111.714 Y132.133 E8.82034
G1 X111.516 Y132.054 E8.83142
G1 X110.513 Y131.596 E8.88872
G1 X110.059 Y131.361 E8.91529
G1 X109.363 Y130.968 E8.95683
G1 X109.116 Y130.817 E8.97187
G1 X108.386 Y130.331 E9.01745
G1 X108.044 Y130.078 E9.03956
G1 X107.768 Y129.866 E9.05764
G1 X107.015 Y129.233 E9.10877
G1 X106.702 Y128.941 E9.13101
G1 X106.427 Y128.675 E9.1509
G1 X106.072 Y128.315 E9.17717
G1 X105.935 Y128.17 E9.18754
G1 X105.181 Y127.285 E9.24796
G1 X104.906 Y126.926 E9.27146
G1 X104.454 Y126.291 E9.31197
G1 X104.329 Y126.102 E9.32374
G1 X104.082 Y125.711 E9.34778
G1 X103.893 Y125.398 E9.36678
G1 X103.397 Y124.485 E9.42078
G1 X103.336 Y124.359 E9.42805
G1 X103.114 Y123.871 E9.45591
G1 X102.963 Y123.517 E9.47592
G1 X102.657 Y122.715 E9.52053
G1 X102.558 Y122.423 E9.53655
G1 X102.338 Y121.696 E9.57602
G1 X102.243 Y121.338 E9.59527
G1 X102.04 Y120.416 E9.64433
G1 X101.967 Y120.004 E9.66608
G1 X101.822 Y118.834 E9.72735
G1 X101.802 Y118.551 E9.74209
G1 X101.776 Y117.979 E9.77185
G1 X101.769 Y117.622 E9.7904
G1 X101.775 Y116.98 E9.82377
G1 X101.786 Y116.686 E9.83906
G1 X101.852 Y115.817 E9.88435
G1 X101.91 Y115.377 E9.90742
G1 X101.953 Y115.092 E9.92239
G1 X102.044 Y114.571 E9.94988
G1 X102.103 Y114.275 E9.96557
G1 X102.266 Y113.575 E10.00292
G1 X102.342 Y113.29 E10.01825
G1 X102.56 Y112.569 E10.05739
G1 X102.664 Y112.263 E10.07419
G1 X102.881 Y111.679 E10.10656
G1 X102.964 Y111.473 E10.11811
G1 X103.409 Y110.504 E10.17352
G1 X103.641 Y110.056 E10.19974
G1 X104.036 Y109.355 E10.24155
G1 X104.186 Y109.11 E10.25648
G1 X104.649 Y108.414 E10.29993
G1 X104.909 Y108.061 E10.32271
G1 X105.125 Y107.779 E10.34117
G1 X105.748 Y107.034 E10.39164
G1 X105.832 Y106.942 E10.39811
G1 X106.074 Y106.685 E10.41646
G1 X106.355 Y106.396 E10.43741
G0 F2400 X106.714 Y106.745
G1 F1200 X107.059 Y106.406 E10.46254
G1 X107.192 Y106.281 E10.47203
G1 X108.013 Y105.583 E10.52803
G1 X108.373 Y105.307 E10.55161
G1 X108.973 Y104.879 E10.58991
G1 X109.163 Y104.753 E10.60176
G1 X109.543 Y104.512 E10.62514
G1 X109.854 Y104.324 E10.64403
G1 X110.669 Y103.878 E10.69231
G1 X110.795 Y103.816 E10.69961
G1 X111.337 Y103.568 E10.73058
G1 X111.69 Y103.418 E10.75052
G1 X112.453 Y103.128 E10.79294
G1 X112.746 Y103.029 E10.80901
G1 X113.417 Y102.826 E10.84544
G1 X113.777 Y102.73 E10.8648
G1 X114.671 Y102.532 E10.91239
G1 X115.083 Y102.459 E10.93413
G1 X116.201 Y102.321 E10.99268
G1 X116.484 Y102.301 E11.00742
G1 X117.024 Y102.276 E11.03551
G1 X117.369 Y102.269 E11.05345
G1 X117.974 Y102.274 E11.08489
G1 X118.279 Y102.285 E11.10075
G1 X119.055 Y102.341 E11.14118
G1 X119.525 Y102.401 E11.16581
G1 X119.825 Y102.446 E11.18157
G1 X120.295 Y102.527 E11.20636
G1 X120.576 Y102.582 E11.22124
G1 X121.261 Y102.74 E11.25777
G1 X121.552 Y102.817 E11.27341
G1 X122.26 Y103.03 E11.31184
G1 X122.575 Y103.137 E11.32913
G1 X123.109 Y103.335 E11.35872
G1 X123.304 Y103.413 E11.36964
G1 X124.245 Y103.842 E11.42338
G1 X124.702 Y104.078 E11.45011
G1 X125.376 Y104.458 E11.49032
G1 X125.623 Y104.609 E11.50537
G1 X126.285 Y105.049 E11.54668
G1 X126.63 Y105.302 E11.56891
G1 X126.916 Y105.521 E11.58763
G1 X127.628 Y106.117 E11.63589
G1 X127.72 Y106.201 E11.64236
G1 X127.962 Y106.429 E11.65964
G1 X128.241 Y106.7 E11.67985
G1 X128.568 Y107.031 E11.70403
G1 X128.703 Y107.174 E11.71425
G1 X129.417 Y108.013 E11.77151
G1 X129.693 Y108.373 E11.79508
G1 X130.121 Y108.973 E11.83338
G1 X130.247 Y109.163 E11.84523
G1 X130.488 Y109.543 E11.86862
G1 X130.676 Y109.854 E11.8875
G1 X131.136 Y110.699 E11.9375
G1 X131.198 Y110.826 E11.94484
G1 X131.428 Y111.328 E11.97354
G1 X131.578 Y111.68 E11.99343
G1 X131.872 Y112.453 E12.03641
G1 X131.971 Y112.746 E12.05248
G1 X132.174 Y113.417 E12.08891
G1 X132.27 Y113.777 E12.10827
G1 X132.457 Y114.612 E12.15274
G1 X132.526 Y114.989 E12.17266
G1 X132.671 Y116.112 E12.2315
G1 X132.695 Y116.429 E12.24803
G1 X132.724 Y117.024 E12.27898
G1 X132.731 Y117.37 E12.29697
G1 X132.724 Y118.017 E12.3306
G1 X132.711 Y118.342 E12.3475
G1 X132.604 Y119.484 E12.40711
G1 X132.557 Y119.802 E12.42381
G1 X132.482 Y120.247 E12.44727
G1 X132.431 Y120.514 E12.46139
G1 X132.262 Y121.256 E12.50094
G1 X132.181 Y121.561 E12.51734
G1 X131.969 Y122.262 E12.5554
G1 X131.867 Y122.562 E12.57187
G1 X131.686 Y123.053 E12.59906
G1 X131.603 Y123.263 E12.6108
G1 X131.162 Y124.237 E12.66636
G1 X130.927 Y124.693 E12.69302
G1 X130.536 Y125.386 E12.73437
G1 X130.384 Y125.634 E12.74949
G1 X129.945 Y126.294 E12.79068
G1 X129.694 Y126.635 E12.81269
G1 X129.478 Y126.917 E12.83115
G1 X128.881 Y127.631 E12.87952
G1 X128.593 Y127.939 E12.90143
G1 X128.319 Y128.222 E12.9219
G1 X127.986 Y128.551 E12.94623
G1 X127.836 Y128.693 E12.95696
G1 X126.987 Y129.417 E13.01495
G1 X126.627 Y129.693 E13.03852
G1 X126.027 Y130.121 E13.07682
G1 X125.837 Y130.247 E13.08867
G1 X125.457 Y130.488 E13.11206
G1 X125.146 Y130.676 E13.13094
G1 X124.271 Y131.151 E13.18268
G1 X124.143 Y131.213 E13.19008
G1 X123.681 Y131.423 E13.21645
G1 X123.33 Y131.573 E13.23629
G1 X122.548 Y131.872 E13.2798
G1 X122.258 Y131.97 E13.2957
G1 X121.591 Y132.172 E13.33192
G1 X121.228 Y132.269 E13.35145
G1 X120.329 Y132.468 E13.3993
G1 X119.917 Y132.541 E13.42104
G1 X118.799 Y132.679 E13.47959
G1 X118.516 Y132.699 E13.49433
G1 X117.976 Y132.724 E13.52242
G1 X117.631 Y132.731 E13.54036
G1 X117.026 Y132.726 E13.5718
G1 X116.721 Y132.715 E13.58766
G1 X115.945 Y132.659 E13.62809
G1 X115.475 Y132.599 E13.65272
G1 X115.175 Y132.554 E13.66848
G1 X114.705 Y132.473 E13.69327
G1 X114.424 Y132.418 E13.70815
G1 X113.739 Y132.26 E13.74468
G1 X113.448 Y132.183 E13.76032
G1 X112.74 Y131.97 E13.79875
G1 X112.425 Y131.863 E13.81604
G1 X111.899 Y131.669 E13.84517
G1 X111.701 Y131.59 E13.85625
G1 X110.743 Y131.152 E13.91099
G1 X110.289 Y130.917 E13.93756
G1 X109.624 Y130.542 E13.97724
G1 X109.377 Y130.391 E13.99228
G1 X108.679 Y129.926 E14.03587
G1 X108.349 Y129.681 E14.05723
G1 X108.073 Y129.469 E14.07531
G1 X107.353 Y128.865 E14.12415
G1 X107.05 Y128.582 E14.1457
G1 X106.775 Y128.316 E14.16558
G1 X106.435 Y127.972 E14.19072
G1 X106.298 Y127.827 E14.20109
G1 X105.578 Y126.981 E14.25882
G1 X105.303 Y126.622 E14.28232
