;FLAVOR:Marlin
;TIME:1194
;Filament used: 0.798184m
;Layer height: 0.2
;MINX:92.446
;MINY:92.444
;MINZ:0.2
;MAXX:142.554
;MAXY:142.555
;MAXZ:7.2
;Generated with Cura_SteamEngine 4.8.0
M140 S50
M105
M190 S50
M104 S200
M105
M109 S200
M82 ;absolute extrusion mode
; Ender 3 Custom Start G-code
G1 Z20.0 F3000 ; Move Z Axis up to prevent crashing in side of build plate
G28 ; Home all axes
M420 S1 ;
G29 ;
G92 E ;
G92 E0 ; Reset Extruder
G1 X5.1 Y20 Z0.3 F5000.0 ; Move to start position
G1 X5.1 Y200.0 Z0.3 F1500.0 E15 ; Draw the first line
G1 X0.4 Y200.0 Z0.3 F5000.0 ; Move to side a little
G1 X0.4 Y20 Z0.3 F1500.0 E30 ; Draw the second line
G92 E0 ; Reset Extruder
G1 Z2.0 F3000 ; Move Z Axis up little to prevent scratching of Heat Bed
G92 E0
G92 E0
G1 F2700 E-5
;LAYER_COUNT:35
;LAYER:0
M107
G1 F600 Z0.4
G0 F2400 X99.73 Y99.836 Z0.4
;TYPE:SKIRT
G1 F600 Z0.2
G1 F2700 E0
G1 F1200 X99.985 Y99.584 E0.01863
G1 X100.347 Y99.237 E0.04469
G1 X100.646 Y98.96 E0.06587
G1 X101.166 Y98.495 E0.10213
G1 X101.581 Y98.141 E0.13047
G1 X101.846 Y97.929 E0.14811
G1 X102.459 Y97.454 E0.18841
G1 X102.882 Y97.141 E0.21576
G1 X103.062 Y97.014 E0.22721
G1 X103.289 Y96.858 E0.24152
G1 X103.599 Y96.65 E0.26092
G1 X103.902 Y96.453 E0.2797
G1 X104.613 Y96.007 E0.32332
G1 X105.141 Y95.695 E0.35519
G1 X105.511 Y95.489 E0.3772
G1 X106.023 Y95.22 E0.40726
G1 X106.691 Y94.89 E0.44598
G1 X107.211 Y94.649 E0.47576
G1 X107.563 Y94.496 E0.49571
G1 X107.855 Y94.374 E0.51216
G1 X108.319 Y94.187 E0.53816
G1 X108.668 Y94.052 E0.5576
G1 X109.061 Y93.908 E0.57935
G1 X109.46 Y93.77 E0.60129
G1 X110.024 Y93.586 E0.63213
G1 X110.405 Y93.469 E0.65284
G1 X110.699 Y93.384 E0.66874
G1 X111.073 Y93.283 E0.68888
G1 X111.55 Y93.162 E0.71445
G1 X111.939 Y93.07 E0.73522
G1 X112.435 Y92.962 E0.7616
G1 X112.793 Y92.89 E0.78058
G1 X113.095 Y92.834 E0.79654
G1 X113.509 Y92.765 E0.81836
G1 X114.074 Y92.681 E0.84804
G1 X114.491 Y92.626 E0.8699
G1 X114.981 Y92.571 E0.89552
G1 X115.338 Y92.537 E0.91416
G1 X115.608 Y92.515 E0.92824
G1 X116.028 Y92.488 E0.95011
G1 X116.643 Y92.46 E0.98211
G1 X117.021 Y92.449 E1.00176
G1 X117.398 Y92.444 E1.02135
G1 X117.793 Y92.445 E1.04188
G1 X118.187 Y92.453 E1.06236
G1 X118.613 Y92.47 E1.08452
G1 X119.23 Y92.505 E1.11663
G1 X119.574 Y92.529 E1.13455
G1 X119.864 Y92.554 E1.14968
G1 X120.309 Y92.601 E1.17293
G1 X120.742 Y92.655 E1.19561
G1 X121.107 Y92.707 E1.21477
G1 X121.694 Y92.799 E1.24565
G1 X122.114 Y92.872 E1.2678
G1 X122.418 Y92.931 E1.2839
G1 X122.776 Y93.007 E1.30292
G1 X123.279 Y93.121 E1.32972
G1 X123.699 Y93.224 E1.35219
G1 X124.162 Y93.347 E1.37709
G1 X124.494 Y93.44 E1.39501
G1 X124.948 Y93.575 E1.41962
G1 X125.345 Y93.701 E1.44127
G1 X125.675 Y93.812 E1.45936
G1 X125.974 Y93.917 E1.47583
G1 X126.484 Y94.104 E1.50406
G1 X126.981 Y94.299 E1.53181
G1 X127.148 Y94.369 E1.54122
G1 X127.467 Y94.509 E1.55932
G1 X128.092 Y94.793 E1.595
G1 X128.453 Y94.964 E1.61576
G1 X128.838 Y95.155 E1.63809
G1 X129.181 Y95.332 E1.65815
G1 X129.724 Y95.624 E1.69019
G1 X130.395 Y96.014 E1.73053
G1 X131.12 Y96.468 E1.77498
G1 X131.437 Y96.674 E1.79463
G1 X131.754 Y96.887 E1.81448
G1 X132.192 Y97.196 E1.84233
G1 X132.373 Y97.33 E1.85404
G1 X132.614 Y97.513 E1.86976
G1 X133.18 Y97.955 E1.90708
G1 X133.45 Y98.172 E1.92508
G1 X133.796 Y98.459 E1.94845
G1 X134.158 Y98.772 E1.97332
G1 X134.474 Y99.065 E1.99571
G1 X135.014 Y99.583 E2.0346
G1 X135.269 Y99.835 E2.05323
G1 X135.522 Y100.093 E2.07201
G1 X135.811 Y100.398 E2.09385
G1 X136.188 Y100.811 E2.12291
G1 X136.447 Y101.104 E2.14323
G1 X136.692 Y101.391 E2.16284
G1 X136.953 Y101.708 E2.18418
G1 X137.236 Y102.064 E2.20781
G1 X137.466 Y102.364 E2.22746
G1 X137.762 Y102.762 E2.25324
G1 X138.003 Y103.098 E2.27472
G1 X138.255 Y103.463 E2.29778
G1 X138.473 Y103.79 E2.3182
G1 X138.674 Y104.103 E2.33753
G1 X138.877 Y104.431 E2.35758
G1 X139.136 Y104.865 E2.38384
G1 X139.333 Y105.209 E2.40444
G1 X139.599 Y105.691 E2.43305
G1 X139.81 Y106.09 E2.45651
G1 X139.902 Y106.273 E2.46716
G1 X140.041 Y106.56 E2.48373
G1 X140.277 Y107.063 E2.5126
G1 X140.448 Y107.443 E2.53426
G1 X140.666 Y107.954 E2.56313
G1 X140.83 Y108.36 E2.58589
G1 X140.963 Y108.707 E2.6052
G1 X141.076 Y109.016 E2.6223
G1 X141.199 Y109.366 E2.64158
G1 X141.338 Y109.785 E2.66452
G1 X141.522 Y110.379 E2.69683
G1 X141.625 Y110.73 E2.71584
G1 X141.694 Y110.98 E2.72932
G1 X141.801 Y111.399 E2.7518
G1 X141.944 Y112.003 E2.78405
G1 X142.021 Y112.354 E2.80273
G1 X142.091 Y112.696 E2.82087
G1 X142.167 Y113.1 E2.84223
G1 X142.246 Y113.569 E2.86695
G1 X142.304 Y113.955 E2.88724
G1 X142.361 Y114.379 E2.90947
G1 X142.407 Y114.77 E2.92993
G1 X142.45 Y115.198 E2.95228
G1 X142.485 Y115.628 E2.9747
G1 X142.523 Y116.226 E3.00584
G1 X142.541 Y116.581 E3.02432
G1 X142.548 Y116.792 E3.03529
G1 X142.554 Y117.216 E3.05733
G1 X142.552 Y117.902 E3.09298
G1 X142.545 Y118.284 E3.11283
G1 X142.537 Y118.51 E3.12458
G1 X142.517 Y118.897 E3.14472
G1 X142.475 Y119.51 E3.17665
G1 X142.44 Y119.912 E3.19763
G1 X142.403 Y120.271 E3.21638
G1 X142.354 Y120.674 E3.23748
G1 X142.287 Y121.159 E3.26292
G1 X142.224 Y121.563 E3.28417
G1 X142.143 Y122.029 E3.30875
G1 X142.076 Y122.384 E3.32753
G1 X142.003 Y122.739 E3.34636
G1 X141.913 Y123.14 E3.36772
G1 X141.801 Y123.602 E3.39243
G1 X141.698 Y123.997 E3.41364
G1 X141.544 Y124.548 E3.44337
G1 X141.427 Y124.94 E3.46463
G1 X141.354 Y125.17 E3.47717
G1 X141.236 Y125.524 E3.49656
G1 X141.024 Y126.125 E3.52968
G1 X140.889 Y126.488 E3.54981
G1 X140.777 Y126.775 E3.56582
G1 X140.627 Y127.14 E3.58633
G1 X140.429 Y127.601 E3.6124
G1 X140.256 Y127.985 E3.63429
G1 X140.04 Y128.442 E3.66056
G1 X139.867 Y128.794 E3.68094
G1 X139.685 Y129.148 E3.70163
G1 X139.496 Y129.5 E3.72239
G1 X139.289 Y129.871 E3.74447
G1 X139.099 Y130.199 E3.76417
G1 X138.855 Y130.605 E3.78879
G1 X138.657 Y130.923 E3.80826
G1 X138.395 Y131.329 E3.83337
G1 X138.147 Y131.698 E3.85647
G1 X137.911 Y132.035 E3.87785
G1 X137.678 Y132.355 E3.89842
G1 X137.46 Y132.645 E3.91728
G1 X137.233 Y132.938 E3.93654
G1 X136.811 Y133.464 E3.97159
G1 X136.518 Y133.815 E3.99535
G1 X136.386 Y133.967 E4.00581
G1 X136.172 Y134.207 E4.02252
G1 X135.749 Y134.668 E4.05504
G1 X135.459 Y134.972 E4.07687
G1 X135.185 Y135.25 E4.09715
G1 X134.925 Y135.506 E4.11612
G1 X134.646 Y135.772 E4.13615
G1 X134.323 Y136.069 E4.15895
G1 X133.933 Y136.414 E4.18601
G1 X133.628 Y136.674 E4.20684
G1 X133.244 Y136.991 E4.23272
G1 X132.952 Y137.225 E4.25217
G1 X132.705 Y137.416 E4.26839
G1 X132.381 Y137.657 E4.28938
G1 X131.917 Y137.991 E4.31909
G1 X131.59 Y138.219 E4.33981
G1 X131.236 Y138.456 E4.36194
G1 X130.904 Y138.67 E4.38247
G1 X130.621 Y138.846 E4.39979
G1 X130.304 Y139.036 E4.419
G1 X129.817 Y139.318 E4.44824
G1 X129.462 Y139.516 E4.46937
G1 X129.048 Y139.737 E4.49376
G1 X128.667 Y139.931 E4.51598
G1 X128.337 Y140.092 E4.53506
G1 X128.003 Y140.249 E4.55424
G1 X127.567 Y140.445 E4.57908
G1 X127.198 Y140.603 E4.59994
G1 X126.758 Y140.783 E4.62465
G1 X126.375 Y140.932 E4.646
G1 X125.99 Y141.074 E4.66733
G1 X125.626 Y141.202 E4.68738
G1 X125.15 Y141.36 E4.71345
G1 X124.768 Y141.479 E4.73424
G1 X124.381 Y141.593 E4.75521
G1 X123.977 Y141.704 E4.77698
G1 X123.532 Y141.818 E4.80085
G1 X123.201 Y141.898 E4.81855
G1 X122.731 Y142.004 E4.84359
G1 X122.303 Y142.092 E4.8663
G1 X122.062 Y142.137 E4.87904
G1 X121.664 Y142.205 E4.90002
G1 X121.094 Y142.291 E4.92998
G1 X120.901 Y142.323 E4.94015
G1 X119.952 Y142.439 E4.98983
G1 X119.388 Y142.485 E5.01924
G1 X119.02 Y142.509 E5.0384
G1 X118.54 Y142.533 E5.06338
G1 X118.162 Y142.546 E5.08304
G1 X117.657 Y142.555 E5.10928
G1 X117.259 Y142.555 E5.12997
G1 X117.01 Y142.551 E5.14291
G1 X116.605 Y142.538 E5.16397
G1 X115.874 Y142.501 E5.20201
G1 X115.466 Y142.473 E5.22326
G1 X115.244 Y142.454 E5.23484
G1 X114.87 Y142.416 E5.25438
G1 X114.056 Y142.32 E5.29697
G1 X113.519 Y142.244 E5.32516
G1 X113.128 Y142.176 E5.34578
G1 X112.525 Y142.061 E5.37768
G1 X112.295 Y142.015 E5.38987
G1 X111.964 Y141.945 E5.40746
G1 X111.491 Y141.834 E5.4327
G1 X111.009 Y141.71 E5.45857
G1 X110.562 Y141.585 E5.48269
G1 X110.227 Y141.486 E5.50084
G1 X109.922 Y141.392 E5.51743
G1 X109.59 Y141.284 E5.53557
G1 X109.092 Y141.109 E5.56301
G1 X108.746 Y140.979 E5.58221
G1 X108.453 Y140.864 E5.59857
G1 X107.794 Y140.596 E5.63554
G1 X107.398 Y140.427 E5.65792
G1 X106.998 Y140.247 E5.68071
G1 X106.694 Y140.105 E5.69815
G1 X106.364 Y139.945 E5.71721
G1 X105.958 Y139.738 E5.74089
G1 X105.259 Y139.365 E5.78207
G1 X104.813 Y139.115 E5.80864
G1 X104.433 Y138.883 E5.83178
G1 X103.881 Y138.533 E5.86575
G1 X103.604 Y138.352 E5.88294
G1 X103.032 Y137.964 E5.91886
G1 X102.66 Y137.699 E5.9426
G1 X102.472 Y137.56 E5.95475
G1 X102.153 Y137.315 E5.97565
G1 X101.93 Y137.138 E5.99045
G1 X101.643 Y136.903 E6.00972
G1 X101.089 Y136.434 E6.04745
G1 X100.829 Y136.207 E6.06538
G1 X100.436 Y135.854 E6.09284
G1 X100.111 Y135.551 E6.11593
G1 X99.917 Y135.363 E6.12997
G1 X99.602 Y135.047 E6.15316
G1 X99.354 Y134.787 E6.17183
G1 X99.054 Y134.462 E6.19481
G1 X98.779 Y134.153 E6.21631
G1 X98.171 Y133.446 E6.26477
G1 X97.663 Y132.812 E6.30699
G1 X97.322 Y132.355 E6.33662
G1 X97.093 Y132.038 E6.35695
G1 X96.789 Y131.601 E6.38461
G1 X96.594 Y131.311 E6.40277
G1 X96.397 Y131.009 E6.42151
G1 X96.165 Y130.638 E6.44425
G1 X95.926 Y130.24 E6.46838
G1 X95.736 Y129.913 E6.48803
G1 X95.489 Y129.47 E6.51439
G1 X95.308 Y129.132 E6.53432
G1 X95.142 Y128.81 E6.55314
G1 X94.96 Y128.441 E6.57453
G1 X94.724 Y127.941 E6.60326
G1 X94.562 Y127.582 E6.62373
G1 X94.42 Y127.253 E6.64235
G1 X94.269 Y126.888 E6.66288
G1 X94.107 Y126.475 E6.68593
G1 X93.968 Y126.1 E6.70672
G1 X93.769 Y125.537 E6.73775
G1 X93.643 Y125.162 E6.75831
G1 X93.57 Y124.931 E6.7709
G1 X93.459 Y124.556 E6.79122
G1 X93.297 Y123.977 E6.82247
G1 X93.193 Y123.581 E6.84375
G1 X93.046 Y122.975 E6.87615
G1 X92.931 Y122.449 E6.90414
G1 X92.895 Y122.264 E6.91393
G1 X92.829 Y121.889 E6.93372
G1 X92.733 Y121.293 E6.96509
G1 X92.682 Y120.943 E6.98347
G1 X92.627 Y120.521 E7.00559
G1 X92.582 Y120.128 E7.02615
G1 X92.515 Y119.432 E7.06248
G1 X92.465 Y118.611 E7.10523
G1 X92.45 Y118.034 E7.13522
G1 X92.446 Y117.657 E7.15482
G1 X92.45 Y117.008 E7.18855
G1 X92.46 Y116.591 E7.21022
G1 X92.474 Y116.255 E7.2277
G1 X92.495 Y115.895 E7.24644
G1 X92.542 Y115.246 E7.28026
G1 X92.631 Y114.422 E7.32333
G1 X92.733 Y113.713 E7.36055
G1 X92.794 Y113.334 E7.3805
G1 X92.896 Y112.759 E7.41085
G1 X92.994 Y112.265 E7.43703
G1 X93.066 Y111.95 E7.45382
G1 X93.191 Y111.436 E7.48131
G1 X93.298 Y111.027 E7.50328
G1 X93.469 Y110.42 E7.53605
G1 X93.592 Y110.012 E7.5582
G1 X93.761 Y109.486 E7.58691
G1 X93.871 Y109.161 E7.60474
G1 X94.021 Y108.737 E7.62811
G1 X94.326 Y107.963 E7.67135
G1 X94.614 Y107.302 E7.70882
G1 X94.792 Y106.913 E7.73105
G1 X95.028 Y106.421 E7.75941
G1 X95.188 Y106.1 E7.77805
G1 X95.42 Y105.652 E7.80427
G1 X95.631 Y105.262 E7.82731
G1 X95.822 Y104.931 E7.84717
G1 X96.126 Y104.423 E7.87794
G1 X96.313 Y104.122 E7.89635
G1 X96.514 Y103.808 E7.91573
G1 X96.753 Y103.449 E7.93814
G1 X97.006 Y103.084 E7.96122
G1 X97.227 Y102.777 E7.98088
G1 X97.549 Y102.343 E8.00896
G1 X97.785 Y102.034 E8.02917
G1 X97.99 Y101.776 E8.0463
G1 X98.245 Y101.467 E8.06712
G1 X98.567 Y101.089 E8.09292
G1 X98.829 Y100.791 E8.11354
G1 X99.17 Y100.417 E8.13985
G1 X99.467 Y100.104 E8.16227
G1 X99.73 Y99.836 E8.18178
G0 F2400 X100.086 Y100.186
G1 F1200 X100.331 Y99.945 E8.19964
G1 X100.693 Y99.598 E8.2257
G1 X100.979 Y99.333 E8.24597
G1 X101.499 Y98.868 E8.28222
G1 X101.898 Y98.527 E8.3095
G1 X102.152 Y98.324 E8.32639
G1 X102.765 Y97.849 E8.36669
G1 X103.17 Y97.55 E8.39286
G1 X103.35 Y97.423 E8.4043
G1 X103.568 Y97.273 E8.41806
G1 X103.878 Y97.065 E8.43746
G1 X104.168 Y96.877 E8.45542
G1 X104.879 Y96.431 E8.49904
G1 X105.384 Y96.132 E8.52954
G1 X105.754 Y95.926 E8.55154
G1 X106.244 Y95.669 E8.5803
G1 X106.912 Y95.339 E8.61902
G1 X107.41 Y95.107 E8.64757
G1 X107.762 Y94.954 E8.66752
G1 X108.042 Y94.838 E8.68327
G1 X108.506 Y94.651 E8.70927
G1 X108.841 Y94.522 E8.72792
G1 X109.234 Y94.378 E8.74967
G1 X109.615 Y94.246 E8.77063
G1 X110.179 Y94.062 E8.80146
G1 X110.543 Y93.95 E8.82125
G1 X110.837 Y93.865 E8.83716
G1 X111.196 Y93.767 E8.85649
G1 X111.673 Y93.646 E8.88207
G1 X112.045 Y93.559 E8.90192
G1 X112.541 Y93.451 E8.9283
G1 X112.884 Y93.382 E8.94649
G1 X113.186 Y93.326 E8.96245
G1 X113.583 Y93.259 E8.98337
G1 X114.148 Y93.175 E9.01306
G1 X114.547 Y93.123 E9.03397
G1 X115.037 Y93.068 E9.05959
G1 X115.378 Y93.035 E9.0774
G1 X115.648 Y93.013 E9.09147
G1 X116.05 Y92.988 E9.11241
G1 X116.665 Y92.96 E9.1444
G1 X117.028 Y92.949 E9.16327
G1 X117.405 Y92.944 E9.18287
G1 X117.782 Y92.945 E9.20246
G1 X118.176 Y92.953 E9.22294
G1 X118.585 Y92.969 E9.24421
G1 X119.202 Y93.004 E9.27633
G1 X119.531 Y93.028 E9.29347
G1 X119.821 Y93.053 E9.3086
G1 X120.247 Y93.097 E9.33086
G1 X120.68 Y93.151 E9.35353
G1 X121.03 Y93.201 E9.37191
G1 X121.617 Y93.293 E9.40278
G1 X122.018 Y93.363 E9.42394
G1 X122.322 Y93.422 E9.44003
G1 X122.666 Y93.494 E9.4583
G1 X123.169 Y93.608 E9.4851
G1 X123.57 Y93.707 E9.50657
G1 X124.033 Y93.83 E9.53146
G1 X124.352 Y93.92 E9.54869
G1 X124.806 Y94.055 E9.5733
G1 X125.186 Y94.175 E9.59401
G1 X125.516 Y94.286 E9.61211
G1 X125.802 Y94.387 E9.62787
G1 X126.312 Y94.574 E9.6561
G1 X126.788 Y94.761 E9.68268
G1 X126.955 Y94.831 E9.69209
G1 X127.26 Y94.964 E9.70938
G1 X127.885 Y95.248 E9.74505
G1 X128.231 Y95.412 E9.76495
G1 X128.616 Y95.603 E9.78729
G1 X128.944 Y95.773 E9.80649
G1 X129.487 Y96.065 E9.83853
G1 X130.13 Y96.438 E9.87716
G1 X130.855 Y96.892 E9.92161
G1 X131.158 Y97.089 E9.9404
G1 X131.475 Y97.302 E9.96024
G1 X131.895 Y97.598 E9.98695
G1 X132.076 Y97.732 E9.99865
G1 X132.306 Y97.907 E10.01367
G1 X132.872 Y98.349 E10.05099
G1 X133.13 Y98.557 E10.06821
G1 X133.476 Y98.844 E10.09158
G1 X133.825 Y99.146 E10.11556
G1 X134.128 Y99.425 E10.13697
G1 X134.668 Y99.943 E10.17585
G1 X134.912 Y100.185 E10.19371
G1 X135.165 Y100.443 E10.21249
G1 X135.442 Y100.735 E10.23341
G1 X135.819 Y101.148 E10.26247
G1 X136.066 Y101.429 E10.28191
G1 X136.311 Y101.716 E10.30152
G1 X136.561 Y102.019 E10.32194
G1 X136.844 Y102.375 E10.34557
G1 X137.065 Y102.662 E10.3644
G1 X137.361 Y103.06 E10.39017
G1 X137.592 Y103.382 E10.41077
G1 X137.844 Y103.747 E10.43382
G1 X138.052 Y104.06 E10.45335
G1 X138.253 Y104.373 E10.47268
G1 X138.448 Y104.687 E10.49189
G1 X138.707 Y105.121 E10.51815
G1 X138.896 Y105.45 E10.53787
G1 X139.162 Y105.932 E10.56648
G1 X139.363 Y106.315 E10.58896
G1 X139.589 Y106.772 E10.61546
G1 X139.825 Y107.275 E10.64433
G1 X139.988 Y107.64 E10.66511
G1 X140.206 Y108.151 E10.69398
G1 X140.363 Y108.539 E10.71573
G1 X140.496 Y108.886 E10.73504
G1 X140.605 Y109.182 E10.75144
G1 X140.728 Y109.532 E10.77071
G1 X140.86 Y109.933 E10.79265
G1 X141.044 Y110.527 E10.82497
G1 X141.143 Y110.863 E10.84317
G1 X141.212 Y111.113 E10.85665
G1 X141.314 Y111.514 E10.87816
G1 X141.457 Y112.118 E10.91041
G1 X141.532 Y112.454 E10.9283
G1 X141.602 Y112.796 E10.94645
G1 X141.674 Y113.183 E10.9669
G1 X141.753 Y113.652 E10.99162
G1 X141.809 Y114.022 E11.01107
G1 X141.866 Y114.446 E11.0333
G1 X141.91 Y114.82 E11.05287
G1 X141.953 Y115.248 E11.07523
G1 X141.986 Y115.66 E11.09671
G1 X142.024 Y116.258 E11.12785
G1 X142.041 Y116.598 E11.14554
G1 X142.048 Y116.809 E11.15651
G1 X142.054 Y117.215 E11.17761
G1 X142.052 Y117.901 E11.21326
G1 X142.045 Y118.266 E11.23223
G1 X142.037 Y118.492 E11.24399
G1 X142.018 Y118.863 E11.26329
G1 X141.976 Y119.476 E11.29522
G1 X141.943 Y119.86 E11.31525
G1 X141.906 Y120.219 E11.33401
G1 X141.859 Y120.606 E11.35427
G1 X141.792 Y121.091 E11.37971
G1 X141.732 Y121.478 E11.40006
G1 X141.651 Y121.944 E11.42465
G1 X141.586 Y122.283 E11.44258
G1 X141.513 Y122.638 E11.46142
G1 X141.427 Y123.023 E11.48192
G1 X141.315 Y123.485 E11.50662
G1 X141.217 Y123.862 E11.52687
G1 X141.063 Y124.413 E11.5566
G1 X140.951 Y124.788 E11.57694
G1 X140.878 Y125.018 E11.58948
G1 X140.764 Y125.357 E11.60807
G1 X140.552 Y125.958 E11.64119
G1 X140.423 Y126.306 E11.66047
G1 X140.311 Y126.593 E11.67649
G1 X140.168 Y126.943 E11.69613
G1 X139.97 Y127.404 E11.72221
G1 X139.804 Y127.771 E11.74314
G1 X139.588 Y128.228 E11.76941
G1 X139.422 Y128.565 E11.78893
G1 X139.24 Y128.919 E11.80962
