;FLAVOR:Marlin
;TIME:5598
;Filament used: 4.53774m
;Layer height: 0.2
;MINX:87.905
;MINY:86.247
;MINZ:0.2
;MAXX:149.144
;MAXY:147.554
;MAXZ:23.2
;Generated with Cura_SteamEngine 4.8.0
M140 S50
M105
M190 S50
M104 S200
M105
M109 S200
M82 ;absolute extrusion mode
; Ender 3 Custom Start G-code
G1 Z20.0 F3000 ; Move Z Axis up to prevent crashing in side of build plate
G28 ; Home all axes
M420 S1 ;
G29 ;
G92 E ;
G92 E0 ; Reset Extruder
G1 X5.1 Y20 Z0.3 F5000.0 ; Move to start position
G1 X5.1 Y200.0 Z0.3 F1500.0 E15 ; Draw the first line
G1 X0.4 Y200.0 Z0.3 F5000.0 ; Move to side a little
G1 X0.4 Y20 Z0.3 F1500.0 E30 ; Draw the second line
G92 E0 ; Reset Extruder
G1 Z2.0 F3000 ; Move Z Axis up little to prevent scratching of Heat Bed
G92 E0
G92 E0
G1 F2700 E-5
;LAYER_COUNT:115
;LAYER:0
M107
G1 F600 Z0.4
G0 F2400 X97.874 Y97.927 Z0.4
;TYPE:SKIRT
G1 F600 Z0.2
G1 F2700 E0
G1 F1200 X98.837 Y97.06 E0.06734
G1 X99.654 Y96.402 E0.12186
G1 X99.838 Y96.257 E0.13403
G1 X101.749 Y94.686 E0.2626
G1 X103.648 Y93.032 E0.39347
G1 X105.489 Y91.336 E0.52356
G1 X106.532 Y90.328 E0.59894
G1 X107.122 Y89.796 E0.64022
G1 X107.333 Y89.618 E0.65457
G1 X107.922 Y89.152 E0.6936
G1 X108.21 Y88.939 E0.71221
G1 X108.408 Y88.796 E0.72491
G1 X108.942 Y88.418 E0.75891
G1 X109.756 Y87.891 E0.8093
G1 X110.61 Y87.433 E0.85966
G1 X111.499 Y87.046 E0.91005
G1 X112.417 Y86.735 E0.96042
G1 X113.358 Y86.5 E1.01083
G1 X114.314 Y86.344 E1.06117
G1 X115.531 Y86.26 E1.12456
G1 X116.236 Y86.248 E1.16121
G1 X116.606 Y86.247 E1.18044
G1 X117.091 Y86.254 E1.20564
G1 X118.058 Y86.308 E1.25598
G1 X119.018 Y86.442 E1.30635
G1 X119.964 Y86.654 E1.35673
G1 X120.889 Y86.943 E1.40709
G1 X121.914 Y87.367 E1.46474
G1 X122.966 Y87.862 E1.52516
G1 X123.425 Y88.086 E1.5517
G1 X125.71 Y89.119 E1.68202
G1 X128.026 Y90.091 E1.81255
G1 X130.301 Y90.968 E1.93926
G1 X133.543 Y92.099 E2.11771
G1 X134.099 Y92.281 E2.14811
G1 X135.008 Y92.62 E2.19853
G1 X135.943 Y93.063 E2.2523
G1 X136.691 Y93.459 E2.29628
G1 X138.162 Y94.264 E2.38343
G1 X138.734 Y94.587 E2.41756
G1 X139.557 Y95.098 E2.46791
G1 X140.336 Y95.675 E2.51829
G1 X141.064 Y96.314 E2.56863
G1 X141.738 Y97.011 E2.61902
G1 X142.258 Y97.64 E2.66143
G1 X142.792 Y98.332 E2.70685
G1 X142.927 Y98.51 E2.71846
G1 X143.305 Y99.021 E2.7515
G1 X143.733 Y99.613 E2.78946
G1 X144.268 Y100.421 E2.83982
G1 X144.613 Y101.033 E2.87633
G1 X145.1 Y101.962 E2.93084
G1 X145.51 Y102.768 E2.97784
G1 X146.663 Y104.891 E3.10339
G1 X146.756 Y105.057 E3.11328
G1 X146.905 Y105.331 E3.12949
G1 X147.072 Y105.648 E3.14811
G1 X147.588 Y106.646 E3.20649
G1 X147.91 Y107.29 E3.24391
G1 X148.307 Y108.174 E3.29427
G1 X148.63 Y109.088 E3.34465
G1 X148.877 Y110.026 E3.39506
G1 X149.045 Y110.98 E3.4454
G1 X149.135 Y111.945 E3.49577
G1 X149.144 Y112.915 E3.54618
G1 X149.074 Y113.881 E3.59651
G1 X148.924 Y114.839 E3.64691
G1 X148.632 Y115.996 E3.70892
G1 X148.467 Y116.533 E3.73812
G1 X148.353 Y116.883 E3.75725
G1 X148.153 Y117.468 E3.78937
G1 X147.66 Y118.685 E3.85761
G1 X147.172 Y119.718 E3.91699
G1 X146.105 Y122.062 E4.05083
G1 X145.147 Y124.335 E4.17902
G1 X143.913 Y127.555 E4.35822
G1 X143.65 Y128.253 E4.39699
G1 X143.347 Y129.025 E4.44009
G1 X142.955 Y129.911 E4.49044
G1 X142.491 Y130.762 E4.54081
G1 X141.679 Y131.945 E4.61538
G1 X141.029 Y132.778 E4.67029
G1 X139.492 Y134.809 E4.80265
G1 X138.027 Y136.861 E4.93368
G1 X136.654 Y138.905 E5.06165
G1 X135.194 Y141.228 E5.20424
G1 X134.966 Y141.576 E5.22586
G1 X134.875 Y141.71 E5.23427
G1 X134.298 Y142.489 E5.28465
G1 X133.659 Y143.217 E5.33499
G1 X132.962 Y143.891 E5.38538
G1 X132.341 Y144.406 E5.42731
G1 X132.09 Y144.6 E5.4438
G1 X131.829 Y144.796 E5.46076
G1 X131.57 Y144.983 E5.47736
G1 X131.002 Y145.385 E5.51352
G1 X130.188 Y145.912 E5.56392
G1 X129.334 Y146.37 E5.61428
G1 X128.445 Y146.756 E5.66465
G1 X127.527 Y147.067 E5.71502
G1 X126.586 Y147.302 E5.76542
G1 X125.63 Y147.458 E5.81576
G1 X124.414 Y147.542 E5.87911
G1 X123.709 Y147.554 E5.91575
G1 X123.318 Y147.554 E5.93607
G1 X122.827 Y147.546 E5.96159
G1 X121.859 Y147.491 E6.01198
G1 X121.195 Y147.406 E6.04677
G1 X120.221 Y147.253 E6.098
G1 X119.534 Y147.136 E6.13422
G1 X117.062 Y146.782 E6.264
G1 X114.589 Y146.499 E6.39336
G1 X112.937 Y146.357 E6.47953
G1 X112.729 Y146.33 E6.49043
G1 X111.548 Y146.233 E6.55201
G1 X110.586 Y146.114 E6.60238
G1 X109.936 Y145.987 E6.6368
G1 X109.489 Y145.884 E6.66064
G1 X109.064 Y145.777 E6.68342
G1 X108.14 Y145.531 E6.73311
G1 X107.531 Y145.361 E6.76597
G1 X106.609 Y145.062 E6.81634
G1 X105.714 Y144.689 E6.86673
G1 X105.034 Y144.343 E6.90638
G1 X104.211 Y143.891 E6.95518
G1 X102.533 Y142.935 E7.05554
G1 X101.237 Y142.206 E7.13282
G1 X100.47 Y141.766 E7.17877
G1 X99.392 Y141.137 E7.24363
G1 X98.826 Y140.797 E7.27795
G1 X97.954 Y140.219 E7.33231
G1 X97.149 Y139.632 E7.38409
G1 X96.37 Y139.045 E7.43478
G1 X95.691 Y138.523 E7.47929
G1 X94.745 Y137.786 E7.54161
G1 X94.226 Y137.369 E7.57621
G1 X93.497 Y136.731 E7.62656
G1 X92.822 Y136.035 E7.67694
G1 X92.206 Y135.286 E7.72734
G1 X91.655 Y134.489 E7.77769
G1 X91.171 Y133.649 E7.82808
G1 X90.941 Y133.184 E7.85504
G1 X90.519 Y132.281 E7.90684
G1 X90.426 Y132.077 E7.91849
G1 X89.961 Y131.028 E7.97812
G1 X89.682 Y130.377 E8.01493
G1 X89.337 Y129.471 E8.06531
G1 X89.068 Y128.539 E8.11572
G1 X88.909 Y127.777 E8.15617
G1 X88.142 Y123.91 E8.36105
G1 X87.993 Y122.952 E8.41144
G1 X87.919 Y121.771 E8.47293
G1 X87.906 Y120.727 E8.52719
G1 X87.905 Y120.491 E8.53946
G1 X87.91 Y120.07 E8.56134
G1 X87.925 Y119.367 E8.59788
G1 X87.958 Y118.704 E8.63238
G1 X88.059 Y117.429 E8.69885
G1 X88.084 Y117.161 E8.71284
G1 X88.3 Y113.521 E8.90234
G1 X88.312 Y113.195 E8.91929
G1 X88.388 Y112.229 E8.96965
G1 X88.572 Y111.146 E9.02673
G1 X88.79 Y110.144 E9.08003
G1 X88.907 Y109.642 E9.10681
G1 X89.117 Y108.807 E9.15156
G1 X89.393 Y107.877 E9.20197
G1 X89.744 Y106.974 E9.25232
G1 X90.169 Y106.103 E9.30269
G1 X90.664 Y105.27 E9.35304
G1 X91.227 Y104.48 E9.40346
G1 X91.852 Y103.739 E9.45384
G1 X92.68 Y102.922 E9.51429
G1 X92.863 Y102.758 E9.52706
G1 X94.707 Y101.062 E9.65726
G1 X96.51 Y99.305 E9.78809
G1 X96.866 Y98.941 E9.81455
G1 X97.874 Y97.927 E9.88885
G0 F2400 X98.228 Y98.28
G1 F1200 X99.15 Y97.449 E9.95336
G1 X99.967 Y96.791 E10.00788
G1 X100.158 Y96.641 E10.0205
G1 X102.096 Y95.048 E10.15087
G1 X103.982 Y93.405 E10.28086
G1 X105.843 Y91.69 E10.41238
G1 X106.88 Y90.688 E10.48732
G1 X107.444 Y90.178 E10.52684
G1 X107.655 Y90 E10.54118
G1 X108.219 Y89.554 E10.57855
G1 X108.507 Y89.341 E10.59717
G1 X108.697 Y89.204 E10.60934
G1 X109.231 Y88.826 E10.64334
G1 X110.028 Y88.311 E10.69265
G1 X110.865 Y87.865 E10.74194
G1 X111.737 Y87.491 E10.79125
G1 X112.637 Y87.192 E10.84054
G1 X113.559 Y86.97 E10.88982
G1 X114.496 Y86.826 E10.93909
G1 X115.54 Y86.76 E10.99345
G1 X116.245 Y86.748 E11.0301
G1 X116.598 Y86.747 E11.04844
G1 X117.083 Y86.754 E11.07365
G1 X118.03 Y86.808 E11.12294
G1 X118.969 Y86.941 E11.17223
G1 X119.894 Y87.153 E11.22155
G1 X120.797 Y87.442 E11.27082
G1 X121.702 Y87.819 E11.32177
G1 X122.747 Y88.311 E11.38179
G1 X123.21 Y88.536 E11.40855
G1 X125.533 Y89.588 E11.54107
G1 X127.849 Y90.56 E11.6716
G1 X130.133 Y91.439 E11.79879
G1 X133.337 Y92.558 E11.97516
G1 X133.944 Y92.756 E12.00834
G1 X134.833 Y93.088 E12.05766
G1 X135.709 Y93.505 E12.10808
G1 X136.452 Y93.898 E12.15176
G1 X137.916 Y94.699 E12.23848
G1 X138.488 Y95.022 E12.27262
G1 X139.293 Y95.523 E12.3219
G1 X140.054 Y96.09 E12.37122
G1 X140.764 Y96.718 E12.42048
G1 X141.418 Y97.405 E12.46977
G1 X141.862 Y97.945 E12.5061
G1 X142.526 Y98.808 E12.56269
G1 X142.9 Y99.314 E12.59539
G1 X143.328 Y99.906 E12.63335
G1 X143.851 Y100.697 E12.68263
G1 X144.17 Y101.265 E12.71649
G1 X144.654 Y102.189 E12.7707
G1 X145.071 Y103.01 E12.81855
G1 X146.221 Y105.127 E12.94375
G1 X146.463 Y105.564 E12.96971
G1 X146.628 Y105.878 E12.98815
G1 X147.14 Y106.87 E13.04616
G1 X147.462 Y107.514 E13.08358
G1 X147.85 Y108.379 E13.13285
G1 X148.164 Y109.274 E13.18214
G1 X148.401 Y110.193 E13.23146
G1 X148.56 Y111.128 E13.28075
G1 X148.64 Y112.073 E13.33004
G1 X148.64 Y113.021 E13.37931
G1 X148.56 Y113.966 E13.42859
G1 X148.4 Y114.901 E13.47789
G1 X148.154 Y115.849 E13.52879
G1 X147.989 Y116.386 E13.55798
G1 X147.88 Y116.721 E13.57629
G1 X147.68 Y117.306 E13.60842
G1 X147.207 Y118.471 E13.67376
G1 X146.754 Y119.43 E13.72888
G1 X145.643 Y121.87 E13.86821
G1 X144.683 Y124.147 E13.99663
G1 X143.409 Y127.476 E14.18187
G1 X143.183 Y128.076 E14.21519
G1 X142.882 Y128.842 E14.25797
G1 X142.498 Y129.709 E14.30724
G1 X142.041 Y130.54 E14.35653
G1 X141.285 Y131.637 E14.42577
G1 X140.653 Y132.447 E14.47916
G1 X139.086 Y134.517 E14.61408
G1 X137.609 Y136.586 E14.74619
G1 X136.242 Y138.622 E14.87364
G1 X134.771 Y140.962 E15.01728
G1 X134.553 Y141.295 E15.03796
G1 X134.462 Y141.429 E15.04638
G1 X133.896 Y142.191 E15.09571
G1 X133.269 Y142.902 E15.14497
G1 X132.583 Y143.558 E15.1943
G1 X132.035 Y144.01 E15.23122
G1 X131.784 Y144.204 E15.2477
G1 X131.534 Y144.392 E15.26396
G1 X131.281 Y144.575 E15.28019
G1 X130.713 Y144.977 E15.31635
G1 X129.917 Y145.492 E15.36562
G1 X129.079 Y145.938 E15.41496
G1 X128.208 Y146.311 E15.4642
G1 X127.308 Y146.61 E15.51348
G1 X126.385 Y146.832 E15.56282
G1 X125.448 Y146.976 E15.61208
G1 X124.405 Y147.042 E15.6664
G1 X123.7 Y147.054 E15.70304
G1 X123.326 Y147.055 E15.72248
G1 X122.835 Y147.047 E15.748
G1 X121.888 Y146.991 E15.7973
G1 X121.272 Y146.912 E15.82957
G1 X120.14 Y146.733 E15.88913
G1 X119.584 Y146.638 E15.91845
G1 X117.12 Y146.285 E16.0478
G1 X114.653 Y146.003 E16.17685
G1 X112.98 Y145.859 E16.26411
G1 X112.778 Y145.833 E16.2747
G1 X111.589 Y145.735 E16.3367
G1 X110.648 Y145.617 E16.38598
G1 X110.046 Y145.499 E16.41786
G1 X109.609 Y145.398 E16.44117
G1 X109.192 Y145.294 E16.46351
G1 X108.274 Y145.05 E16.51287
G1 X107.665 Y144.88 E16.54573
G1 X106.763 Y144.586 E16.59503
G1 X105.889 Y144.218 E16.64432
G1 X105.274 Y143.905 E16.68018
G1 X104.451 Y143.453 E16.72897
G1 X102.825 Y142.526 E16.82624
G1 X101.486 Y141.772 E16.9061
G1 X100.721 Y141.334 E16.95192
G1 X99.65 Y140.709 E17.01636
G1 X99.084 Y140.369 E17.05067
G1 X98.249 Y139.815 E17.10275
G1 X97.286 Y139.111 E17.16474
G1 X96.675 Y138.648 E17.20458
G1 X95.998 Y138.129 E17.24891
G1 X95.195 Y137.504 E17.3018
G1 X94.54 Y136.979 E17.34542
G1 X93.826 Y136.354 E17.39473
G1 X93.167 Y135.672 E17.44402
G1 X92.569 Y134.936 E17.4933
G1 X92.034 Y134.152 E17.54263
G1 X91.394 Y132.972 E17.61239
G1 X90.972 Y132.069 E17.66419
G1 X90.883 Y131.874 E17.67533
G1 X90.421 Y130.831 E17.73461
G1 X90.142 Y130.18 E17.77142
G1 X89.805 Y129.293 E17.82073
G1 X89.544 Y128.381 E17.87003
G1 X89.409 Y127.734 E17.90438
G1 X88.633 Y123.813 E18.1121
G1 X88.488 Y122.876 E18.16138
G1 X88.419 Y121.765 E18.21923
G1 X88.406 Y120.721 E18.27349
G1 X88.405 Y120.494 E18.28528
G1 X88.41 Y120.081 E18.30675
G1 X88.425 Y119.378 E18.34329
G1 X88.456 Y118.743 E18.37633
G1 X88.556 Y117.476 E18.44238
G1 X88.584 Y117.18 E18.45783
G1 X88.797 Y113.569 E18.64582
G1 X88.811 Y113.215 E18.66423
G1 X88.887 Y112.269 E18.71355
G1 X89.06 Y111.252 E18.76716
G1 X89.278 Y110.25 E18.82045
G1 X89.393 Y109.757 E18.84676
G1 X89.602 Y108.929 E18.89114
G1 X89.872 Y108.02 E18.94042
G1 X90.219 Y107.137 E18.98972
G1 X90.638 Y106.287 E19.03897
G1 X91.128 Y105.474 E19.0883
G1 X91.684 Y104.706 E19.13758
G1 X92.304 Y103.988 E19.18688
G1 X93.013 Y103.295 E19.2384
G1 X93.183 Y103.143 E19.25025
G1 X95.058 Y101.417 E19.38269
G1 X96.883 Y99.641 E19.51503
G1 X97.22 Y99.294 E19.54017
G1 X98.228 Y98.28 E19.61448
G0 F2400 X98.583 Y98.632
G1 F1200 X99.464 Y97.839 E19.67608
G1 X100.281 Y97.181 E19.73059
G1 X100.461 Y97.039 E19.74251
G1 X102.408 Y95.438 E19.87351
G1 X104.312 Y93.78 E20.00471
G1 X106.176 Y92.063 E20.13642
G1 X107.227 Y91.047 E20.21239
G1 X107.766 Y90.56 E20.25014
G1 X107.977 Y90.382 E20.26448
G1 X108.517 Y89.956 E20.30023
G1 X108.805 Y89.743 E20.31884
G1 X108.986 Y89.612 E20.33046
G1 X109.52 Y89.234 E20.36446
G1 X110.299 Y88.731 E20.41265
G1 X111.119 Y88.298 E20.46084
G1 X111.973 Y87.936 E20.50904
G1 X112.854 Y87.65 E20.55718
G1 X113.758 Y87.441 E20.6054
G1 X114.675 Y87.31 E20.65354
G1 X115.548 Y87.26 E20.69898
G1 X116.253 Y87.248 E20.73562
G1 X116.591 Y87.247 E20.75319
G1 X117.076 Y87.254 E20.7784
G1 X118.002 Y87.307 E20.8266
G1 X118.919 Y87.44 E20.87475
G1 X119.822 Y87.652 E20.92296
G1 X120.703 Y87.94 E20.97113
G1 X121.489 Y88.272 E21.01547
G1 X122.528 Y88.761 E21.07514
G1 X123.007 Y88.994 E21.10283
G1 X125.299 Y90.031 E21.23356
G1 X127.645 Y91.016 E21.36579
G1 X129.985 Y91.917 E21.4961
G1 X133.161 Y93.026 E21.67093
G1 X133.789 Y93.231 E21.70526
G1 X134.657 Y93.557 E21.75345
G1 X135.476 Y93.947 E21.80059
G1 X136.212 Y94.337 E21.84388
G1 X137.67 Y95.134 E21.93023
G1 X138.242 Y95.457 E21.96437
G1 X139.029 Y95.948 E22.01257
G1 X139.77 Y96.504 E22.06072
G1 X140.462 Y97.122 E22.10893
G1 X141.097 Y97.797 E22.1571
G1 X141.467 Y98.251 E22.18753
G1 X142.001 Y98.943 E22.23296
G1 X142.417 Y99.501 E22.26913
G1 X142.923 Y100.199 E22.31393
G1 X143.433 Y100.973 E22.3621
G1 X143.728 Y101.498 E22.3934
G1 X144.209 Y102.415 E22.44721
G1 X144.634 Y103.251 E22.49595
G1 X145.808 Y105.413 E22.6238
G1 X146.021 Y105.798 E22.64667
G1 X146.184 Y106.107 E22.66482
G1 X146.693 Y107.093 E22.72249
G1 X147.015 Y107.737 E22.75991
G1 X147.394 Y108.584 E22.80813
G1 X147.698 Y109.46 E22.85632
G1 X147.925 Y110.358 E22.90446
G1 X148.075 Y111.274 E22.95269
G1 X148.144 Y112.198 E23.00085
G1 X148.134 Y113.125 E23.04903
G1 X148.044 Y114.048 E23.09722
G1 X147.875 Y114.959 E23.14537
G1 X147.676 Y115.702 E23.18535
G1 X147.511 Y116.239 E23.21454
G1 X147.407 Y116.56 E23.23208
G1 X147.207 Y117.145 E23.26421
G1 X146.755 Y118.258 E23.32664
G1 X146.299 Y119.223 E23.3821
G1 X145.175 Y121.691 E23.52304
G1 X144.224 Y123.949 E23.65037
G1 X142.939 Y127.305 E23.83712
G1 X142.661 Y128.039 E23.87791
G1 X142.417 Y128.658 E23.91249
G1 X142.04 Y129.505 E23.96067
G1 X141.592 Y130.317 E24.00887
G1 X140.891 Y131.33 E24.07289
G1 X140.219 Y132.192 E24.12969
G1 X138.684 Y134.218 E24.26178
G1 X137.215 Y136.277 E24.39323
G1 X135.804 Y138.378 E24.52475
G1 X134.347 Y140.696 E24.66704
G1 X134.139 Y141.014 E24.68679
G1 X134.048 Y141.148 E24.6952
G1 X133.495 Y141.892 E24.74338
G1 X132.879 Y142.586 E24.7916
G1 X132.206 Y143.223 E24.83976
G1 X131.729 Y143.615 E24.87185
G1 X131.478 Y143.809 E24.88833
G1 X131.24 Y143.988 E24.90381
G1 X130.992 Y144.167 E24.91971
G1 X130.424 Y144.569 E24.95587
G1 X129.645 Y145.071 E25.00403
G1 X128.826 Y145.505 E25.0522
G1 X127.972 Y145.866 E25.10038
G1 X127.09 Y146.152 E25.14857
G1 X126.187 Y146.361 E25.19674
G1 X125.269 Y146.492 E25.24493
G1 X124.397 Y146.542 E25.29032
G1 X123.692 Y146.554 E25.32696
G1 X123.334 Y146.555 E25.34557
G1 X122.843 Y146.547 E25.37109
G1 X121.917 Y146.492 E25.4193
G1 X121.35 Y146.418 E25.44901
G1 X120.224 Y146.24 E25.50826
G1 X119.663 Y146.144 E25.53784
G1 X117.215 Y145.793 E25.66636
G1 X114.642 Y145.499 E25.80094
G1 X113.023 Y145.36 E25.88539
G1 X112.848 Y145.337 E25.89456
G1 X111.631 Y145.237 E25.95802
G1 X110.711 Y145.121 E26.00621
G1 X110.155 Y145.011 E26.03567
G1 X109.729 Y144.913 E26.05838
G1 X109.32 Y144.81 E26.0803
G1 X108.409 Y144.568 E26.12929
G1 X107.8 Y144.398 E26.16215
G1 X106.918 Y144.111 E26.21035
G1 X106.065 Y143.748 E26.25853
G1 X105.515 Y143.466 E26.29065
G1 X104.518 Y142.917 E26.3498
G1 X103.723 Y142.461 E26.39743
G1 X103.027 Y142.066 E26.43902
G1 X101.734 Y141.339 E26.51611
G1 X100.973 Y140.902 E26.56171
G1 X99.907 Y140.28 E26.62585
G1 X99.341 Y139.94 E26.66016
G1 X98.543 Y139.411 E26.70992
G1 X97.587 Y138.712 E26.77147
G1 X96.979 Y138.251 E26.81112
G1 X96.305 Y137.734 E26.85526
G1 X95.372 Y137.006 E26.91676
G1 X94.853 Y136.589 E26.95136
G1 X94.156 Y135.978 E26.99953
G1 X93.514 Y135.309 E27.04772
G1 X92.932 Y134.587 E27.09591
G1 X92.415 Y133.817 E27.14411
G1 X91.847 Y132.76 E27.20647
G1 X91.425 Y131.857 E27.25827
G1 X91.34 Y131.671 E27.2689
G1 X90.88 Y130.634 E27.32786
G1 X90.601 Y129.983 E27.36466
G1 X90.273 Y129.115 E27.41289
G1 X90.021 Y128.223 E27.46106
G1 X89.889 Y127.582 E27.49507
G1 X89.123 Y123.716 E27.69989
G1 X88.982 Y122.799 E27.7481
G1 X88.919 Y121.759 E27.80225
G1 X88.905 Y120.498 E27.86779
G1 X88.909 Y120.092 E27.88889
G1 X88.924 Y119.389 E27.92543
