;FLAVOR:Marlin
;TIME:269
;Filament used: 0.393993m
;Layer height: 0.28
;MINX:73.762
;MINY:73.76
;MINZ:0.28
;MAXX:161.239
;MAXY:161.234
;MAXZ:3
;Generated with Cura_SteamEngine 4.8.0
M140 S50
M105
M190 S50
M104 S220
M105
M109 S220
M82 ;absolute extrusion mode
; Ender 3 Custom Start G-code
G1 Z20.0 F3000 ; Move Z Axis up to prevent crashing in side of build plate
G28 ; Home all axes
M420 S1 ;
G29 ;
G92 E ;
G92 E0 ; Reset Extruder
G1 X5.1 Y20 Z0.3 F5000.0 ; Move to start position
G1 X5.1 Y200.0 Z0.3 F1500.0 E15 ; Draw the first line
G1 X0.4 Y200.0 Z0.3 F5000.0 ; Move to side a little
G1 X0.4 Y20 Z0.3 F1500.0 E30 ; Draw the second line
G92 E0 ; Reset Extruder
G1 Z2.0 F3000 ; Move Z Axis up little to prevent scratching of Heat Bed
G92 E0
G92 E0
G1 F2700 E-5
;LAYER_COUNT:10
;LAYER:0
M107
G1 F600 Z0.48
G0 F3600 X86.795 Y86.35 Z0.48
;TYPE:SKIRT
G1 F600 Z0.28
G1 F2700 E0
G1 F2400 X87.075 Y86.076 E0.0228
G1 X87.807 Y85.383 E0.08147
G1 X88.104 Y85.112 E0.10488
G1 X88.939 Y84.374 E0.16974
G1 X89.232 Y84.123 E0.1922
G1 X90.064 Y83.435 E0.25503
G1 X90.363 Y83.196 E0.27731
G1 X91.109 Y82.619 E0.33221
G1 X91.439 Y82.373 E0.35617
G1 X92.471 Y81.631 E0.43015
G1 X92.792 Y81.408 E0.4529
G1 X93.573 Y80.885 E0.50761
G1 X93.895 Y80.677 E0.52992
G1 X94.827 Y80.096 E0.59384
G1 X95.168 Y79.891 E0.617
G1 X96.119 Y79.342 E0.68092
G1 X96.465 Y79.15 E0.70395
G1 X97.352 Y78.677 E0.76246
G1 X97.706 Y78.496 E0.7856
G1 X98.77 Y77.974 E0.85458
G1 X99.129 Y77.805 E0.87768
G1 X100.066 Y77.384 E0.93747
G1 X100.422 Y77.231 E0.96002
G1 X101.38 Y76.838 E1.02029
G1 X101.756 Y76.692 E1.04377
G1 X102.854 Y76.285 E1.11193
G1 X103.233 Y76.151 E1.13533
G1 X104.142 Y75.849 E1.19108
G1 X104.51 Y75.734 E1.21352
G1 X105.685 Y75.386 E1.28485
G1 X106.084 Y75.275 E1.30895
G1 X106.994 Y75.04 E1.36366
G1 X107.344 Y74.956 E1.38461
G1 X108.398 Y74.718 E1.4475
G1 X108.801 Y74.634 E1.47146
G1 X109.953 Y74.416 E1.5397
G1 X110.349 Y74.348 E1.56309
G1 X111.355 Y74.193 E1.62234
G1 X111.735 Y74.141 E1.64466
G1 X112.745 Y74.019 E1.70387
G1 X113.148 Y73.977 E1.72746
G1 X114.312 Y73.877 E1.79546
G1 X114.703 Y73.85 E1.81827
G1 X115.733 Y73.796 E1.8783
G1 X116.121 Y73.782 E1.9009
G1 X117.21 Y73.761 E1.9643
G1 X117.612 Y73.76 E1.9877
G1 X118.753 Y73.777 E2.05412
G1 X119.156 Y73.79 E2.07759
G1 X120.11 Y73.837 E2.13318
G1 X120.491 Y73.862 E2.15541
G1 X121.614 Y73.954 E2.22099
G1 X122.019 Y73.994 E2.24468
G1 X123.157 Y74.127 E2.31137
G1 X123.536 Y74.178 E2.33362
G1 X124.496 Y74.322 E2.39013
G1 X124.886 Y74.387 E2.41314
G1 X125.964 Y74.586 E2.47695
G1 X126.35 Y74.664 E2.49987
G1 X127.43 Y74.901 E2.56422
G1 X127.829 Y74.996 E2.5881
G1 X128.808 Y75.247 E2.64692
G1 X129.167 Y75.345 E2.66858
G1 X130.269 Y75.665 E2.73538
G1 X130.666 Y75.788 E2.75957
G1 X131.638 Y76.108 E2.81913
G1 X131.989 Y76.23 E2.84076
G1 X133.045 Y76.615 E2.90618
G1 X133.425 Y76.761 E2.92987
G1 X134.387 Y77.15 E2.99027
G1 X134.752 Y77.305 E3.01335
G1 X135.738 Y77.743 E3.07615
G1 X136.097 Y77.91 E3.0992
G1 X137.076 Y78.385 E3.16253
G1 X137.428 Y78.563 E3.18549
G1 X138.395 Y79.073 E3.24912
G1 X138.737 Y79.261 E3.27184
G1 X139.601 Y79.754 E3.32974
G1 X139.942 Y79.956 E3.35281
G1 X140.966 Y80.587 E3.42282
G1 X141.29 Y80.794 E3.4452
G1 X142.057 Y81.302 E3.49875
G1 X142.399 Y81.537 E3.5229
G1 X143.397 Y82.25 E3.59429
G1 X143.706 Y82.479 E3.61667
G1 X144.455 Y83.052 E3.67156
G1 X144.768 Y83.3 E3.69481
G1 X145.692 Y84.058 E3.76437
G1 X145.99 Y84.31 E3.78709
G1 X146.708 Y84.94 E3.84268
G1 X147 Y85.205 E3.86564
G1 X147.866 Y86.018 E3.93477
G1 X148.156 Y86.3 E3.95832
G1 X148.854 Y87.002 E4.01594
G1 X149.117 Y87.275 E4.038
G1 X149.872 Y88.085 E4.10245
G1 X150.149 Y88.393 E4.12656
G1 X150.875 Y89.229 E4.19101
G1 X151.12 Y89.52 E4.21315
G1 X151.764 Y90.312 E4.27257
G1 X152.012 Y90.628 E4.29595
G1 X152.688 Y91.52 E4.36109
G1 X152.917 Y91.834 E4.38371
G1 X153.554 Y92.735 E4.44794
G1 X153.773 Y93.055 E4.47051
G1 X154.296 Y93.849 E4.52585
G1 X154.514 Y94.193 E4.54955
G1 X155.152 Y95.239 E4.62087
G1 X155.355 Y95.584 E4.64417
G1 X155.821 Y96.41 E4.69937
G1 X155.998 Y96.736 E4.72096
G1 X156.526 Y97.745 E4.78724
G1 X156.711 Y98.115 E4.81132
G1 X157.173 Y99.079 E4.87354
G1 X157.338 Y99.437 E4.89649
G1 X157.763 Y100.406 E4.95807
G1 X157.913 Y100.766 E4.98077
G1 X158.321 Y101.787 E5.04477
G1 X158.46 Y102.151 E5.06745
G1 X158.801 Y103.094 E5.12581
G1 X158.929 Y103.469 E5.14888
G1 X159.273 Y104.531 E5.21385
G1 X159.388 Y104.908 E5.2368
G1 X159.685 Y105.942 E5.29941
G1 X159.792 Y106.341 E5.32346
G1 X160.06 Y107.415 E5.38789
G1 X160.144 Y107.775 E5.4094
G1 X160.366 Y108.801 E5.4705
G1 X160.443 Y109.188 E5.49347
G1 X160.625 Y110.191 E5.5528
G1 X160.69 Y110.588 E5.57622
G1 X160.855 Y111.716 E5.64257
G1 X160.906 Y112.11 E5.6657
G1 X161.025 Y113.173 E5.72796
G1 X161.061 Y113.549 E5.74994
G1 X161.14 Y114.543 E5.80798
G1 X161.165 Y114.954 E5.83195
G1 X161.217 Y116.128 E5.90035
G1 X161.228 Y116.524 E5.92341
G1 X161.239 Y117.565 E5.984
G1 X161.237 Y117.951 E6.00647
G1 X161.213 Y119.027 E6.06911
G1 X161.197 Y119.441 E6.09323
G1 X161.128 Y120.638 E6.16301
G1 X161.098 Y121.031 E6.18596
G1 X161.018 Y121.907 E6.23716
G1 X160.978 Y122.285 E6.25928
G1 X160.838 Y123.413 E6.32544
G1 X160.78 Y123.817 E6.3492
G1 X160.595 Y124.977 E6.41757
G1 X160.528 Y125.358 E6.44008
G1 X160.349 Y126.283 E6.49492
G1 X160.27 Y126.657 E6.51717
G1 X160.018 Y127.765 E6.58331
G1 X159.917 Y128.177 E6.608
G1 X159.627 Y129.268 E6.67371
G1 X159.525 Y129.626 E6.69537
G1 X159.249 Y130.546 E6.75128
G1 X159.125 Y130.936 E6.7751
G1 X158.745 Y132.059 E6.84411
G1 X158.616 Y132.42 E6.86642
G1 X158.281 Y133.313 E6.92193
G1 X158.135 Y133.684 E6.94514
G1 X157.685 Y134.77 E7.01356
G1 X157.527 Y135.133 E7.0366
G1 X157.118 Y136.033 E7.09415
G1 X156.954 Y136.379 E7.11643
G1 X156.434 Y137.431 E7.18474
G1 X156.245 Y137.798 E7.20876
G1 X155.787 Y138.648 E7.26496
G1 X155.598 Y138.985 E7.28745
G1 X155.002 Y140.009 E7.35641
G1 X154.797 Y140.348 E7.37947
G1 X154.297 Y141.144 E7.43419
G1 X154.082 Y141.473 E7.45706
G1 X153.394 Y142.491 E7.52858
G1 X153.162 Y142.823 E7.55215
G1 X152.554 Y143.659 E7.61232
G1 X152.325 Y143.963 E7.63447
G1 X151.708 Y144.756 E7.69296
G1 X151.456 Y145.068 E7.7163
G1 X150.721 Y145.949 E7.78308
G1 X150.468 Y146.243 E7.80566
G1 X149.791 Y147.002 E7.86486
G1 X149.517 Y147.298 E7.88833
G1 X148.723 Y148.129 E7.95523
G1 X148.452 Y148.404 E7.9777
G1 X147.753 Y149.089 E8.03467
G1 X147.465 Y149.362 E8.05777
G1 X146.621 Y150.135 E8.12438
G1 X146.318 Y150.403 E8.14793
G1 X145.528 Y151.078 E8.20841
G1 X145.232 Y151.322 E8.23073
G1 X144.394 Y151.992 E8.29318
G1 X144.074 Y152.24 E8.31675
G1 X143.119 Y152.951 E8.38605
G1 X142.79 Y153.187 E8.40961
G1 X142.062 Y153.691 E8.46115
G1 X141.754 Y153.897 E8.48272
G1 X140.744 Y154.55 E8.55272
G1 X140.392 Y154.769 E8.57685
G1 X139.522 Y155.289 E8.63585
G1 X139.192 Y155.479 E8.65801
G1 X138.2 Y156.029 E8.72403
G1 X137.847 Y156.217 E8.74731
G1 X136.966 Y156.667 E8.80489
G1 X136.622 Y156.836 E8.8272
G1 X135.561 Y157.335 E8.89544
G1 X135.18 Y157.506 E8.91975
G1 X134.289 Y157.887 E8.97615
G1 X133.936 Y158.031 E8.99834
G1 X132.82 Y158.466 E9.06806
G1 X132.465 Y158.598 E9.09011
G1 X131.57 Y158.914 E9.14535
G1 X131.18 Y159.044 E9.16928
G1 X130.098 Y159.384 E9.23529
G1 X129.714 Y159.497 E9.25859
G1 X128.664 Y159.788 E9.32201
G1 X128.29 Y159.885 E9.3445
G1 X127.261 Y160.134 E9.40612
G1 X126.887 Y160.218 E9.42843
G1 X125.905 Y160.422 E9.48681
G1 X125.504 Y160.498 E9.51057
G1 X124.299 Y160.705 E9.58173
G1 X123.913 Y160.765 E9.60447
G1 X122.969 Y160.895 E9.65993
G1 X122.58 Y160.942 E9.68274
G1 X121.521 Y161.052 E9.74471
G1 X121.118 Y161.087 E9.76826
G1 X119.933 Y161.169 E9.83739
G1 X119.528 Y161.19 E9.861
G1 X118.515 Y161.225 E9.92
G1 X118.129 Y161.232 E9.94247
G1 X116.975 Y161.234 E10.00964
G1 X116.582 Y161.228 E10.03251
G1 X115.606 Y161.197 E10.08935
G1 X115.218 Y161.178 E10.11196
G1 X114.155 Y161.109 E10.17396
G1 X113.748 Y161.076 E10.19773
G1 X112.577 Y160.959 E10.26623
G1 X112.198 Y160.915 E10.28844
G1 X111.234 Y160.787 E10.34504
G1 X110.839 Y160.727 E10.36829
G1 X109.747 Y160.544 E10.43274
G1 X109.359 Y160.473 E10.4557
G1 X108.227 Y160.244 E10.52292
G1 X107.823 Y160.155 E10.547
G1 X106.895 Y159.933 E10.60254
G1 X106.529 Y159.839 E10.62453
G1 X105.425 Y159.537 E10.69115
G1 X105.06 Y159.43 E10.71329
G1 X104.075 Y159.126 E10.77329
G1 X103.694 Y159.002 E10.79661
G1 X102.701 Y158.658 E10.85778
G1 X102.321 Y158.519 E10.88133
G1 X101.234 Y158.1 E10.94914
G1 X100.869 Y157.952 E10.97206
G1 X99.995 Y157.581 E11.02733
G1 X99.639 Y157.423 E11.05
G1 X98.523 Y156.905 E11.12161
G1 X98.159 Y156.728 E11.14517
G1 X97.34 Y156.313 E11.19861
G1 X97.005 Y156.137 E11.22064
G1 X95.961 Y155.565 E11.28993
G1 X95.598 Y155.357 E11.31428
G1 X94.689 Y154.816 E11.37585
G1 X94.376 Y154.624 E11.39722
G1 X93.508 Y154.07 E11.45716
G1 X93.155 Y153.835 E11.48184
G1 X92.196 Y153.173 E11.54967
G1 X91.904 Y152.965 E11.57053
G1 X91.138 Y152.401 E11.6259
G1 X90.814 Y152.154 E11.64961
G1 X89.952 Y151.472 E11.71359
G1 X89.636 Y151.212 E11.73741
G1 X88.739 Y150.45 E11.80592
G1 X88.449 Y150.196 E11.82835
G1 X87.778 Y149.587 E11.8811
G1 X87.496 Y149.322 E11.90362
G1 X86.607 Y148.46 E11.9757
G1 X86.323 Y148.175 E11.99911
G1 X85.645 Y147.471 E12.056
G1 X85.374 Y147.18 E12.07915
G1 X84.646 Y146.371 E12.1425
G1 X84.39 Y146.077 E12.16519
G1 X83.678 Y145.231 E12.22955
G1 X83.424 Y144.919 E12.25296
G1 X82.757 Y144.069 E12.31585
G1 X82.528 Y143.766 E12.33796
G1 X81.941 Y142.966 E12.39571
G1 X81.704 Y142.631 E12.4196
G1 X81.022 Y141.63 E12.4901
G1 X80.813 Y141.313 E12.5122
G1 X80.324 Y140.543 E12.56529
G1 X80.109 Y140.19 E12.58935
G1 X79.473 Y139.106 E12.6625
G1 X79.285 Y138.774 E12.68471
G1 X78.857 Y137.987 E12.73685
G1 X78.669 Y137.628 E12.76044
G1 X78.115 Y136.52 E12.83254
G1 X77.945 Y136.164 E12.8555
G1 X77.562 Y135.329 E12.90897
G1 X77.409 Y134.98 E12.93115
G1 X76.944 Y133.873 E13.00104
G1 X76.794 Y133.499 E13.0245
G1 X76.424 Y132.526 E13.08509
G1 X76.284 Y132.137 E13.10915
G1 X75.935 Y131.112 E13.17217
G1 X75.821 Y130.757 E13.19388
G1 X75.518 Y129.765 E13.25425
G1 X75.409 Y129.387 E13.27715
G1 X75.131 Y128.354 E13.33941
G1 X75.032 Y127.959 E13.36311
G1 X74.776 Y126.857 E13.42896
G1 X74.696 Y126.485 E13.45111
G1 X74.491 Y125.452 E13.51241
G1 X74.419 Y125.053 E13.53601
G1 X74.257 Y124.058 E13.59469
G1 X74.2 Y123.671 E13.61745
G1 X74.048 Y122.491 E13.6867
G1 X74.005 Y122.106 E13.70925
G1 X73.913 Y121.142 E13.76562
G1 X73.882 Y120.746 E13.78874
G1 X73.816 Y119.671 E13.85143
G1 X73.798 Y119.271 E13.87473
G1 X73.766 Y118.096 E13.94315
G1 X73.762 Y117.704 E13.96596
G1 X73.768 Y116.727 E14.02283
G1 X73.777 Y116.333 E14.04577
G1 X73.823 Y115.175 E14.11323
G1 X73.847 Y114.763 E14.13725
G1 X73.922 Y113.762 E14.19567
G1 X73.955 Y113.4 E14.21683
G1 X74.067 Y112.345 E14.27858
G1 X74.117 Y111.939 E14.30239
G1 X74.279 Y110.794 E14.3697
G1 X74.341 Y110.401 E14.39286
G1 X74.514 Y109.419 E14.4509
G1 X74.586 Y109.045 E14.47307
G1 X74.813 Y107.963 E14.53741
G1 X74.904 Y107.567 E14.56106
G1 X75.163 Y106.515 E14.62413
G1 X75.267 Y106.122 E14.64779
G1 X75.559 Y105.091 E14.71016
G1 X75.671 Y104.718 E14.73283
G1 X76 Y103.688 E14.79576
G1 X76.123 Y103.323 E14.81818
G1 X76.48 Y102.32 E14.88015
G1 X76.622 Y101.942 E14.90365
G1 X77.025 Y100.922 E14.96749
G1 X77.175 Y100.562 E14.99019
G1 X77.616 Y99.546 E15.05465
G1 X77.779 Y99.187 E15.0776
G1 X78.198 Y98.304 E15.13449
G1 X78.377 Y97.942 E15.15799
G1 X78.915 Y96.902 E15.22615
G1 X79.105 Y96.55 E15.24943
G1 X79.609 Y95.652 E15.30937
G1 X79.801 Y95.322 E15.33159
G1 X80.355 Y94.406 E15.3939
G1 X80.561 Y94.078 E15.41644
G1 X81.15 Y93.173 E15.47929
G1 X81.381 Y92.832 E15.50327
G1 X81.979 Y91.98 E15.56385
G1 X82.211 Y91.661 E15.58681
G1 X82.91 Y90.733 E15.65443
G1 X83.142 Y90.434 E15.67646
G1 X83.749 Y89.68 E15.7328
G1 X84.007 Y89.37 E15.75628
G1 X84.783 Y88.471 E15.8254
G1 X85.036 Y88.187 E15.84754
G1 X85.68 Y87.488 E15.90286
G1 X85.964 Y87.191 E15.92678
G1 X86.795 Y86.35 E15.9956
G0 F3600 X87.151 Y86.702
G1 F2400 X87.419 Y86.439 E16.01745
G1 X88.151 Y85.746 E16.07612
G1 X88.435 Y85.487 E16.09849
G1 X89.27 Y84.749 E16.16336
G1 X89.551 Y84.508 E16.18491
G1 X90.383 Y83.82 E16.24774
G1 X90.669 Y83.591 E16.26907
G1 X91.415 Y83.014 E16.32396
G1 X91.731 Y82.779 E16.34689
G1 X92.763 Y82.037 E16.42087
G1 X93.07 Y81.823 E16.44265
G1 X93.851 Y81.3 E16.49736
G1 X94.16 Y81.101 E16.51875
G1 X95.092 Y80.52 E16.58268
G1 X95.418 Y80.324 E16.60482
G1 X96.369 Y79.775 E16.66873
G1 X96.7 Y79.591 E16.69077
G1 X97.587 Y79.118 E16.74928
G1 X97.926 Y78.945 E16.77144
G1 X98.99 Y78.423 E16.84042
G1 X99.334 Y78.261 E16.86255
G1 X100.271 Y77.84 E16.92234
G1 X100.612 Y77.694 E16.94393
G1 X101.57 Y77.301 E17.0042
G1 X101.93 Y77.16 E17.0267
G1 X103.028 Y76.753 E17.09486
G1 X103.391 Y76.626 E17.11725
G1 X104.3 Y76.324 E17.173
G1 X104.652 Y76.213 E17.19448
G1 X105.827 Y75.865 E17.26581
G1 X106.209 Y75.759 E17.28888
G1 X107.119 Y75.524 E17.34359
G1 X107.454 Y75.443 E17.36365
G1 X108.508 Y75.205 E17.42654
G1 X108.894 Y75.125 E17.44949
G1 X110.046 Y74.907 E17.51773
G1 X110.425 Y74.842 E17.54011
G1 X111.431 Y74.687 E17.59936
G1 X111.795 Y74.637 E17.62074
G1 X112.805 Y74.515 E17.67996
G1 X113.191 Y74.475 E17.70254
G1 X114.355 Y74.375 E17.77055
G1 X114.729 Y74.349 E17.79237
G1 X115.759 Y74.295 E17.8524
G1 X116.131 Y74.282 E17.87407
G1 X117.22 Y74.261 E17.93746
G1 X117.605 Y74.26 E17.95987
G1 X118.746 Y74.277 E18.02629
G1 X119.132 Y74.29 E18.04877
G1 X120.086 Y74.337 E18.10437
G1 X120.451 Y74.361 E18.12566
G1 X121.574 Y74.453 E18.19124
G1 X121.961 Y74.491 E18.21387
G1 X123.099 Y74.624 E18.28056
G1 X123.462 Y74.672 E18.30188
G1 X124.422 Y74.816 E18.35838
G1 X124.795 Y74.879 E18.3804
G1 X125.873 Y75.078 E18.4442
G1 X126.242 Y75.152 E18.46611
G1 X127.322 Y75.389 E18.53046
G1 X127.705 Y75.48 E18.55338
G1 X128.684 Y75.731 E18.6122
G1 X129.027 Y75.825 E18.6329
G1 X130.129 Y76.145 E18.6997
G1 X130.51 Y76.263 E18.72291
G1 X131.482 Y76.583 E18.78247
G1 X131.817 Y76.7 E18.80313
G1 X132.873 Y77.085 E18.86855
G1 X133.237 Y77.224 E18.89123
G1 X134.199 Y77.613 E18.95163
G1 X134.549 Y77.762 E18.97377
G1 X135.535 Y78.2 E19.03657
G1 X135.879 Y78.359 E19.05862
G1 X136.858 Y78.834 E19.12196
G1 X137.195 Y79.005 E19.14396
G1 X138.162 Y79.515 E19.20759
G1 X138.489 Y79.695 E19.22931
G1 X139.353 Y80.188 E19.28721
G1 X139.68 Y80.381 E19.30932
G1 X140.704 Y81.012 E19.37932
G1 X141.014 Y81.211 E19.40077
G1 X141.781 Y81.719 E19.45431
G1 X142.109 Y81.944 E19.47746
G1 X143.107 Y82.657 E19.54886
G1 X143.403 Y82.876 E19.57029
G1 X144.152 Y83.449 E19.62518
G1 X144.451 Y83.686 E19.64738
G1 X145.375 Y84.444 E19.71695
G1 X145.66 Y84.686 E19.73871
G1 X146.378 Y85.316 E19.79431
G1 X146.658 Y85.57 E19.81631
G1 X147.524 Y86.383 E19.88545
G1 X147.802 Y86.653 E19.90801
G1 X148.5 Y87.355 E19.96563
G1 X148.751 Y87.616 E19.9867
G1 X149.506 Y88.426 E20.05115
G1 X149.771 Y88.721 E20.07423
G1 X150.497 Y89.557 E20.13868
G1 X150.732 Y89.836 E20.15991
G1 X151.376 Y90.628 E20.21933
G1 X151.613 Y90.93 E20.24167
G1 X152.289 Y91.822 E20.30682
G1 X152.509 Y92.123 E20.32852
G1 X153.146 Y93.024 E20.39274
G1 X153.355 Y93.33 E20.41431
G1 X153.878 Y94.124 E20.46965
G1 X154.087 Y94.454 E20.49239
G1 X154.725 Y95.5 E20.5637
G1 X154.919 Y95.83 E20.58598
G1 X155.385 Y96.656 E20.64118
G1 X155.555 Y96.968 E20.66187
G1 X156.083 Y97.977 E20.72815
G1 X156.26 Y98.331 E20.75119
G1 X156.722 Y99.295 E20.81341
G1 X156.88 Y99.638 E20.83539
G1 X157.305 Y100.607 E20.89697
G1 X157.449 Y100.951 E20.91868
G1 X157.857 Y101.972 E20.98268
G1 X157.99 Y102.321 E21.00442
G1 X158.331 Y103.264 E21.06278
G1 X158.454 Y103.623 E21.08487
G1 X158.798 Y104.685 E21.14985
G1 X158.908 Y105.046 E21.17181
G1 X159.205 Y106.08 E21.23443
G1 X159.307 Y106.462 E21.25744
G1 X159.575 Y107.536 E21.32187
G1 X159.656 Y107.881 E21.3425
G1 X159.878 Y108.907 E21.4036
G1 X159.951 Y109.277 E21.42555
G1 X160.133 Y110.28 E21.48488
G1 X160.196 Y110.661 E21.50736
G1 X160.361 Y111.789 E21.57372
G1 X160.409 Y112.165 E21.59578
G1 X160.528 Y113.228 E21.65804
G1 X160.563 Y113.589 E21.67915
G1 X160.642 Y114.583 E21.73719
G1 X160.666 Y114.976 E21.7601
G1 X160.718 Y116.15 E21.8285
G1 X160.728 Y116.529 E21.85057
G1 X160.739 Y117.57 E21.91117
