;FLAVOR:Marlin
;TIME:3113
;Filament used: 2.79622m
;Layer height: 0.2
;MINX:83.915
;MINY:83.794
;MINZ:0.2
;MAXX:152.518
;MAXY:150.761
;MAXZ:14.2
;Generated with Cura_SteamEngine 4.8.0
M140 S50
M105
M190 S50
M104 S200
M105
M109 S200
M82 ;absolute extrusion mode
; Ender 3 Custom Start G-code
G1 Z20.0 F3000 ; Move Z Axis up to prevent crashing in side of build plate
G28 ; Home all axes
M420 S1 ;
G29 ;
G92 E ;
G92 E0 ; Reset Extruder
G1 X5.1 Y20 Z0.3 F5000.0 ; Move to start position
G1 X5.1 Y200.0 Z0.3 F1500.0 E15 ; Draw the first line
G1 X0.4 Y200.0 Z0.3 F5000.0 ; Move to side a little
G1 X0.4 Y20 Z0.3 F1500.0 E30 ; Draw the second line
G92 E0 ; Reset Extruder
G1 Z2.0 F3000 ; Move Z Axis up little to prevent scratching of Heat Bed
G92 E0
G92 E0
G1 F2700 E-5
;LAYER_COUNT:70
;LAYER:0
M107
G1 F600 Z0.4
G0 F2400 X97.583 Y94.828 Z0.4
;TYPE:SKIRT
G1 F600 Z0.2
G1 F2700 E0
G1 F1200 X97.887 Y94.518 E0.02256
G1 X98.33 Y94.083 E0.05483
G1 X98.603 Y93.823 E0.07442
G1 X99.146 Y93.323 E0.11278
G1 X99.464 Y93.04 E0.13491
G1 X99.943 Y92.63 E0.16767
G1 X100.225 Y92.397 E0.18668
G1 X100.81 Y91.927 E0.22568
G1 X101.146 Y91.667 E0.24776
G1 X101.657 Y91.286 E0.28088
G1 X101.989 Y91.047 E0.30214
G1 X102.627 Y90.605 E0.34248
G1 X102.941 Y90.395 E0.36211
G1 X103.444 Y90.07 E0.39323
G1 X103.805 Y89.846 E0.41531
G1 X104.419 Y89.48 E0.45246
G1 X104.733 Y89.299 E0.4713
G1 X105.378 Y88.941 E0.50963
G1 X105.754 Y88.742 E0.53174
G1 X106.279 Y88.475 E0.56235
G1 X106.652 Y88.293 E0.58392
G1 X107.392 Y87.949 E0.62633
G1 X107.753 Y87.788 E0.64687
G1 X108.323 Y87.546 E0.67905
G1 X108.678 Y87.402 E0.69896
G1 X109.304 Y87.16 E0.73384
G1 X109.696 Y87.017 E0.75552
G1 X110.415 Y86.768 E0.79507
G1 X110.785 Y86.647 E0.8153
G1 X111.418 Y86.451 E0.84974
G1 X111.816 Y86.335 E0.87128
G1 X112.461 Y86.16 E0.90601
G1 X112.837 Y86.065 E0.92617
G1 X113.527 Y85.902 E0.96301
G1 X113.927 Y85.815 E0.98429
G1 X114.598 Y85.681 E1.01985
G1 X114.987 Y85.61 E1.04039
G1 X115.648 Y85.501 E1.07521
G1 X116.044 Y85.442 E1.09602
G1 X116.774 Y85.347 E1.13427
G1 X117.188 Y85.301 E1.15592
G1 X117.846 Y85.239 E1.19027
G1 X118.229 Y85.209 E1.21023
G1 X120.209 Y85.088 E1.31332
G1 X122.829 Y84.89 E1.44987
G1 X125.298 Y84.634 E1.57887
G1 X127.769 Y84.306 E1.70841
G1 X129.133 Y84.095 E1.78014
G1 X129.995 Y83.955 E1.82553
G1 X130.957 Y83.839 E1.87588
G1 X131.691 Y83.805 E1.91407
G1 X132.308 Y83.795 E1.94614
G1 X132.663 Y83.794 E1.96459
G1 X133.018 Y83.799 E1.98304
G1 X133.986 Y83.853 E2.03342
G1 X134.946 Y83.986 E2.08379
G1 X135.892 Y84.198 E2.13417
G1 X136.818 Y84.487 E2.18458
G1 X137.716 Y84.851 E2.23494
G1 X138.581 Y85.289 E2.28533
G1 X139.603 Y85.931 E2.34805
G1 X140.076 Y86.263 E2.37808
G1 X140.309 Y86.43 E2.39298
G1 X140.604 Y86.648 E2.41204
G1 X141.359 Y87.256 E2.46242
G1 X142.062 Y87.924 E2.51282
G1 X142.707 Y88.648 E2.56321
G1 X143.29 Y89.422 E2.61357
G1 X143.807 Y90.241 E2.6639
G1 X144.256 Y91.101 E2.71432
G1 X144.679 Y92.126 E2.77194
G1 X145.549 Y94.548 E2.90569
G1 X146.465 Y96.883 E3.03604
G1 X147.444 Y99.188 E3.16618
G1 X148.477 Y101.437 E3.2948
G1 X149.095 Y102.693 E3.36755
G1 X149.201 Y102.915 E3.38033
G1 X149.679 Y103.94 E3.43911
G1 X149.846 Y104.316 E3.46049
G1 X150.093 Y104.898 E3.49334
G1 X150.237 Y105.253 E3.51325
G1 X150.492 Y105.913 E3.55002
G1 X150.634 Y106.301 E3.5715
G1 X150.87 Y106.982 E3.60895
G1 X150.994 Y107.36 E3.62963
G1 X151.193 Y108.004 E3.66465
G1 X151.304 Y108.384 E3.68523
G1 X151.48 Y109.03 E3.72002
G1 X151.582 Y109.434 E3.74168
G1 X151.739 Y110.103 E3.77739
G1 X151.817 Y110.461 E3.79643
G1 X151.955 Y111.144 E3.83264
G1 X152.031 Y111.556 E3.85442
G1 X152.142 Y112.228 E3.88981
G1 X152.202 Y112.632 E3.91104
G1 X152.3 Y113.388 E3.95066
G1 X152.344 Y113.786 E3.97147
G1 X152.399 Y114.364 E4.00164
G1 X152.43 Y114.752 E4.02187
G1 X152.48 Y115.561 E4.06399
G1 X152.498 Y115.979 E4.08573
G1 X152.514 Y116.592 E4.1176
G1 X152.518 Y116.984 E4.13797
G1 X152.513 Y117.677 E4.17399
G1 X152.503 Y118.077 E4.19478
G1 X152.472 Y118.828 E4.23385
G1 X152.447 Y119.249 E4.25576
G1 X152.401 Y119.844 E4.28678
G1 X152.366 Y120.222 E4.30651
G1 X152.282 Y120.986 E4.34645
G1 X152.229 Y121.396 E4.36793
G1 X152.134 Y122.048 E4.40217
G1 X152.07 Y122.44 E4.42282
G1 X151.943 Y123.144 E4.45999
G1 X151.867 Y123.53 E4.48044
G1 X151.734 Y124.148 E4.51329
G1 X151.641 Y124.546 E4.53453
G1 X151.443 Y125.332 E4.57665
G1 X151.338 Y125.722 E4.59764
G1 X151.176 Y126.283 E4.62799
G1 X151.058 Y126.665 E4.64877
G1 X150.851 Y127.3 E4.68348
G1 X150.726 Y127.664 E4.70348
G1 X150.462 Y128.392 E4.74372
G1 X150.312 Y128.784 E4.76553
G1 X150.065 Y129.396 E4.79983
G1 X149.914 Y129.752 E4.81993
G1 X149.645 Y130.36 E4.85448
G1 X149.471 Y130.736 E4.87601
G1 X149.141 Y131.416 E4.91529
G1 X148.963 Y131.767 E4.93574
G1 X148.693 Y132.279 E4.96583
G1 X147.514 Y134.589 E5.10061
G1 X146.428 Y136.879 E5.23232
G1 X145.439 Y139.12 E5.35962
G1 X144.465 Y141.511 E5.49379
G1 X143.998 Y142.737 E5.56197
G1 X143.97 Y142.807 E5.56589
G1 X143.573 Y143.691 E5.61625
G1 X143.104 Y144.54 E5.66666
G1 X142.568 Y145.347 E5.717
G1 X141.966 Y146.107 E5.76739
G1 X141.304 Y146.815 E5.81776
G1 X140.586 Y147.466 E5.86813
G1 X140.123 Y147.833 E5.89883
G1 X139.659 Y148.182 E5.92901
G1 X139.38 Y148.386 E5.94697
G1 X139.083 Y148.596 E5.96587
G1 X138.269 Y149.122 E6.01624
G1 X137.414 Y149.58 E6.06664
G1 X136.525 Y149.966 E6.11701
G1 X135.607 Y150.277 E6.16738
G1 X134.666 Y150.511 E6.21778
G1 X133.71 Y150.667 E6.26811
G1 X132.498 Y150.75 E6.33125
G1 X131.908 Y150.76 E6.36191
G1 X131.545 Y150.761 E6.38078
G1 X131.186 Y150.756 E6.39944
G1 X130.219 Y150.702 E6.44977
G1 X129.203 Y150.559 E6.50309
G1 X127.861 Y150.309 E6.57403
G1 X127.433 Y150.224 E6.59671
G1 X125.025 Y149.812 E6.72367
G1 X122.498 Y149.454 E6.85631
G1 X120.057 Y149.178 E6.98397
G1 X117.92 Y148.992 E7.09545
G1 X117.798 Y148.983 E7.10181
G1 X117.379 Y148.944 E7.12368
G1 X116.64 Y148.862 E7.16232
G1 X116.255 Y148.813 E7.18249
G1 X115.591 Y148.717 E7.21735
G1 X115.18 Y148.65 E7.23899
G1 X114.55 Y148.536 E7.27227
G1 X114.177 Y148.463 E7.29202
G1 X113.394 Y148.295 E7.33364
G1 X112.97 Y148.195 E7.35627
G1 X112.418 Y148.055 E7.38587
G1 X112.055 Y147.957 E7.40541
G1 X111.312 Y147.743 E7.44559
G1 X110.931 Y147.626 E7.46631
G1 X110.362 Y147.441 E7.4974
G1 X109.973 Y147.307 E7.51878
G1 X109.188 Y147.021 E7.5622
G1 X108.81 Y146.876 E7.58324
G1 X108.285 Y146.664 E7.61266
G1 X107.917 Y146.508 E7.63344
G1 X107.257 Y146.215 E7.67096
G1 X106.901 Y146.05 E7.69136
G1 X106.218 Y145.719 E7.7308
G1 X105.854 Y145.534 E7.75202
G1 X105.288 Y145.235 E7.78528
G1 X104.942 Y145.046 E7.80577
G1 X104.386 Y144.728 E7.83906
G1 X104.046 Y144.525 E7.85964
G1 X103.374 Y144.11 E7.90069
G1 X103.03 Y143.89 E7.92191
G1 X102.532 Y143.558 E7.95301
G1 X102.203 Y143.33 E7.97381
G1 X101.588 Y142.889 E8.01314
G1 X101.254 Y142.64 E8.03479
G1 X100.736 Y142.24 E8.0688
G1 X100.432 Y141.997 E8.08903
G1 X99.902 Y141.559 E8.12476
G1 X99.592 Y141.294 E8.14596
G1 X99.036 Y140.801 E8.18457
G1 X98.763 Y140.551 E8.20381
G1 X98.295 Y140.109 E8.23727
G1 X97.987 Y139.807 E8.25968
G1 X97.503 Y139.315 E8.29555
G1 X97.238 Y139.037 E8.31551
G1 X96.745 Y138.502 E8.35332
G1 X96.467 Y138.19 E8.37503
G1 X96.033 Y137.684 E8.40968
G1 X95.778 Y137.376 E8.43046
G1 X95.345 Y136.835 E8.46647
G1 X95.099 Y136.516 E8.48741
G1 X94.718 Y136.005 E8.52053
G1 X94.485 Y135.681 E8.54127
G1 X94.011 Y134.998 E8.58448
G1 X93.791 Y134.67 E8.605
G1 X93.112 Y133.618 E8.67007
G1 X91.684 Y131.47 E8.80412
G1 X90.218 Y129.396 E8.93611
G1 X88.756 Y127.444 E9.06285
G1 X86.787 Y124.971 E9.22713
G1 X86.212 Y124.191 E9.27749
G1 X85.704 Y123.365 E9.32788
G1 X85.266 Y122.5 E9.37827
G1 X84.844 Y121.44 E9.43756
G1 X84.649 Y120.872 E9.46877
G1 X84.534 Y120.52 E9.48802
G1 X84.431 Y120.186 E9.50618
G1 X84.184 Y119.248 E9.55659
G1 X84.014 Y118.294 E9.60695
G1 X83.925 Y117.329 E9.65731
G1 X83.915 Y116.359 E9.70773
G1 X83.985 Y115.393 E9.75806
G1 X84.134 Y114.435 E9.80844
G1 X84.431 Y113.261 E9.87138
G1 X84.608 Y112.687 E9.90259
G1 X84.702 Y112.393 E9.91864
G1 X84.814 Y112.061 E9.93684
G1 X85.162 Y111.156 E9.98723
G1 X85.583 Y110.283 E10.0376
G1 X86.074 Y109.447 E10.08799
G1 X86.633 Y108.655 E10.13837
G1 X87.055 Y108.151 E10.17253
G1 X87.049 Y108.146 E10.17293
G1 X88.804 Y106.106 E10.31278
G1 X90.358 Y104.196 E10.44075
G1 X91.879 Y102.21 E10.57075
G1 X93.335 Y100.196 E10.6999
G1 X93.984 Y99.247 E10.75965
G1 X94.138 Y99.028 E10.77356
G1 X94.705 Y98.238 E10.8241
G1 X94.948 Y97.911 E10.84527
G1 X95.458 Y97.25 E10.88866
G1 X95.696 Y96.952 E10.90848
G1 X96.044 Y96.53 E10.93691
G1 X96.304 Y96.226 E10.95769
G1 X96.79 Y95.676 E10.99584
G1 X97.059 Y95.382 E11.01655
G1 X97.583 Y94.828 E11.05618
G0 F2400 X97.946 Y95.171
G1 F1200 X98.237 Y94.875 E11.07775
G1 X98.68 Y94.44 E11.11001
G1 X98.941 Y94.191 E11.12876
G1 X99.484 Y93.691 E11.16712
G1 X99.789 Y93.42 E11.18832
G1 X100.268 Y93.01 E11.22109
G1 X100.538 Y92.787 E11.23929
G1 X101.123 Y92.317 E11.27829
G1 X101.444 Y92.068 E11.2994
G1 X101.955 Y91.687 E11.33252
G1 X102.273 Y91.458 E11.35289
G1 X102.911 Y91.016 E11.39323
G1 X103.213 Y90.815 E11.41208
G1 X103.716 Y90.49 E11.4432
G1 X104.061 Y90.276 E11.4643
G1 X104.675 Y89.91 E11.50145
G1 X104.975 Y89.737 E11.51944
G1 X105.62 Y89.379 E11.55778
G1 X105.98 Y89.187 E11.57898
G1 X106.505 Y88.92 E11.60959
G1 X106.863 Y88.746 E11.63028
G1 X107.603 Y88.402 E11.67269
G1 X107.949 Y88.249 E11.69235
G1 X108.519 Y88.007 E11.72453
G1 X108.859 Y87.869 E11.7436
G1 X109.485 Y87.627 E11.77848
G1 X109.859 Y87.489 E11.7992
G1 X110.578 Y87.24 E11.83874
G1 X110.932 Y87.124 E11.8581
G1 X111.565 Y86.928 E11.89254
G1 X111.947 Y86.818 E11.9132
G1 X112.592 Y86.643 E11.94793
G1 X112.952 Y86.551 E11.96724
G1 X113.642 Y86.388 E12.00408
G1 X114.025 Y86.305 E12.02445
G1 X114.696 Y86.171 E12.06001
G1 X115.069 Y86.103 E12.07971
G1 X115.73 Y85.994 E12.11453
G1 X116.108 Y85.938 E12.13439
G1 X116.838 Y85.843 E12.17264
G1 X117.235 Y85.799 E12.1934
G1 X117.893 Y85.737 E12.22775
G1 X118.26 Y85.708 E12.24688
G1 X120.277 Y85.584 E12.3519
G1 X122.844 Y85.391 E12.48568
G1 X125.348 Y85.131 E12.61651
G1 X127.904 Y84.792 E12.75051
G1 X129.164 Y84.597 E12.81677
G1 X130.075 Y84.449 E12.86473
G1 X131.017 Y84.336 E12.91404
G1 X131.699 Y84.304 E12.94952
G1 X132.316 Y84.294 E12.98159
G1 X132.656 Y84.294 E12.99926
G1 X133.011 Y84.299 E13.01771
G1 X133.958 Y84.352 E13.067
G1 X134.898 Y84.485 E13.11634
G1 X135.822 Y84.697 E13.16561
G1 X136.726 Y84.986 E13.21493
G1 X137.602 Y85.349 E13.26421
G1 X138.444 Y85.786 E13.31351
G1 X139.316 Y86.34 E13.3672
G1 X139.789 Y86.672 E13.39723
G1 X140.012 Y86.832 E13.41149
G1 X140.307 Y87.05 E13.43055
G1 X141.045 Y87.646 E13.47985
G1 X141.731 Y88.301 E13.52914
G1 X142.359 Y89.012 E13.57844
G1 X142.925 Y89.773 E13.62773
G1 X143.424 Y90.579 E13.677
G1 X143.854 Y91.425 E13.72631
G1 X144.209 Y92.295 E13.77515
G1 X145.095 Y94.762 E13.91137
G1 X145.988 Y97.039 E14.03848
G1 X146.99 Y99.395 E14.17153
G1 X148.036 Y101.673 E14.3018
G1 X148.646 Y102.914 E14.37367
G1 X148.748 Y103.126 E14.38589
G1 X149.226 Y104.151 E14.44467
G1 X149.386 Y104.511 E14.46514
G1 X149.633 Y105.093 E14.498
G1 X149.771 Y105.434 E14.51712
G1 X150.026 Y106.094 E14.55389
G1 X150.162 Y106.464 E14.57437
G1 X150.398 Y107.145 E14.61183
G1 X150.517 Y107.508 E14.63168
G1 X150.716 Y108.152 E14.66671
G1 X150.821 Y108.516 E14.6864
G1 X150.997 Y109.162 E14.72119
G1 X151.095 Y109.549 E14.74194
G1 X151.252 Y110.218 E14.77765
G1 X151.327 Y110.56 E14.79585
G1 X151.465 Y111.243 E14.83206
G1 X151.538 Y111.638 E14.85294
G1 X151.649 Y112.31 E14.88833
G1 X151.706 Y112.697 E14.90866
G1 X151.804 Y113.453 E14.94828
G1 X151.846 Y113.833 E14.96815
G1 X151.901 Y114.411 E14.99832
G1 X151.931 Y114.783 E15.01772
G1 X151.981 Y115.592 E15.05984
G1 X151.998 Y115.992 E15.08064
G1 X152.014 Y116.605 E15.11251
G1 X152.018 Y116.98 E15.132
G1 X152.013 Y117.673 E15.16802
G1 X152.003 Y118.056 E15.18793
G1 X151.972 Y118.807 E15.22699
G1 X151.949 Y119.21 E15.24797
G1 X151.903 Y119.805 E15.27898
G1 X151.869 Y120.168 E15.29793
G1 X151.785 Y120.932 E15.33787
G1 X151.734 Y121.324 E15.35842
G1 X151.639 Y121.976 E15.39266
G1 X151.578 Y122.351 E15.4124
G1 X151.451 Y123.055 E15.44958
G1 X151.378 Y123.425 E15.46918
G1 X151.245 Y124.043 E15.50203
G1 X151.156 Y124.424 E15.52236
G1 X150.958 Y125.21 E15.56449
G1 X150.857 Y125.583 E15.58457
G1 X150.695 Y126.144 E15.61492
G1 X150.583 Y126.51 E15.63481
G1 X150.376 Y127.145 E15.66952
G1 X150.256 Y127.493 E15.68865
G1 X149.992 Y128.221 E15.72889
G1 X149.848 Y128.596 E15.74977
G1 X149.601 Y129.208 E15.78406
G1 X149.457 Y129.55 E15.80335
G1 X149.188 Y130.158 E15.8379
G1 X149.021 Y130.518 E15.85852
G1 X148.691 Y131.198 E15.8978
G1 X148.521 Y131.534 E15.91737
G1 X148.222 Y132.101 E15.95069
G1 X147.071 Y134.358 E16.08235
G1 X145.98 Y136.656 E16.21455
G1 X144.978 Y138.927 E16.34355
G1 X143.999 Y141.331 E16.47845
G1 X143.606 Y142.365 E16.53593
G1 X143.505 Y142.621 E16.55024
G1 X143.116 Y143.486 E16.59952
G1 X142.656 Y144.315 E16.6488
G1 X142.127 Y145.103 E16.69812
G1 X141.534 Y145.843 E16.7474
G1 X140.88 Y146.53 E16.79669
G1 X139.822 Y147.434 E16.86901
G1 X139.358 Y147.783 E16.89919
G1 X139.091 Y147.978 E16.91637
G1 X138.794 Y148.188 E16.93527
G1 X137.997 Y148.702 E16.98456
G1 X137.16 Y149.148 E17.03385
G1 X136.288 Y149.521 E17.08314
G1 X135.388 Y149.82 E17.13242
G1 X134.465 Y150.041 E17.18174
G1 X133.528 Y150.185 E17.23101
G1 X132.49 Y150.25 E17.28506
G1 X131.9 Y150.26 E17.31573
G1 X131.552 Y150.261 E17.33381
G1 X131.193 Y150.256 E17.35247
G1 X130.246 Y150.203 E17.40176
G1 X129.294 Y150.068 E17.45173
G1 X128.105 Y149.847 E17.51458
G1 X127.572 Y149.741 E17.54282
G1 X125.074 Y149.314 E17.67452
G1 X122.588 Y148.962 E17.80501
G1 X120.08 Y148.678 E17.93618
G1 X118.001 Y148.497 E18.04463
G1 X117.835 Y148.485 E18.05328
G1 X117.434 Y148.447 E18.07421
G1 X116.695 Y148.365 E18.11285
G1 X116.326 Y148.318 E18.13219
G1 X115.662 Y148.222 E18.16705
G1 X115.269 Y148.158 E18.18774
G1 X114.639 Y148.044 E18.22102
G1 X114.282 Y147.974 E18.23992
G1 X113.499 Y147.806 E18.28154
G1 X113.093 Y147.711 E18.30321
G1 X112.541 Y147.571 E18.33281
G1 X112.193 Y147.477 E18.35154
G1 X111.45 Y147.263 E18.39172
G1 X111.086 Y147.151 E18.41151
G1 X110.517 Y146.966 E18.44261
G1 X110.144 Y146.837 E18.46312
G1 X109.359 Y146.551 E18.50654
G1 X108.998 Y146.413 E18.52662
G1 X108.473 Y146.201 E18.55605
G1 X108.12 Y146.051 E18.57598
G1 X107.46 Y145.758 E18.61351
G1 X107.119 Y145.6 E18.63304
G1 X106.436 Y145.269 E18.67248
G1 X106.087 Y145.092 E18.69282
G1 X105.521 Y144.793 E18.72608
G1 X105.191 Y144.612 E18.74564
G1 X104.635 Y144.294 E18.77893
G1 X104.309 Y144.1 E18.79865
G1 X103.637 Y143.685 E18.83969
G1 X103.308 Y143.474 E18.86
G1 X102.81 Y143.142 E18.89111
G1 X102.494 Y142.923 E18.91109
G1 X101.879 Y142.482 E18.95042
G1 X101.559 Y142.244 E18.97114
G1 X101.041 Y141.844 E19.00515
G1 X100.75 Y141.612 E19.0245
G1 X100.22 Y141.174 E19.06023
G1 X99.923 Y140.92 E19.08054
G1 X99.367 Y140.427 E19.11915
G1 X99.106 Y140.188 E19.13755
G1 X98.638 Y139.746 E19.171
G1 X98.343 Y139.456 E19.1925
G1 X97.859 Y138.964 E19.22836
G1 X97.606 Y138.699 E19.24741
G1 X97.113 Y138.164 E19.28521
G1 X96.847 Y137.864 E19.30605
G1 X96.413 Y137.358 E19.34069
G1 X96.169 Y137.064 E19.36055
G1 X95.736 Y136.523 E19.39656
G1 X95.5 Y136.218 E19.4166
G1 X95.119 Y135.707 E19.44973
G1 X94.896 Y135.396 E19.46962
G1 X94.422 Y134.713 E19.51282
G1 X94.211 Y134.399 E19.53248
G1 X93.521 Y133.33 E19.5986
G1 X92.082 Y131.165 E19.7337
G1 X90.641 Y129.127 E19.86342
G1 X89.157 Y127.145 E19.99209
G1 X87.177 Y124.659 E20.15726
G1 X86.616 Y123.894 E20.20656
G1 X86.121 Y123.085 E20.25584
G1 X85.696 Y122.237 E20.30514
G1 X85.317 Y121.278 E20.35873
G1 X85.122 Y120.71 E20.38994
G1 X85.012 Y120.372 E20.40841
G1 X84.909 Y120.038 E20.42657
G1 X84.668 Y119.121 E20.47585
G1 X84.505 Y118.187 E20.52512
G1 X84.421 Y117.242 E20.57443
G1 X84.417 Y116.293 E20.62374
G1 X84.493 Y115.348 E20.67301
G1 X84.649 Y114.412 E20.72233
G1 X84.909 Y113.408 E20.77623
G1 X85.086 Y112.834 E20.80744
G1 X85.176 Y112.553 E20.82278
G1 X85.288 Y112.221 E20.84098
G1 X85.629 Y111.336 E20.89027
G1 X86.043 Y110.483 E20.93955
G1 X86.528 Y109.667 E20.98888
G1 X87.079 Y108.896 E21.03813
