;FLAVOR:Marlin
;TIME:8338
;Filament used: 7.65688m
;Layer height: 0.2
;MINX:73.761
;MINY:73.764
;MINZ:0.2
;MAXX:161.237
;MAXY:161.238
;MAXZ:34.2
;Generated with Cura_SteamEngine 4.8.0
M140 S50
M105
M190 S50
M104 S200
M105
M109 S200
M82 ;absolute extrusion mode
; Ender 3 Custom Start G-code
G1 Z20.0 F3000 ; Move Z Axis up to prevent crashing in side of build plate
G28 ; Home all axes
M420 S1 ;
G29 ;
G92 E ;
G92 E0 ; Reset Extruder
G1 X5.1 Y20 Z0.3 F5000.0 ; Move to start position
G1 X5.1 Y200.0 Z0.3 F1500.0 E15 ; Draw the first line
G1 X0.4 Y200.0 Z0.3 F5000.0 ; Move to side a little
G1 X0.4 Y20 Z0.3 F1500.0 E30 ; Draw the second line
G92 E0 ; Reset Extruder
G1 Z2.0 F3000 ; Move Z Axis up little to prevent scratching of Heat Bed
G92 E0
G92 E0
G1 F2700 E-5
;LAYER_COUNT:170
;LAYER:0
M107
G1 F600 Z0.4
G0 F2400 X86.66 Y86.484 Z0.4
;TYPE:SKIRT
G1 F600 Z0.2
G1 F2700 E0
G1 F1200 X86.948 Y86.2 E0.02102
G1 X87.749 Y85.438 E0.07847
G1 X88.045 Y85.166 E0.09937
G1 X88.868 Y84.435 E0.15657
G1 X89.185 Y84.164 E0.17825
G1 X90.056 Y83.444 E0.23697
G1 X90.372 Y83.191 E0.25801
G1 X91.247 Y82.517 E0.31541
G1 X91.566 Y82.28 E0.33606
G1 X92.487 Y81.619 E0.39498
G1 X92.828 Y81.383 E0.41653
G1 X93.728 Y80.784 E0.47271
G1 X94.076 Y80.561 E0.49419
G1 X95.008 Y79.987 E0.55108
G1 X95.355 Y79.782 E0.57202
G1 X96.354 Y79.213 E0.63177
G1 X96.72 Y79.013 E0.65344
G1 X97.704 Y78.498 E0.71116
G1 X98.062 Y78.318 E0.73199
G1 X99.021 Y77.857 E0.78728
G1 X99.385 Y77.69 E0.8081
G1 X100.45 Y77.222 E0.86855
G1 X100.832 Y77.062 E0.89008
G1 X101.827 Y76.666 E0.94573
G1 X102.212 Y76.52 E0.96713
G1 X103.282 Y76.137 E1.02619
G1 X103.664 Y76.008 E1.04714
G1 X104.712 Y75.673 E1.10432
G1 X105.112 Y75.553 E1.12602
G1 X106.169 Y75.256 E1.18308
G1 X106.547 Y75.156 E1.2034
G1 X107.672 Y74.88 E1.2636
G1 X108.075 Y74.789 E1.28507
G1 X109.121 Y74.571 E1.3406
G1 X109.523 Y74.495 E1.36186
G1 X110.591 Y74.311 E1.41818
G1 X110.994 Y74.248 E1.43938
G1 X112.171 Y74.087 E1.50112
G1 X112.581 Y74.039 E1.52257
G1 X113.639 Y73.932 E1.57783
G1 X114.05 Y73.897 E1.59927
G1 X115.145 Y73.825 E1.6563
G1 X115.536 Y73.806 E1.67664
G1 X116.648 Y73.77 E1.73446
G1 X117.058 Y73.764 E1.75577
G1 X118.227 Y73.767 E1.81652
G1 X118.647 Y73.776 E1.83836
G1 X119.664 Y73.815 E1.89125
G1 X120.065 Y73.837 E1.91212
G1 X121.236 Y73.922 E1.97313
G1 X121.649 Y73.959 E1.99468
G1 X122.749 Y74.078 E2.05218
G1 X123.145 Y74.128 E2.07293
G1 X124.217 Y74.281 E2.1292
G1 X124.612 Y74.344 E2.14999
G1 X125.721 Y74.541 E2.20852
G1 X126.135 Y74.622 E2.23045
G1 X127.219 Y74.855 E2.28807
G1 X127.622 Y74.949 E2.30957
G1 X128.713 Y75.224 E2.36804
G1 X129.092 Y75.327 E2.38846
G1 X130.134 Y75.627 E2.44481
G1 X130.529 Y75.748 E2.46628
G1 X131.586 Y76.093 E2.52406
G1 X131.967 Y76.225 E2.54501
G1 X133.014 Y76.607 E2.60293
G1 X133.4 Y76.755 E2.62442
G1 X134.471 Y77.189 E2.68447
G1 X134.846 Y77.349 E2.70566
G1 X135.803 Y77.776 E2.76012
G1 X136.173 Y77.949 E2.78135
G1 X137.221 Y78.461 E2.84196
G1 X137.582 Y78.645 E2.86302
G1 X138.535 Y79.152 E2.91912
G1 X138.896 Y79.352 E2.94057
G1 X139.844 Y79.9 E2.99747
G1 X140.19 Y80.108 E3.01845
G1 X141.136 Y80.699 E3.07642
G1 X141.481 Y80.923 E3.0978
G1 X142.455 Y81.58 E3.15886
G1 X142.785 Y81.811 E3.17979
G1 X143.594 Y82.398 E3.23173
G1 X143.917 Y82.641 E3.25274
G1 X144.856 Y83.373 E3.31461
G1 X145.179 Y83.635 E3.33623
G1 X146.019 Y84.339 E3.39319
G1 X146.325 Y84.604 E3.41422
G1 X147.153 Y85.348 E3.47207
G1 X147.456 Y85.63 E3.49358
G1 X148.239 Y86.385 E3.55011
G1 X148.522 Y86.667 E3.57087
G1 X149.301 Y87.471 E3.62905
G1 X149.584 Y87.773 E3.65056
G1 X150.336 Y88.606 E3.70888
G1 X150.603 Y88.913 E3.73003
G1 X151.284 Y89.722 E3.78498
G1 X151.536 Y90.032 E3.80574
G1 X152.264 Y90.959 E3.867
G1 X152.518 Y91.295 E3.88889
G1 X153.166 Y92.184 E3.94606
G1 X153.396 Y92.51 E3.96679
G1 X153.988 Y93.383 E4.02161
G1 X154.209 Y93.722 E4.04264
G1 X154.821 Y94.695 E4.10238
G1 X155.039 Y95.055 E4.12425
G1 X155.615 Y96.048 E4.18391
G1 X155.807 Y96.393 E4.20443
G1 X156.32 Y97.35 E4.26086
G1 X156.513 Y97.727 E4.28287
G1 X157.002 Y98.724 E4.34058
G1 X157.173 Y99.088 E4.36148
G1 X157.623 Y100.091 E4.41861
G1 X157.779 Y100.455 E4.43919
G1 X158.187 Y101.453 E4.49522
G1 X158.333 Y101.828 E4.51613
G1 X158.726 Y102.892 E4.57508
G1 X158.868 Y103.299 E4.59748
G1 X159.231 Y104.405 E4.65797
G1 X159.348 Y104.782 E4.67849
G1 X159.64 Y105.784 E4.73273
G1 X159.748 Y106.179 E4.75401
G1 X160.021 Y107.254 E4.81165
G1 X160.114 Y107.652 E4.83289
G1 X160.354 Y108.757 E4.89165
G1 X160.433 Y109.154 E4.91269
G1 X160.634 Y110.262 E4.97121
G1 X160.701 Y110.671 E4.99275
G1 X160.861 Y111.773 E5.05062
G1 X160.913 Y112.179 E5.07189
G1 X161.028 Y113.227 E5.12668
G1 X161.064 Y113.62 E5.14719
G1 X161.152 Y114.78 E5.20765
G1 X161.176 Y115.19 E5.22899
G1 X161.221 Y116.293 E5.28636
G1 X161.231 Y116.707 E5.30788
G1 X161.237 Y117.8 E5.36469
G1 X161.232 Y118.207 E5.38584
G1 X161.199 Y119.34 E5.44475
G1 X161.18 Y119.755 E5.46634
G1 X161.109 Y120.855 E5.52362
G1 X161.077 Y121.242 E5.5438
G1 X160.974 Y122.295 E5.59879
G1 X160.926 Y122.708 E5.62039
G1 X160.769 Y123.882 E5.68195
G1 X160.708 Y124.29 E5.70339
G1 X160.527 Y125.357 E5.75963
G1 X160.452 Y125.757 E5.78078
G1 X160.233 Y126.823 E5.83734
G1 X160.141 Y127.229 E5.85897
G1 X159.858 Y128.395 E5.92132
G1 X159.758 Y128.78 E5.942
G1 X159.49 Y129.741 E5.99384
G1 X159.375 Y130.129 E6.01488
G1 X159.028 Y131.226 E6.07467
G1 X158.897 Y131.614 E6.09595
G1 X158.517 Y132.684 E6.15496
G1 X158.374 Y133.067 E6.17621
G1 X157.98 Y134.065 E6.23197
G1 X157.822 Y134.446 E6.2534
G1 X157.366 Y135.492 E6.3127
G1 X157.196 Y135.864 E6.33396
G1 X156.715 Y136.87 E6.39191
G1 X156.535 Y137.229 E6.41278
G1 X156.034 Y138.191 E6.46915
G1 X155.842 Y138.546 E6.49012
G1 X155.292 Y139.519 E6.54821
G1 X155.074 Y139.888 E6.57048
G1 X154.51 Y140.806 E6.62647
G1 X154.304 Y141.129 E6.64638
G1 X153.649 Y142.121 E6.70816
G1 X153.41 Y142.47 E6.73014
G1 X152.803 Y143.321 E6.78446
G1 X152.563 Y143.645 E6.80542
G1 X151.871 Y144.548 E6.86454
G1 X151.619 Y144.866 E6.88563
G1 X150.914 Y145.723 E6.9433
G1 X150.647 Y146.036 E6.96468
G1 X149.914 Y146.866 E7.02223
G1 X149.64 Y147.166 E7.04334
G1 X148.894 Y147.954 E7.09973
G1 X148.604 Y148.249 E7.12123
G1 X147.767 Y149.073 E7.18227
G1 X147.478 Y149.349 E7.20304
G1 X146.682 Y150.081 E7.25924
G1 X146.37 Y150.357 E7.28089
G1 X145.549 Y151.06 E7.33706
G1 X145.24 Y151.316 E7.35791
G1 X144.361 Y152.018 E7.41637
G1 X144.037 Y152.268 E7.43764
G1 X143.118 Y152.951 E7.49714
G1 X142.777 Y153.195 E7.51893
G1 X141.905 Y153.796 E7.57397
G1 X141.586 Y154.008 E7.59388
G1 X140.65 Y154.609 E7.65168
G1 X140.284 Y154.835 E7.67404
G1 X139.307 Y155.413 E7.73303
G1 X138.977 Y155.601 E7.75277
G1 X138.013 Y156.13 E7.80992
G1 X137.631 Y156.33 E7.83232
G1 X136.601 Y156.847 E7.89222
G1 X136.227 Y157.027 E7.91379
G1 X135.287 Y157.458 E7.96753
G1 X134.923 Y157.617 E7.98817
G1 X133.854 Y158.064 E8.04839
G1 X133.482 Y158.212 E8.06919
G1 X132.439 Y158.607 E8.12715
G1 X132.045 Y158.749 E8.14892
G1 X131.011 Y159.099 E8.20565
G1 X130.628 Y159.221 E8.22654
G1 X129.534 Y159.55 E8.28591
G1 X129.126 Y159.665 E8.30794
G1 X128.091 Y159.936 E8.36354
G1 X127.72 Y160.027 E8.38339
G1 X126.625 Y160.276 E8.44175
G1 X126.218 Y160.361 E8.46336
G1 X125.152 Y160.564 E8.51975
G1 X124.741 Y160.634 E8.54142
G1 X123.552 Y160.817 E8.60394
G1 X123.154 Y160.872 E8.62482
G1 X122.163 Y160.99 E8.67668
G1 X121.752 Y161.031 E8.69815
G1 X120.579 Y161.129 E8.75932
G1 X120.18 Y161.156 E8.7801
G1 X119.146 Y161.207 E8.8339
G1 X118.74 Y161.22 E8.85501
G1 X117.521 Y161.238 E8.91837
G1 X117.107 Y161.237 E8.93989
G1 X116.084 Y161.216 E8.99306
G1 X115.684 Y161.201 E9.01386
G1 X114.53 Y161.138 E9.07393
G1 X114.107 Y161.107 E9.09597
G1 X112.985 Y161.005 E9.15452
G1 X112.601 Y160.963 E9.17459
G1 X111.53 Y160.83 E9.23068
G1 X111.111 Y160.771 E9.25267
G1 X110.03 Y160.597 E9.30957
G1 X109.635 Y160.526 E9.33043
G1 X108.539 Y160.311 E9.38847
G1 X108.136 Y160.225 E9.40989
G1 X107.024 Y159.966 E9.46922
G1 X106.623 Y159.865 E9.49071
G1 X105.565 Y159.579 E9.54767
G1 X105.175 Y159.466 E9.56877
G1 X104.132 Y159.145 E9.62548
G1 X103.761 Y159.024 E9.64576
G1 X102.681 Y158.652 E9.70513
G1 X102.283 Y158.507 E9.72714
G1 X101.289 Y158.124 E9.7825
G1 X100.905 Y157.968 E9.80404
G1 X99.824 Y157.507 E9.86511
G1 X99.457 Y157.343 E9.886
G1 X98.503 Y156.897 E9.94073
G1 X98.141 Y156.72 E9.96167
G1 X97.092 Y156.185 E10.02287
G1 X96.731 Y155.994 E10.04409
G1 X95.824 Y155.491 E10.09799
G1 X95.472 Y155.287 E10.11914
G1 X94.51 Y154.709 E10.17746
G1 X94.176 Y154.501 E10.19791
G1 X93.249 Y153.901 E10.25529
G1 X92.893 Y153.661 E10.27761
G1 X91.925 Y152.983 E10.33902
G1 X91.588 Y152.738 E10.36068
G1 X90.744 Y152.101 E10.41563
G1 X90.437 Y151.862 E10.43585
G1 X89.609 Y151.193 E10.49117
G1 X89.289 Y150.924 E10.51289
G1 X88.376 Y150.131 E10.57574
G1 X88.086 Y149.871 E10.59598
G1 X87.317 Y149.157 E10.65052
G1 X87.003 Y148.855 E10.67316
G1 X86.205 Y148.057 E10.73181
G1 X85.934 Y147.776 E10.75209
G1 X85.177 Y146.967 E10.80967
G1 X84.901 Y146.661 E10.83109
G1 X84.186 Y145.841 E10.88763
G1 X83.925 Y145.531 E10.90869
G1 X83.199 Y144.638 E10.9685
G1 X82.943 Y144.312 E10.99004
G1 X82.277 Y143.431 E11.04743
G1 X82.046 Y143.114 E11.06782
G1 X81.423 Y142.23 E11.12402
G1 X81.19 Y141.888 E11.14553
G1 X80.585 Y140.962 E11.20301
G1 X80.362 Y140.606 E11.22484
G1 X79.767 Y139.62 E11.28469
G1 X79.564 Y139.27 E11.30572
G1 X79.04 Y138.33 E11.36165
G1 X78.852 Y137.979 E11.38234
G1 X78.333 Y136.969 E11.44135
G1 X78.148 Y136.593 E11.46313
G1 X77.685 Y135.607 E11.51974
G1 X77.52 Y135.24 E11.54065
G1 X77.083 Y134.22 E11.59832
G1 X76.93 Y133.845 E11.61937
G1 X76.524 Y132.799 E11.67768
G1 X76.382 Y132.412 E11.6991
G1 X76.018 Y131.367 E11.75661
G1 X75.889 Y130.977 E11.77796
G1 X75.555 Y129.898 E11.83666
G1 X75.444 Y129.514 E11.85743
G1 X75.164 Y128.487 E11.91275
G1 X75.063 Y128.091 E11.93399
G1 X74.805 Y126.996 E11.99245
G1 X74.72 Y126.603 E12.01335
G1 X74.498 Y125.492 E12.07223
G1 X74.423 Y125.083 E12.09384
G1 X74.241 Y123.968 E12.15255
G1 X74.182 Y123.561 E12.17392
G1 X74.047 Y122.502 E12.2294
G1 X74.003 Y122.101 E12.25037
G1 X73.898 Y120.969 E12.30945
G1 X73.867 Y120.559 E12.33082
G1 X73.805 Y119.481 E12.38693
G1 X73.789 Y119.079 E12.40784
G1 X73.763 Y117.961 E12.46596
G1 X73.761 Y117.553 E12.48716
G1 X73.774 Y116.422 E12.54594
G1 X73.785 Y116.017 E12.567
G1 X73.835 Y114.931 E12.62349
G1 X73.862 Y114.512 E12.64531
G1 X73.954 Y113.388 E12.70392
G1 X73.995 Y112.979 E12.72528
G1 X74.127 Y111.853 E12.7842
G1 X74.179 Y111.467 E12.80444
G1 X74.334 Y110.44 E12.85842
G1 X74.402 Y110.034 E12.87981
G1 X74.609 Y108.927 E12.93834
G1 X74.694 Y108.514 E12.96025
G1 X74.951 Y107.369 E13.02124
G1 X75.048 Y106.972 E13.04248
G1 X75.32 Y105.931 E13.09839
G1 X75.424 Y105.558 E13.11852
G1 X75.741 Y104.49 E13.17641
G1 X75.867 Y104.092 E13.19811
G1 X76.219 Y103.044 E13.25556
G1 X76.355 Y102.66 E13.27673
G1 X76.74 Y101.633 E13.33373
G1 X76.894 Y101.242 E13.35557
G1 X77.334 Y100.185 E13.41507
G1 X77.492 Y99.824 E13.43555
G1 X77.94 Y98.842 E13.49164
G1 X78.118 Y98.468 E13.51317
G1 X78.621 Y97.461 E13.57167
G1 X78.808 Y97.104 E13.59261
G1 X79.33 Y96.143 E13.64945
G1 X79.534 Y95.783 E13.67095
G1 X80.116 Y94.796 E13.7305
G1 X80.323 Y94.458 E13.75109
G1 X80.884 Y93.576 E13.80542
G1 X81.117 Y93.223 E13.8274
G1 X81.789 Y92.246 E13.88902
G1 X82.019 Y91.923 E13.90963
G1 X82.644 Y91.077 E13.96429
G1 X82.885 Y90.762 E13.9849
G1 X83.587 Y89.876 E14.04365
G1 X83.863 Y89.541 E14.06621
G1 X84.607 Y88.67 E14.12574
G1 X84.869 Y88.374 E14.14628
G1 X85.594 Y87.581 E14.20212
G1 X85.879 Y87.28 E14.22366
G1 X86.66 Y86.484 E14.28161
G0 F2400 X87.017 Y86.834
G1 F1200 X87.293 Y86.562 E14.30175
G1 X88.094 Y85.8 E14.35921
G1 X88.377 Y85.54 E14.37918
G1 X89.2 Y84.809 E14.43638
G1 X89.503 Y84.549 E14.45713
G1 X90.374 Y83.829 E14.51586
G1 X90.677 Y83.588 E14.53598
G1 X91.552 Y82.914 E14.59338
G1 X91.857 Y82.686 E14.61317
G1 X92.778 Y82.025 E14.67209
G1 X93.105 Y81.8 E14.69271
G1 X94.005 Y81.201 E14.7489
G1 X94.338 Y80.987 E14.76947
G1 X95.27 Y80.413 E14.82635
G1 X95.602 Y80.216 E14.84642
G1 X96.601 Y79.647 E14.90616
G1 X96.952 Y79.456 E14.92693
G1 X97.936 Y78.941 E14.98465
G1 X98.279 Y78.769 E15.00459
G1 X99.238 Y78.308 E15.05989
G1 X99.586 Y78.148 E15.07979
G1 X100.651 Y77.68 E15.14025
G1 X101.017 Y77.526 E15.16088
G1 X102.012 Y77.13 E15.21654
G1 X102.381 Y76.991 E15.23703
G1 X103.451 Y76.608 E15.29609
G1 X103.817 Y76.484 E15.31617
G1 X104.865 Y76.149 E15.37335
G1 X105.247 Y76.034 E15.39408
G1 X106.304 Y75.737 E15.45114
G1 X106.666 Y75.642 E15.47059
G1 X107.791 Y75.366 E15.53079
G1 X108.177 Y75.279 E15.55135
G1 X109.223 Y75.061 E15.60688
G1 X109.608 Y74.987 E15.62726
G1 X110.676 Y74.803 E15.68358
G1 X111.061 Y74.744 E15.70382
G1 X112.238 Y74.583 E15.76555
G1 X112.631 Y74.536 E15.78612
G1 X113.689 Y74.429 E15.84139
G1 X114.083 Y74.396 E15.86194
G1 X115.178 Y74.324 E15.91896
G1 X115.552 Y74.306 E15.93842
G1 X116.664 Y74.27 E15.99624
G1 X117.057 Y74.264 E16.01667
G1 X118.226 Y74.267 E16.07742
G1 X118.628 Y74.275 E16.09832
G1 X119.645 Y74.314 E16.15121
G1 X120.028 Y74.336 E16.17114
G1 X121.199 Y74.421 E16.23216
G1 X121.595 Y74.456 E16.25282
G1 X122.695 Y74.575 E16.31032
G1 X123.075 Y74.623 E16.33023
G1 X124.147 Y74.776 E16.3865
G1 X124.525 Y74.836 E16.40639
G1 X125.634 Y75.033 E16.46493
G1 X126.03 Y75.111 E16.4859
G1 X127.114 Y75.344 E16.54352
G1 X127.5 Y75.434 E16.56412
G1 X128.591 Y75.709 E16.62259
G1 X128.954 Y75.807 E16.64213
G1 X129.996 Y76.107 E16.69848
G1 X130.374 Y76.223 E16.71903
G1 X131.431 Y76.568 E16.77682
G1 X131.796 Y76.694 E16.79688
G1 X132.843 Y77.076 E16.8548
G1 X133.212 Y77.219 E16.87537
G1 X134.283 Y77.653 E16.93542
G1 X134.642 Y77.805 E16.95568
G1 X135.599 Y78.232 E17.01014
G1 X135.953 Y78.398 E17.03046
G1 X137.001 Y78.91 E17.09108
G1 X137.347 Y79.086 E17.11125
G1 X138.3 Y79.593 E17.16735
G1 X138.646 Y79.785 E17.18792
G1 X139.594 Y80.333 E17.24482
G1 X139.925 Y80.532 E17.26489
G1 X140.871 Y81.123 E17.32286
G1 X141.201 Y81.337 E17.3433
G1 X142.175 Y81.994 E17.40436
G1 X142.491 Y82.215 E17.4244
G1 X143.3 Y82.802 E17.47634
G1 X143.61 Y83.035 E17.4965
G1 X144.549 Y83.767 E17.55837
G1 X144.858 Y84.018 E17.57906
G1 X145.698 Y84.722 E17.63602
G1 X145.991 Y84.976 E17.65617
G1 X146.819 Y85.72 E17.71402
G1 X147.109 Y85.99 E17.73461
G1 X147.892 Y86.745 E17.79114
G1 X148.163 Y87.015 E17.81102
G1 X148.942 Y87.819 E17.8692
G1 X149.213 Y88.108 E17.88979
G1 X149.965 Y88.941 E17.94811
G1 X150.221 Y89.235 E17.96837
G1 X150.902 Y90.044 E18.02332
G1 X151.143 Y90.341 E18.0432
G1 X151.871 Y91.268 E18.10445
G1 X152.114 Y91.589 E18.12538
G1 X152.762 Y92.478 E18.18255
G1 X152.982 Y92.791 E18.20243
G1 X153.574 Y93.664 E18.25725
G1 X153.786 Y93.988 E18.27737
G1 X154.398 Y94.961 E18.33711
G1 X154.606 Y95.306 E18.35804
G1 X155.182 Y96.299 E18.4177
G1 X155.366 Y96.629 E18.43734
G1 X155.879 Y97.586 E18.49377
G1 X156.065 Y97.947 E18.51487
G1 X156.554 Y98.944 E18.57258
G1 X156.717 Y99.293 E18.5926
G1 X157.167 Y100.296 E18.64973
G1 X157.316 Y100.644 E18.6694
G1 X157.724 Y101.642 E18.72543
G1 X157.864 Y102.001 E18.74546
G1 X158.257 Y103.065 E18.8044
G1 X158.393 Y103.455 E18.82587
G1 X158.756 Y104.561 E18.88636
G1 X158.868 Y104.921 E18.90596
G1 X159.16 Y105.923 E18.9602
G1 X159.263 Y106.302 E18.98061
G1 X159.536 Y107.377 E19.03825
G1 X159.626 Y107.758 E19.05859
G1 X159.866 Y108.863 E19.11736
G1 X159.941 Y109.243 E19.13749
G1 X160.142 Y110.351 E19.19601
G1 X160.206 Y110.743 E19.21665
G1 X160.366 Y111.845 E19.27452
G1 X160.416 Y112.234 E19.2949
G1 X160.531 Y113.282 E19.34969
G1 X160.566 Y113.658 E19.36932
G1 X160.654 Y114.818 E19.42977
G1 X160.677 Y115.21 E19.45018
G1 X160.722 Y116.313 E19.50755
G1 X160.731 Y116.71 E19.52819
G1 X160.737 Y117.803 E19.58499
G1 X160.732 Y118.193 E19.60526
G1 X160.699 Y119.326 E19.66416
G1 X160.681 Y119.723 E19.68482
G1 X160.61 Y120.823 E19.7421
G1 X160.58 Y121.193 E19.76139
G1 X160.477 Y122.246 E19.81638
G1 X160.431 Y122.642 E19.8371
G1 X160.274 Y123.816 E19.89865
G1 X160.215 Y124.207 E19.9192
G1 X160.034 Y125.274 E19.97544
G1 X159.962 Y125.656 E19.99565
G1 X159.743 Y126.722 E20.0522
G1 X159.656 Y127.111 E20.07292
G1 X159.373 Y128.277 E20.13527
